rahulrajes/HRL_SunLabs/rigid_spine_log_analysis/output_RigidSpine4_1.txt
iteration,total_iterations,action_noise_std,value_function_loss,surrogate_loss,entropy_loss,mean_reward,mean_episode_length,rew_air_time,rew_base_angular_vel,rew_base_linear_vel,rew_foot_clearance,rew_gait,rew_action_smoothness,rew_air_time_variance,rew_base_motion,rew_base_orientation,rew_foot_slip,rew_joint_acc,rew_joint_pos,rew_joint_torques,rew_joint_vel,terrain_level,error_vel_xy,error_vel_yaw,term_timeout,term_body_contact,term_out_of_bounds,total_timesteps,iteration_time_s
0,30000,1.0,2.5044,0.0887,17.0273,2.78,13.58,0.009,0.0297,0.1029,0.0001,0.0382,-0.0292,-0.0,-0.0116,-0.0013,-0.0004,-0.0034,-0.0029,-0.0001,-0.0018,4.3819,0.0069,0.0011,0.0071,0.0,0.0,117600.0,3.46
1,30000,1.0,3.5777,0.0015,17.0328,6.14,30.21,0.0183,0.0829,0.3176,0.0015,0.1037,-0.0877,-0.0001,-0.0325,-0.0045,-0.0086,-0.0062,-0.0096,-0.0004,-0.0034,4.3681,0.0201,0.0071,0.0216,0.0,0.0,235200.0,1.95
2,30000,1.01,3.501,-0.0016,17.0604,11.75,55.06,0.0266,0.133,0.5077,0.003,0.2159,-0.1451,-0.0001,-0.0392,-0.007,-0.0192,-0.0093,-0.0119,-0.0006,-0.0049,4.3563,0.0353,0.0159,0.0343,0.0,0.0,352800.0,1.91
3,30000,1.01,3.3521,0.0005,17.1343,16.57,75.91,0.0303,0.1873,0.721,0.0044,0.3108,-0.2026,-0.0001,-0.046,-0.0103,-0.0317,-0.0141,-0.0179,-0.0009,-0.0064,4.3433,0.0487,0.0211,0.048,0.0,0.0,470400.0,1.95
4,30000,1.01,3.1831,0.0011,17.1629,22.0,99.24,0.0352,0.2386,0.9382,0.0059,0.4197,-0.2612,-0.0001,-0.0549,-0.0126,-0.0424,-0.0132,-0.021,-0.0011,-0.0076,4.333,0.0605,0.0288,0.06,0.0,0.0,588000.0,1.87
5,30000,1.01,3.0073,-0.001,17.1749,26.98,120.85,0.0422,0.2906,1.1089,0.0075,0.538,-0.3191,-0.0001,-0.0614,-0.0156,-0.0507,-0.019,-0.0222,-0.0013,-0.0086,4.3225,0.0781,0.0359,0.0715,0.0,0.0,705600.0,1.96
6,30000,1.01,2.9183,0.0069,17.1866,33.51,148.15,0.0391,0.3432,1.4058,0.0088,0.5646,-0.3766,-0.0001,-0.0666,-0.018,-0.0638,-0.0206,-0.0368,-0.0015,-0.0101,4.3128,0.0822,0.0424,0.082,0.0,0.0,823200.0,1.94
7,30000,1.01,2.8028,-0.0006,17.1644,39.28,173.45,0.049,0.3984,1.5471,0.0104,0.7225,-0.4344,-0.0001,-0.0772,-0.0206,-0.0748,-0.0242,-0.0336,-0.0018,-0.0116,4.3013,0.103,0.0466,0.0946,0.0,0.0,940800.0,1.96
8,30000,1.01,2.6988,0.002,17.1623,43.89,193.3,0.0576,0.447,1.7165,0.0123,0.8588,-0.4936,-0.0001,-0.086,-0.0244,-0.0822,-0.0243,-0.0332,-0.002,-0.0129,4.2908,0.1201,0.0566,0.1062,0.0,0.0,1058400.0,1.96
9,30000,1.01,2.5787,0.0014,17.1379,50.11,220.56,0.0511,0.497,2.0775,0.0133,0.8431,-0.5516,-0.0001,-0.0911,-0.0265,-0.0965,-0.0332,-0.0531,-0.0023,-0.0144,4.2809,0.1189,0.0664,0.1178,0.0,0.0,1176000.0,2.05
10,30000,1.0,2.4551,-0.001,17.0851,55.24,241.4,0.0622,0.5544,2.2106,0.0148,1.0258,-0.6065,-0.0002,-0.0957,-0.0295,-0.1093,-0.0392,-0.0463,-0.0026,-0.0159,4.2716,0.1392,0.0674,0.1287,0.0,0.0,1293600.0,1.95
11,30000,1.0,2.4052,0.0019,17.0365,60.72,265.16,0.0705,0.6073,2.3235,0.0161,1.1625,-0.6697,-0.0002,-0.1079,-0.0324,-0.1223,-0.0467,-0.0471,-0.0028,-0.0177,4.262,0.1628,0.0741,0.1389,0.0,0.0,1411200.0,2.03
12,30000,1.0,2.2995,0.0002,17.0001,67.25,292.47,0.0779,0.6622,2.4687,0.0179,1.3332,-0.7255,-0.0002,-0.1086,-0.0346,-0.1276,-0.044,-0.0426,-0.003,-0.0184,4.2511,0.1823,0.0789,0.1509,0.0,0.0,1528800.0,2.03
13,30000,0.99,2.2267,0.0002,16.9697,73.15,317.07,0.0694,0.7091,2.952,0.0195,1.2161,-0.7815,-0.0002,-0.1172,-0.0377,-0.143,-0.0471,-0.0741,-0.0033,-0.0197,4.2402,0.1672,0.0905,0.1632,0.0,0.0,1646400.0,2.02
14,30000,0.99,2.1454,-0.0032,16.9097,79.04,339.81,0.0724,0.7626,3.2698,0.021,1.2649,-0.8395,-0.0002,-0.1264,-0.0399,-0.1498,-0.0501,-0.0842,-0.0035,-0.0211,4.2303,0.1709,0.0968,0.1749,0.0,0.0,1764000.0,1.95
15,30000,0.99,2.0765,-0.0004,16.8773,85.01,367.17,0.0889,0.814,3.1587,0.0223,1.5924,-0.8986,-0.0002,-0.1324,-0.0433,-0.1668,-0.0545,-0.0613,-0.0038,-0.0225,4.2189,0.2161,0.1043,0.1877,0.0,0.0,1881600.0,1.94
16,30000,0.99,1.9867,-0.0031,16.8496,90.98,392.69,0.0836,0.8669,3.596,0.0239,1.4781,-0.9532,-0.0002,-0.1405,-0.0457,-0.176,-0.0469,-0.0907,-0.0038,-0.0238,4.2046,0.2077,0.1108,0.2036,0.0,0.0,1999200.0,1.95
17,30000,0.98,1.8877,-0.0046,16.8024,95.06,409.65,0.0955,0.9185,3.6416,0.0256,1.7745,-1.0079,-0.0002,-0.1445,-0.0478,-0.1866,-0.0646,-0.072,-0.0043,-0.025,4.194,0.2356,0.1176,0.216,0.0,0.0,2116800.0,1.89
18,30000,0.98,1.8643,0.001,16.7336,102.69,436.46,0.1057,0.971,3.8483,0.0271,1.9284,-1.0672,-0.0002,-0.1555,-0.0503,-0.1973,-0.0509,-0.0692,-0.0042,-0.0263,4.1832,0.2485,0.1247,0.2274,0.0,0.0,2234400.0,1.91
19,30000,0.97,1.7477,-0.0014,16.7214,109.29,461.17,0.106,1.0269,4.1685,0.0291,1.9394,-1.1201,-0.0002,-0.1605,-0.0531,-0.2031,-0.0607,-0.0853,-0.0046,-0.0275,4.1715,0.2506,0.128,0.2398,0.0,0.0,2352000.0,1.9
20,30000,0.97,1.671,-0.0033,16.642,113.93,483.29,0.1059,1.085,4.3629,0.0301,2.0166,-1.1757,-0.0002,-0.167,-0.0555,-0.2224,-0.0808,-0.0934,-0.005,-0.0303,4.1607,0.2664,0.1292,0.2518,0.0,0.0,2469600.0,1.9
21,30000,0.97,1.6681,0.004,16.6279,119.36,509.04,0.1178,1.1371,4.5338,0.0322,2.1884,-1.2301,-0.0003,-0.1743,-0.0586,-0.2273,-0.0611,-0.087,-0.005,-0.0301,4.1499,0.2827,0.1365,0.2643,0.0,0.0,2587200.0,1.93
22,30000,0.96,1.5529,-0.0007,16.6156,125.84,531.5,0.1157,1.1852,4.9166,0.0335,2.1972,-1.2873,-0.0003,-0.1798,-0.0605,-0.2412,-0.0722,-0.1028,-0.0053,-0.0317,4.1401,0.2782,0.1475,0.2756,0.0,0.0,2704800.0,1.91
23,30000,0.96,1.5077,-0.0031,16.5282,132.99,557.17,0.1064,1.2337,5.3785,0.0348,2.0705,-1.3467,-0.0003,-0.1894,-0.0644,-0.2487,-0.0832,-0.1338,-0.0056,-0.0335,4.1287,0.2673,0.1578,0.2887,0.0,0.0,2822400.0,1.92
24,30000,0.96,1.4365,-0.0018,16.5112,137.29,577.27,0.1243,1.2918,5.4062,0.0375,2.2618,-1.393,-0.0003,-0.201,-0.0665,-0.256,-0.0621,-0.1246,-0.0055,-0.0338,4.1192,0.2985,0.1589,0.3002,0.0,0.0,2940000.0,1.9
25,30000,0.96,1.4123,0.0039,16.4818,143.92,603.8,0.1273,1.3434,5.6495,0.0381,2.4002,-1.4504,-0.0003,-0.2038,-0.0688,-0.2714,-0.0684,-0.1279,-0.0058,-0.0352,4.1089,0.3073,0.1665,0.3122,0.0,0.0,3057600.0,1.88
26,30000,0.95,1.3353,-0.0002,16.4722,149.41,626.03,0.1388,1.4017,5.6941,0.04,2.666,-1.5058,-0.0003,-0.2125,-0.0731,-0.2774,-0.0756,-0.1129,-0.0062,-0.0365,4.099,0.3366,0.1674,0.3231,0.0,0.0,3175200.0,1.89
27,30000,0.95,1.3054,-0.002,16.3829,155.88,652.51,0.1483,1.4391,5.8138,0.0414,2.8395,-1.5645,-0.0003,-0.216,-0.0736,-0.2885,-0.0979,-0.1082,-0.0066,-0.0389,4.0881,0.358,0.1888,0.3351,0.0,0.0,3292800.0,1.92
28,30000,0.95,1.2815,-0.0012,16.3694,161.32,673.19,0.1603,1.5024,5.796,0.0427,3.1249,-1.6133,-0.0003,-0.2229,-0.0768,-0.303,-0.1227,-0.0904,-0.007,-0.041,4.0783,0.395,0.1851,0.3454,0.0,0.0,3410400.0,1.9
29,30000,0.95,1.195,-0.0033,16.3376,168.15,697.38,0.159,1.5534,6.3301,0.0451,3.0665,-1.668,-0.0003,-0.2285,-0.0785,-0.3063,-0.086,-0.1118,-0.0068,-0.0399,4.0676,0.3744,0.1932,0.3571,0.0,0.0,3528000.0,1.98
30,30000,0.95,1.1413,-0.001,16.3517,173.56,721.71,0.1556,1.6054,6.5494,0.0464,2.9944,-1.7241,-0.0003,-0.2381,-0.0812,-0.3253,-0.0984,-0.1352,-0.0071,-0.0426,4.0586,0.3895,0.2001,0.3672,0.0,0.0,3645600.0,1.92
31,30000,0.94,1.0883,-0.002,16.325,180.61,750.73,0.1653,1.6609,6.7588,0.0486,3.2124,-1.7721,-0.0004,-0.2449,-0.0846,-0.3267,-0.0844,-0.1281,-0.0072,-0.0424,4.0472,0.4005,0.2042,0.3798,0.0,0.0,3763200.0,1.91
32,30000,0.93,1.0272,0.0006,16.2205,187.67,768.88,0.1678,1.7102,7.1845,0.0496,3.2195,-1.8265,-0.0004,-0.2511,-0.0876,-0.3367,-0.0826,-0.1434,-0.0073,-0.0442,4.0365,0.3912,0.2137,0.3917,0.0,0.0,3880800.0,1.89
33,30000,0.93,0.9507,0.0004,16.1897,193.22,794.06,0.1587,1.772,7.6508,0.0508,3.0635,-1.882,-0.0004,-0.256,-0.0895,-0.3611,-0.0953,-0.1794,-0.0077,-0.0457,4.0276,0.3791,0.211,0.4021,0.0,0.0,3998400.0,1.88
34,30000,0.93,0.946,-0.0044,16.0784,199.43,821.99,0.1866,1.8166,7.3462,0.0528,3.594,-1.9317,-0.0004,-0.2666,-0.0938,-0.365,-0.0894,-0.1321,-0.0077,-0.0471,4.0163,0.4437,0.2257,0.4151,0.0,0.0,4116000.0,1.9
35,30000,0.93,0.882,-0.0003,16.0509,204.95,845.24,0.1984,1.8725,7.4707,0.0536,3.834,-1.9909,-0.0004,-0.2772,-0.0958,-0.3736,-0.0867,-0.1201,-0.0079,-0.0485,4.0042,0.4646,0.2291,0.4279,0.0,0.0,4233600.0,1.92
36,30000,0.92,0.8713,0.0008,16.0117,212.53,869.39,0.1863,1.9253,8.0372,0.0549,3.6952,-2.0376,-0.0004,-0.2778,-0.0979,-0.3886,-0.1037,-0.1525,-0.0083,-0.0498,3.993,0.4415,0.2356,0.4398,0.0,0.0,4351200.0,1.94
37,30000,0.91,0.8189,-0.0021,15.9809,216.86,895.64,0.1665,1.973,8.8482,0.0578,3.1273,-2.0923,-0.0004,-0.2923,-0.1009,-0.3933,-0.096,-0.2343,-0.0084,-0.0509,3.9826,0.3995,0.2472,0.4529,0.0,0.0,4468800.0,1.98
38,30000,0.91,0.8003,-0.0037,15.8587,225.2,920.24,0.1993,2.0184,8.448,0.0591,3.8868,-2.1448,-0.0004,-0.2949,-0.1029,-0.4114,-0.1192,-0.1624,-0.0089,-0.0526,3.9685,0.4693,0.2607,0.4685,0.0,0.0,4586400.0,1.93
39,30000,0.91,0.7504,0.0025,15.8347,229.08,937.91,0.1975,2.0845,8.5961,0.0605,3.9156,-2.1902,-0.0004,-0.2932,-0.1043,-0.4209,-0.1364,-0.1743,-0.0093,-0.0537,3.9582,0.4907,0.2542,0.4802,0.0,0.0,4704000.0,1.91
40,30000,0.9,0.7134,0.0033,15.7941,235.64,961.59,0.2023,2.1336,9.2451,0.0623,3.8782,-2.245,-0.0004,-0.3121,-0.1075,-0.443,-0.1097,-0.1949,-0.0091,-0.0548,3.9492,0.4569,0.2642,0.4911,0.0,0.0,4821600.0,1.95
41,30000,0.9,0.6859,0.0001,15.6736,243.93,989.61,0.2183,2.1886,8.9459,0.0629,4.3866,-2.2948,-0.0005,-0.3124,-0.111,-0.4381,-0.1503,-0.1529,-0.0099,-0.0572,3.9386,0.5209,0.2679,0.503,0.0,0.0,4939200.0,1.92
42,30000,0.89,0.6955,-0.0029,15.6018,249.88,1014.18,0.201,2.226,9.5055,0.0658,3.9509,-2.3431,-0.0005,-0.3158,-0.1138,-0.4379,-0.1305,-0.2192,-0.0099,-0.0572,3.9268,0.5002,0.2897,0.5158,0.0,0.0,5056800.0,1.94
43,30000,0.88,0.6327,-0.0011,15.5566,256.34,1040.34,0.2212,2.2861,9.7177,0.0675,4.3083,-2.3965,-0.0005,-0.3246,-0.1151,-0.4484,-0.1308,-0.1918,-0.01,-0.0585,3.9148,0.5117,0.2891,0.5301,0.0,0.0,5174400.0,1.96
44,30000,0.88,0.6033,-0.0011,15.452,261.88,1056.08,0.2343,2.3516,9.7191,0.0681,4.6851,-2.4456,-0.0005,-0.3329,-0.117,-0.4656,-0.1218,-0.165,-0.01,-0.0595,3.9037,0.5441,0.2824,0.543,0.0,0.0,5292000.0,1.88
45,30000,0.88,0.5767,-0.0022,15.3871,270.13,1086.01,0.2291,2.388,10.2655,0.07,4.4819,-2.4999,-0.0005,-0.3433,-0.1199,-0.4859,-0.1544,-0.2038,-0.0106,-0.062,3.8933,0.5253,0.3054,0.5544,0.0,0.0,5409600.0,1.96
46,30000,0.87,0.5517,0.0026,15.3616,273.88,1106.85,0.2287,2.4436,10.6075,0.0714,4.493,-2.5505,-0.0005,-0.3487,-0.1213,-0.4923,-0.1491,-0.2218,-0.0107,-0.0628,3.881,0.5247,0.3084,0.5673,0.0,0.0,5527200.0,1.93
47,30000,0.87,0.52,0.0002,15.2713,280.42,1128.18,0.2274,2.5039,10.9945,0.0745,4.4039,-2.5916,-0.0005,-0.3506,-0.1241,-0.4903,-0.1364,-0.2447,-0.0107,-0.0629,3.8712,0.5212,0.3073,0.5775,0.0,0.0,5644800.0,1.92
48,30000,0.86,0.5309,-0.0042,15.1624,286.73,1152.94,0.2482,2.5459,10.8644,0.0755,4.8729,-2.6457,-0.0005,-0.3575,-0.1277,-0.5177,-0.1847,-0.2074,-0.0115,-0.0662,3.8621,0.5674,0.3248,0.5879,0.0,0.0,5762400.0,1.93
49,30000,0.86,0.5039,0.0006,15.1457,293.81,1178.68,0.2483,2.6029,11.37,0.0771,4.7384,-2.6954,-0.0006,-0.3709,-0.1301,-0.5137,-0.1136,-0.2407,-0.0108,-0.0653,3.8524,0.5509,0.3265,0.5992,0.0,0.0,5880000.0,1.93
50,30000,0.85,0.4644,0.0002,15.091,302.21,1205.16,0.2683,2.6587,11.3336,0.0792,5.1934,-2.7443,-0.0006,-0.3769,-0.1329,-0.5286,-0.13,-0.2029,-0.0112,-0.0669,3.8429,0.5848,0.3298,0.6102,0.0,0.0,5997600.0,1.91
51,30000,0.85,0.4876,-0.0049,14.9671,310.33,1230.39,0.2766,2.6977,11.3141,0.0812,5.377,-2.7889,-0.0006,-0.3782,-0.1338,-0.5297,-0.1523,-0.1973,-0.0116,-0.0686,3.8299,0.6238,0.3505,0.6246,0.0,0.0,6115200.0,1.93
52,30000,0.85,0.4345,0.0026,14.962,315.54,1253.64,0.2473,2.7682,12.2138,0.083,4.9323,-2.8452,-0.0006,-0.3814,-0.1367,-0.5557,-0.167,-0.263,-0.0121,-0.0689,3.8179,0.5691,0.3397,0.6378,0.0,0.0,6232800.0,1.97
53,30000,0.84,0.4351,0.0003,14.9211,319.68,1275.26,0.2776,2.8099,12.1675,0.0855,5.2897,-2.8797,-0.0006,-0.3953,-0.1396,-0.5526,-0.1356,-0.2401,-0.0118,-0.0692,3.8072,0.6064,0.3567,0.6504,0.0,0.0,6350400.0,1.92
54,30000,0.84,0.4228,-0.0043,14.8152,323.91,1296.31,0.279,2.8759,12.0982,0.0853,5.5504,-2.9306,-0.0006,-0.3896,-0.1425,-0.5485,-0.1489,-0.2258,-0.0123,-0.0704,3.7986,0.6484,0.35,0.6608,0.0,0.0,6468000.0,1.92
55,30000,0.84,0.4115,0.0031,14.8122,331.59,1320.32,0.2807,2.9227,12.5889,0.0861,5.5009,-2.9871,-0.0006,-0.4054,-0.1455,-0.5956,-0.1714,-0.2504,-0.0127,-0.0736,3.7893,0.6325,0.3618,0.6712,0.0,0.0,6585600.0,1.9
56,30000,0.83,0.4125,0.0,14.7482,341.8,1350.68,0.3007,2.9626,12.6178,0.0885,5.9134,-3.0291,-0.0006,-0.41,-0.1489,-0.5928,-0.1576,-0.2162,-0.0127,-0.0745,3.7798,0.6628,0.381,0.6822,0.0,0.0,6703200.0,1.91
57,30000,0.83,0.3757,0.0005,14.6732,348.77,1371.95,0.2967,3.01,13.2003,0.0936,5.7612,-3.072,-0.0007,-0.4103,-0.149,-0.5769,-0.1688,-0.2488,-0.0131,-0.0736,3.7677,0.6375,0.3929,0.6956,0.0,0.0,6820800.0,1.9
58,30000,0.82,0.3678,-0.0003,14.592,353.58,1397.81,0.2911,3.0726,13.2942,0.0926,5.7131,-3.1202,-0.0007,-0.4182,-0.1516,-0.6053,-0.1798,-0.2733,-0.0134,-0.0762,3.7557,0.6654,0.3898,0.7095,0.0,0.0,6938400.0,1.94
59,30000,0.82,0.3569,0.0144,14.565,362.21,1421.22,0.3177,3.1177,13.4876,0.0943,6.1941,-3.17,-0.0007,-0.4291,-0.1558,-0.623,-0.1604,-0.2338,-0.0133,-0.0767,3.7449,0.6756,0.4034,0.7225,0.0,0.0,7056000.0,1.91
60,30000,0.82,0.4121,0.011,14.5568,369.87,1442.61,0.3213,3.1611,13.9086,0.0964,6.1008,-3.2183,-0.0007,-0.4441,-0.1576,-0.6193,-0.1224,-0.2618,-0.0128,-0.0784,3.7336,0.6688,0.4187,0.7348,0.0,0.0,7173600.0,1.91
61,30000,0.82,0.4116,-0.0027,14.539,377.1,1467.68,0.319,3.2216,14.2191,0.0985,6.3003,-3.258,-0.0007,-0.4376,-0.1589,-0.6419,-0.1641,-0.2557,-0.0137,-0.0787,3.723,0.6709,0.4178,0.7466,0.0,0.0,7291200.0,2.05
62,30000,0.82,0.3147,0.0007,14.4328,384.51,1494.55,0.3308,3.2764,14.3278,0.1005,6.3194,-3.3062,-0.0007,-0.4535,-0.163,-0.6313,-0.1565,-0.2665,-0.0137,-0.0807,3.7113,0.6957,0.4224,0.7596,0.0,0.0,7408800.0,2.1
63,30000,0.82,0.3009,0.006,14.4283,389.24,1518.7,0.325,3.3347,14.6608,0.1016,6.3019,-3.3574,-0.0007,-0.4543,-0.166,-0.6506,-0.1929,-0.2893,-0.0144,-0.0822,3.6993,0.6955,0.4235,0.7732,0.0,0.0,7526400.0,2.09
64,30000,0.81,0.3132,0.0229,14.3896,395.81,1545.11,0.3396,3.3899,14.7692,0.1038,6.5493,-3.3986,-0.0007,-0.4659,-0.1682,-0.6681,-0.1687,-0.2734,-0.0142,-0.0835,3.6858,0.7197,0.4278,0.7882,0.0,0.0,7644000.0,1.97
65,30000,0.81,0.3287,-0.0023,14.3746,401.38,1560.22,0.3349,3.4291,14.8684,0.1039,6.7198,-3.4445,-0.0007,-0.4606,-0.1688,-0.6833,-0.2462,-0.2735,-0.0155,-0.0863,3.6739,0.7428,0.4469,0.8013,0.0,0.0,7761600.0,1.9
66,30000,0.81,0.274,-0.0026,14.2851,408.48,1584.81,0.3468,3.4899,15.4451,0.1061,6.6843,-3.4865,-0.0008,-0.4726,-0.1727,-0.6809,-0.2036,-0.2903,-0.0151,-0.0862,3.665,0.7193,0.4456,0.8111,0.0,0.0,7879200.0,2.0
67,30000,0.81,0.2374,-0.0029,14.2673,416.7,1604.8,0.3621,3.5478,15.7533,0.1077,7.023,-3.532,-0.0008,-0.4826,-0.1759,-0.7097,-0.184,-0.27,-0.015,-0.0866,3.6559,0.7193,0.4467,0.8209,0.0,0.0,7996800.0,1.91
68,30000,0.8,0.2454,-0.0022,14.2204,426.79,1630.82,0.3511,3.6015,16.0644,0.1121,6.8379,-3.5812,-0.0008,-0.485,-0.1775,-0.7071,-0.1767,-0.3053,-0.0152,-0.0871,3.6466,0.7278,0.4529,0.8306,0.0,0.0,8114400.0,1.96
69,30000,0.8,0.2814,-0.0023,14.1608,431.49,1657.17,0.3544,3.6458,16.4971,0.1124,6.7321,-3.6206,-0.0008,-0.4875,-0.1748,-0.7134,-0.2088,-0.3376,-0.0156,-0.0897,3.6368,0.7144,0.4666,0.8411,0.0,0.0,8232000.0,1.91
70,30000,0.79,0.2371,-0.0046,14.1142,435.78,1682.82,0.36,3.6939,16.6299,0.1141,6.7872,-3.6671,-0.0008,-0.4997,-0.1829,-0.7286,-0.1867,-0.3509,-0.0156,-0.0907,3.6273,0.7385,0.4783,0.8516,0.0,0.0,8349600.0,1.92
71,30000,0.79,0.2373,-0.0012,14.0437,441.98,1707.85,0.372,3.7337,17.0834,0.117,7.1073,-3.7177,-0.0008,-0.5105,-0.1868,-0.7346,-0.1882,-0.3265,-0.0157,-0.0917,3.6173,0.7253,0.4966,0.8633,0.0,0.0,8467200.0,1.93
72,30000,0.79,0.2463,-0.0033,14.0058,452.4,1733.51,0.3873,3.8033,17.1087,0.1195,7.2774,-3.7555,-0.0009,-0.513,-0.1862,-0.7421,-0.1696,-0.3224,-0.0156,-0.0919,3.6079,0.7569,0.4871,0.8745,0.0,0.0,8584800.0,1.92
73,30000,0.79,0.262,0.0009,13.9704,457.76,1758.75,0.3769,3.8474,17.1683,0.1197,7.0859,-3.8011,-0.0009,-0.5154,-0.1913,-0.766,-0.2279,-0.366,-0.0166,-0.0943,3.5965,0.7867,0.5018,0.8876,0.0,0.0,8702400.0,1.91
74,30000,0.79,0.2507,-0.0062,13.8855,460.17,1778.73,0.3668,3.9093,17.9629,0.1223,6.764,-3.8444,-0.0009,-0.5214,-0.1909,-0.7722,-0.1961,-0.4253,-0.0165,-0.0938,3.586,0.7435,0.4999,0.9001,0.0,0.0,8820000.0,1.96
75,30000,0.78,0.2349,-0.0016,13.9094,467.83,1801.19,0.4057,3.9362,17.5369,0.1232,7.8784,-3.8935,-0.0009,-0.5253,-0.1954,-0.7812,-0.2566,-0.3021,-0.0173,-0.0972,3.577,0.8159,0.5313,0.9104,0.0,0.0,8937600.0,1.92
76,30000,0.78,0.2541,-0.0026,13.8575,480.03,1826.22,0.3886,4.0055,18.4073,0.125,7.2921,-3.9407,-0.0009,-0.5392,-0.1975,-0.7892,-0.2061,-0.3919,-0.0168,-0.0974,3.5675,0.7644,0.521,0.9216,0.0,0.0,9055200.0,1.94
77,30000,0.78,0.2372,-0.0052,13.7919,488.23,1850.17,0.3959,4.0729,18.5918,0.1269,7.4196,-3.9836,-0.0009,-0.5444,-0.2005,-0.8133,-0.241,-0.392,-0.0174,-0.1,3.5581,0.7814,0.5133,0.932,0.0,0.0,9172800.0,1.94
78,30000,0.78,0.2421,0.0002,13.7983,495.82,1874.2,0.4145,4.1127,18.4647,0.1299,8.0652,-4.0309,-0.0009,-0.545,-0.2045,-0.8024,-0.2685,-0.3317,-0.0181,-0.1006,3.5474,0.8258,0.5327,0.9436,0.0,0.0,9290400.0,1.93
79,30000,0.77,0.2425,-0.0018,13.7478,502.8,1895.55,0.4209,4.149,18.8279,0.1293,8.0295,-4.0676,-0.001,-0.5479,-0.2065,-0.8161,-0.2141,-0.354,-0.0177,-0.1003,3.5383,0.8227,0.5547,0.954,0.0,0.0,9408000.0,1.93
80,30000,0.77,0.254,-0.0056,13.6922,517.65,1923.18,0.4607,4.2062,19.1967,0.1341,8.5647,-4.1159,-0.001,-0.5715,-0.2087,-0.8264,-0.1716,-0.3027,-0.0171,-0.1014,3.5292,0.8188,0.5574,0.9653,0.0,0.0,9525600.0,1.99
81,30000,0.77,0.2628,-0.005,13.6633,520.72,1948.02,0.4187,4.2544,19.8035,0.1372,7.733,-4.1534,-0.001,-0.5728,-0.2115,-0.823,-0.2084,-0.4123,-0.0178,-0.102,3.5182,0.8003,0.5682,0.9778,0.0,0.0,9643200.0,1.98
82,30000,0.77,0.2632,-0.004,13.6334,518.92,1972.41,0.4239,4.2994,19.934,0.1343,7.9613,-4.1979,-0.001,-0.5804,-0.2156,-0.8642,-0.2606,-0.4142,-0.0187,-0.1061,3.5088,0.8183,0.5823,0.9896,0.0,0.0,9760800.0,2.05
83,30000,0.77,0.2513,-0.0058,13.5618,527.3,1993.23,0.4425,4.3458,19.9644,0.1408,8.5656,-4.2324,-0.001,-0.5695,-0.2136,-0.8467,-0.2588,-0.3499,-0.0188,-0.1046,3.4988,0.8384,0.5811,0.9996,0.0,0.0,9878400.0,1.95
84,30000,0.76,0.2517,-0.0019,13.5594,533.66,2000.0,0.4313,4.3294,20.4531,0.1397,8.0362,-4.2119,-0.001,-0.5843,-0.2145,-0.8283,-0.1973,-0.415,-0.0179,-0.1039,3.4894,0.7944,0.6003,1.0,0.0,0.0,9996000.0,1.96
85,30000,0.76,0.2583,-0.0075,13.4785,534.02,2000.0,0.4356,4.3468,20.143,0.1381,8.1502,-4.1966,-0.0011,-0.5719,-0.2155,-0.882,-0.2854,-0.4068,-0.0193,-0.1041,3.4817,0.8226,0.5828,1.0,0.0,0.0,10113600.0,1.92
86,30000,0.76,0.2596,-0.0054,13.4719,541.73,2000.0,0.4724,4.3406,20.153,0.1391,8.7679,-4.1908,-0.0011,-0.5912,-0.2175,-0.8573,-0.2018,-0.3267,-0.0179,-0.1049,3.4735,0.8216,0.5892,1.0,0.0,0.0,10231200.0,1.95
87,30000,0.76,0.2512,-0.0051,13.438,542.56,2000.0,0.4498,4.3346,20.3551,0.1365,8.3543,-4.1738,-0.001,-0.5874,-0.2164,-0.8782,-0.2325,-0.3874,-0.0184,-0.1057,3.4664,0.8012,0.5952,1.0,0.0,0.0,10348800.0,1.93
88,30000,0.75,0.2551,-0.0056,13.3913,547.09,2000.0,0.4562,4.3433,20.5073,0.1396,8.4651,-4.1539,-0.0011,-0.5863,-0.2162,-0.8432,-0.1882,-0.3653,-0.0179,-0.1034,3.46,0.7893,0.5859,1.0,0.0,0.0,10466400.0,1.9
89,30000,0.75,0.2714,-0.0058,13.3359,545.9,2000.0,0.4309,4.3211,20.3319,0.1408,7.755,-4.1397,-0.0011,-0.5781,-0.2135,-0.8545,-0.237,-0.4695,-0.0185,-0.1036,3.4544,0.8033,0.6083,1.0,0.0,0.0,10584000.0,1.94
90,30000,0.75,0.2433,-0.0051,13.2481,550.26,2000.0,0.4509,4.3361,20.7707,0.1385,8.5491,-4.1303,-0.0011,-0.5758,-0.2138,-0.8564,-0.267,-0.3556,-0.0189,-0.1046,3.4457,0.7645,0.5933,1.0,0.0,0.0,10701600.0,1.93
91,30000,0.74,0.239,-0.0071,13.2134,550.35,2000.0,0.4495,4.3188,20.8269,0.1415,8.102,-4.1108,-0.0011,-0.5891,-0.214,-0.8508,-0.2399,-0.4088,-0.0185,-0.1042,3.4361,0.758,0.6111,1.0,0.0,0.0,10819200.0,1.9
92,30000,0.74,0.2342,-0.0055,13.194,552.74,2000.0,0.4478,4.3325,21.0969,0.1405,8.1485,-4.1016,-0.0011,-0.5809,-0.2127,-0.8409,-0.1915,-0.408,-0.0178,-0.1028,3.4275,0.7324,0.5963,1.0,0.0,0.0,10936800.0,1.93
93,30000,0.74,0.2485,-0.0047,13.1597,553.35,2000.0,0.4368,4.2803,20.9839,0.1392,7.8611,-4.0799,-0.0011,-0.5839,-0.2135,-0.8696,-0.2639,-0.4517,-0.0188,-0.1047,3.4199,0.7415,0.6485,1.0,0.0,0.0,11054400.0,1.88
94,30000,0.74,0.236,-0.0085,13.084,553.5,2000.0,0.4724,4.3425,20.6859,0.1421,8.6235,-4.0743,-0.0011,-0.574,-0.2121,-0.8378,-0.1914,-0.3501,-0.0178,-0.1015,3.413,0.7712,0.5868,1.0,0.0,0.0,11172000.0,1.93
95,30000,0.74,0.2141,-0.0061,13.0674,553.72,2000.0,0.453,4.3361,20.9525,0.1388,8.3472,-4.0637,-0.0011,-0.5773,-0.2114,-0.8606,-0.2512,-0.3922,-0.0185,-0.1056,3.4059,0.7447,0.5934,1.0,0.0,0.0,11289600.0,1.93
96,30000,0.73,0.2205,-0.0037,13.0495,554.8,2000.0,0.4525,4.3337,21.1432,0.1413,8.1181,-4.0325,-0.0011,-0.5806,-0.2141,-0.8495,-0.2206,-0.4196,-0.0183,-0.1033,3.399,0.728,0.5961,1.0,0.0,0.0,11407200.0,1.91
97,30000,0.73,0.2125,-0.0068,12.9685,561.82,2000.0,0.4715,4.296,21.2565,0.1439,8.4288,-4.0216,-0.0011,-0.5783,-0.2123,-0.8235,-0.1777,-0.3822,-0.0177,-0.101,3.3914,0.7147,0.633,1.0,0.0,0.0,11524800.0,1.97
98,30000,0.73,0.2141,-0.0053,12.9601,561.11,2000.0,0.4421,4.3027,21.6112,0.1405,8.0071,-4.0055,-0.0011,-0.5689,-0.2101,-0.853,-0.2485,-0.4349,-0.0186,-0.1037,3.3839,0.6824,0.6261,1.0,0.0,0.0,11642400.0,1.96
99,30000,0.73,0.2076,-0.0064,12.9018,557.32,2000.0,0.448,4.3168,21.5779,0.1419,8.0528,-4.0044,-0.0011,-0.5798,-0.2109,-0.8589,-0.2248,-0.4277,-0.0181,-0.1043,3.3755,0.6859,0.6122,1.0,0.0,0.0,11760000.0,1.96
100,30000,0.72,0.1994,-0.006,12.8579,564.74,2000.0,0.4546,4.3163,21.5906,0.1413,8.0081,-3.9946,-0.0012,-0.5827,-0.2125,-0.8473,-0.2105,-0.4333,-0.018,-0.1034,3.3686,0.6866,0.6127,1.0,0.0,0.0,11877600.0,1.95
101,30000,0.72,0.1989,-0.0068,12.7824,568.05,2000.0,0.4549,4.2859,21.8164,0.1415,8.0293,-3.9667,-0.0012,-0.5844,-0.2095,-0.8337,-0.1715,-0.4362,-0.0175,-0.102,3.3629,0.6632,0.6432,1.0,0.0,0.0,11995200.0,1.9
102,30000,0.71,0.1799,-0.0054,12.7325,575.12,2000.0,0.477,4.2979,21.6479,0.1438,8.5189,-3.9498,-0.0012,-0.5825,-0.2122,-0.8457,-0.2267,-0.3716,-0.0181,-0.1035,3.3546,0.68,0.631,1.0,0.0,0.0,12112800.0,1.94
103,30000,0.71,0.1921,-0.0042,12.693,577.96,2000.0,0.4593,4.3046,21.8255,0.1417,8.3536,-3.9484,-0.0012,-0.5617,-0.2073,-0.8569,-0.2593,-0.397,-0.0186,-0.1038,3.3468,0.6627,0.6244,1.0,0.0,0.0,12230400.0,1.97
104,30000,0.71,0.1751,-0.0078,12.6196,568.71,2000.0,0.4639,4.2853,21.8716,0.1457,7.8214,-3.929,-0.0012,-0.5885,-0.2105,-0.8233,-0.1812,-0.4545,-0.0174,-0.1029,3.3402,0.6611,0.644,1.0,0.0,0.0,12348000.0,1.93
105,30000,0.71,0.1786,-0.0066,12.5924,573.63,2000.0,0.4705,4.2925,21.8079,0.1453,8.0351,-3.9174,-0.0012,-0.5828,-0.2073,-0.8425,-0.1894,-0.4415,-0.0176,-0.1025,3.3348,0.6648,0.6365,1.0,0.0,0.0,12465600.0,1.93
106,30000,0.7,0.175,-0.0064,12.5444,585.5,2000.0,0.4937,4.2325,22.0707,0.1439,8.6034,-3.8932,-0.0012,-0.586,-0.209,-0.8367,-0.1872,-0.3614,-0.0176,-0.1021,3.3287,0.6399,0.6964,1.0,0.0,0.0,12583200.0,1.93
107,30000,0.7,0.1601,-0.0076,12.4799,587.64,2000.0,0.4788,4.2859,22.0425,0.1474,8.3059,-3.8857,-0.0012,-0.5681,-0.2044,-0.8285,-0.1993,-0.4039,-0.0179,-0.1005,3.3209,0.6433,0.6425,1.0,0.0,0.0,12700800.0,1.95
108,30000,0.7,0.1607,-0.0058,12.4402,585.07,2000.0,0.4843,4.2729,22.053,0.146,8.4302,-3.8756,-0.0012,-0.584,-0.2071,-0.8317,-0.2137,-0.3868,-0.0179,-0.1026,3.3156,0.6429,0.6556,1.0,0.0,0.0,12818400.0,1.92
109,30000,0.69,0.1509,-0.0076,12.3695,587.72,2000.0,0.4882,4.2787,22.3577,0.1441,8.4894,-3.8567,-0.0013,-0.5771,-0.2081,-0.8508,-0.2061,-0.3774,-0.018,-0.1017,3.3103,0.6146,0.6497,1.0,0.0,0.0,12936000.0,1.91
110,30000,0.69,0.1485,-0.0059,12.3491,590.08,2000.0,0.4815,4.2497,22.3056,0.1461,8.5698,-3.8518,-0.0012,-0.5659,-0.2036,-0.8268,-0.2124,-0.3732,-0.018,-0.1018,3.3046,0.6196,0.6788,1.0,0.0,0.0,13053600.0,1.95
111,30000,0.69,0.1397,-0.0086,12.2942,593.98,2000.0,0.4893,4.2787,22.3439,0.1475,8.6864,-3.8413,-0.0012,-0.5781,-0.2072,-0.8158,-0.2147,-0.3581,-0.018,-0.1025,3.2981,0.6172,0.6505,1.0,0.0,0.0,13171200.0,1.89
112,30000,0.69,0.1357,-0.0084,12.2589,596.6,2000.0,0.4884,4.2806,22.6961,0.1453,8.5836,-3.8215,-0.0013,-0.578,-0.208,-0.8351,-0.2087,-0.3728,-0.0179,-0.1027,3.2934,0.5847,0.6486,1.0,0.0,0.0,13288800.0,1.95
113,30000,0.68,0.1384,-0.0083,12.2237,591.69,2000.0,0.4502,4.264,22.4125,0.1469,7.8128,-3.8056,-0.0013,-0.5723,-0.2083,-0.807,-0.2399,-0.4723,-0.0184,-0.1027,3.2879,0.6114,0.6652,1.0,0.0,0.0,13406400.0,1.94
114,30000,0.68,0.1363,-0.0101,12.1741,593.63,2000.0,0.482,4.2779,22.8541,0.1472,8.237,-3.7862,-0.0013,-0.5758,-0.2074,-0.828,-0.1881,-0.416,-0.0176,-0.1021,3.2829,0.5707,0.6506,1.0,0.0,0.0,13524000.0,1.91
115,30000,0.68,0.1309,-0.0075,12.1566,597.85,2000.0,0.485,4.242,23.0225,0.1456,8.2438,-3.7735,-0.0013,-0.5868,-0.2105,-0.8385,-0.2232,-0.4171,-0.0182,-0.1033,3.2748,0.5553,0.6864,1.0,0.0,0.0,13641600.0,1.92
116,30000,0.68,0.1297,-0.0091,12.1158,606.38,2000.0,0.489,4.2458,23.187,0.1474,8.4046,-3.762,-0.0013,-0.5737,-0.2037,-0.8481,-0.2146,-0.3992,-0.018,-0.1026,3.2674,0.5398,0.6818,1.0,0.0,0.0,13759200.0,1.97
117,30000,0.67,0.1296,-0.0085,12.0424,603.4,2000.0,0.479,4.2849,22.8883,0.1482,8.2129,-3.7645,-0.0013,-0.5701,-0.2026,-0.8343,-0.1976,-0.4292,-0.0178,-0.101,3.2606,0.5683,0.6434,1.0,0.0,0.0,13876800.0,1.93
118,30000,0.67,0.1287,-0.0093,12.0026,601.26,2000.0,0.4977,4.2566,23.1274,0.1469,8.5408,-3.7352,-0.0013,-0.5695,-0.204,-0.8588,-0.1989,-0.3824,-0.0178,-0.1014,3.2535,0.5467,0.6719,1.0,0.0,0.0,13994400.0,2.02
119,30000,0.67,0.1283,-0.0095,11.9736,605.0,2000.0,0.4896,4.282,23.3327,0.1468,8.5012,-3.7234,-0.0013,-0.5711,-0.2029,-0.8561,-0.2108,-0.3957,-0.018,-0.1019,3.2471,0.5279,0.6459,1.0,0.0,0.0,14112000.0,1.95
120,30000,0.67,0.126,-0.0097,11.9329,610.83,2000.0,0.4902,4.2372,23.4673,0.1472,8.1858,-3.7101,-0.0013,-0.5864,-0.2051,-0.8496,-0.2025,-0.4354,-0.0178,-0.1036,3.2398,0.5157,0.6907,1.0,0.0,0.0,14229600.0,2.0
121,30000,0.67,0.1265,-0.0112,11.8929,617.89,2000.0,0.5037,4.2552,23.4939,0.1498,8.5715,-3.7087,-0.0013,-0.5782,-0.2029,-0.8347,-0.2259,-0.3814,-0.0181,-0.1026,3.2293,0.5139,0.6726,1.0,0.0,0.0,14347200.0,1.97
122,30000,0.66,0.1314,-0.009,11.8725,618.12,2000.0,0.4957,4.2634,23.3394,0.1479,8.7803,-3.6994,-0.0013,-0.559,-0.1993,-0.8389,-0.2377,-0.36,-0.0183,-0.1024,3.2222,0.5288,0.6638,1.0,0.0,0.0,14464800.0,1.92
123,30000,0.66,0.1261,-0.0106,11.8107,617.96,2000.0,0.508,4.2806,23.6541,0.1506,8.5441,-3.6836,-0.0013,-0.5678,-0.2034,-0.8212,-0.1656,-0.3884,-0.0173,-0.1006,3.217,0.5003,0.6479,1.0,0.0,0.0,14582400.0,1.97
124,30000,0.66,0.1259,-0.0106,11.7795,616.25,2000.0,0.4969,4.2789,23.5364,0.1494,8.2201,-3.6656,-0.0014,-0.5791,-0.2028,-0.8348,-0.1849,-0.433,-0.0177,-0.1013,3.211,0.5113,0.6494,1.0,0.0,0.0,14700000.0,1.94
125,30000,0.65,0.128,-0.011,11.7112,618.12,2000.0,0.4905,4.2502,23.8029,0.1484,8.265,-3.6556,-0.0014,-0.5823,-0.2032,-0.8489,-0.2444,-0.4293,-0.0184,-0.1034,3.2038,0.487,0.6786,1.0,0.0,0.0,14817600.0,1.96
126,30000,0.65,0.1278,-0.0115,11.6675,623.82,2000.0,0.4957,4.2645,23.8876,0.1501,8.3468,-3.6586,-0.0013,-0.5742,-0.2013,-0.8458,-0.2187,-0.423,-0.018,-0.1024,3.1966,0.4796,0.6635,1.0,0.0,0.0,14935200.0,1.95
127,30000,0.65,0.1227,-0.0106,11.6163,615.34,2000.0,0.5048,4.252,23.4334,0.1509,8.4039,-3.6224,-0.0014,-0.5708,-0.2011,-0.8169,-0.1684,-0.4122,-0.0174,-0.1006,3.1888,0.522,0.6759,1.0,0.0,0.0,15052800.0,1.93
128,30000,0.65,0.123,-0.0111,11.5735,630.07,2000.0,0.5097,4.2517,24.0725,0.1491,8.5608,-3.638,-0.0013,-0.5731,-0.1974,-0.8446,-0.1572,-0.3957,-0.0171,-0.1011,3.1816,0.4645,0.676,1.0,0.0,0.0,15170400.0,1.93
129,30000,0.64,0.1249,-0.0105,11.5353,630.94,2000.0,0.5065,4.232,24.5567,0.149,8.4336,-3.6175,-0.0014,-0.5827,-0.2002,-0.8596,-0.1673,-0.4121,-0.0173,-0.1021,3.1749,0.4205,0.6961,1.0,0.0,0.0,15288000.0,1.97
130,30000,0.64,0.1239,-0.011,11.4988,625.89,2000.0,0.502,4.236,23.9834,0.1499,8.1112,-3.603,-0.0014,-0.5843,-0.1998,-0.8357,-0.1673,-0.4579,-0.0173,-0.1024,3.1708,0.4733,0.6918,1.0,0.0,0.0,15405600.0,1.92
131,30000,0.64,0.1221,-0.0109,11.4658,623.78,2000.0,0.4878,4.2492,23.8967,0.1531,8.2596,-3.6125,-0.0013,-0.5561,-0.1968,-0.85,-0.1972,-0.4467,-0.0179,-0.1006,3.1644,0.4822,0.678,1.0,0.0,0.0,15523200.0,1.91
132,30000,0.64,0.1231,-0.0112,11.4266,629.48,2000.0,0.5197,4.2546,24.0462,0.1514,8.6897,-3.5885,-0.0014,-0.5683,-0.1971,-0.8241,-0.1965,-0.3823,-0.0176,-0.1027,3.1572,0.469,0.6734,1.0,0.0,0.0,15640800.0,1.95
133,30000,0.64,0.1224,-0.0112,11.3995,639.59,2000.0,0.5275,4.2417,24.4111,0.1502,8.7582,-3.5577,-0.0015,-0.5809,-0.2019,-0.838,-0.1899,-0.3692,-0.0179,-0.1021,3.1499,0.4364,0.6868,1.0,0.0,0.0,15758400.0,1.92
134,30000,0.64,0.1243,-0.0112,11.3693,650.76,2000.0,0.5241,4.2591,24.8334,0.1496,8.8693,-3.5596,-0.0014,-0.5717,-0.1981,-0.8407,-0.2006,-0.3573,-0.0179,-0.1031,3.1439,0.3981,0.6686,1.0,0.0,0.0,15876000.0,1.98
135,30000,0.63,0.1251,-0.0117,11.3394,644.92,2000.0,0.5149,4.2489,24.2649,0.152,8.369,-3.5409,-0.0015,-0.5791,-0.1999,-0.8143,-0.1786,-0.4273,-0.0176,-0.1025,3.1372,0.4506,0.6796,1.0,0.0,0.0,15993600.0,1.99
136,30000,0.63,0.1262,-0.0113,11.2813,642.93,2000.0,0.5279,4.2509,24.6324,0.1528,8.7893,-3.5456,-0.0014,-0.5732,-0.1974,-0.8436,-0.1972,-0.3702,-0.018,-0.1008,3.1286,0.4173,0.6767,1.0,0.0,0.0,16111200.0,1.98
137,30000,0.63,0.1257,-0.0111,11.2582,645.49,2000.0,0.5319,4.2808,24.7361,0.1511,8.6448,-3.5268,-0.0015,-0.586,-0.2018,-0.8226,-0.1754,-0.3901,-0.0175,-0.1026,3.1232,0.4078,0.6482,1.0,0.0,0.0,16228800.0,1.97
138,30000,0.63,0.1237,-0.0092,11.2208,644.2,2000.0,0.5126,4.2649,24.3672,0.1513,8.4044,-3.5311,-0.0014,-0.569,-0.196,-0.8663,-0.1665,-0.4333,-0.0174,-0.1011,3.1185,0.4436,0.6629,1.0,0.0,0.0,16346400.0,1.96
139,30000,0.63,0.1277,-0.0108,11.1699,649.89,2000.0,0.5416,4.2707,24.9429,0.1499,8.7704,-3.5015,-0.0015,-0.597,-0.2003,-0.8396,-0.1868,-0.3724,-0.0176,-0.1033,3.1141,0.3907,0.6578,1.0,0.0,0.0,16464000.0,1.92
140,30000,0.62,0.1297,-0.0113,11.1593,655.28,2000.0,0.5138,4.2577,25.1569,0.1531,8.3552,-3.5001,-0.0015,-0.5802,-0.2001,-0.8373,-0.2211,-0.4359,-0.0183,-0.1037,3.1073,0.3722,0.6709,1.0,0.0,0.0,16581600.0,1.92
141,30000,0.62,0.1241,-0.0112,11.1213,646.23,2000.0,0.5102,4.252,24.576,0.1532,8.3157,-3.5006,-0.0015,-0.5764,-0.1972,-0.8199,-0.1988,-0.4441,-0.0178,-0.1035,3.099,0.4253,0.6759,1.0,0.0,0.0,16699200.0,1.97
142,30000,0.62,0.1278,-0.0114,11.1096,646.82,2000.0,0.5115,4.2557,24.7901,0.1532,8.4477,-3.497,-0.0014,-0.5703,-0.1952,-0.8492,-0.1688,-0.4337,-0.0174,-0.1021,3.0928,0.408,0.6718,1.0,0.0,0.0,16816800.0,1.94
143,30000,0.62,0.1263,-0.012,11.0808,650.58,2000.0,0.5226,4.2609,24.7589,0.1525,8.6439,-3.4895,-0.0014,-0.5744,-0.1948,-0.8386,-0.1807,-0.4064,-0.0175,-0.1031,3.085,0.4112,0.667,1.0,0.0,0.0,16934400.0,1.94
144,30000,0.62,0.1249,-0.0105,11.0626,653.97,2000.0,0.5193,4.2598,25.0802,0.1532,8.4325,-3.4646,-0.0015,-0.5772,-0.1952,-0.8419,-0.2,-0.4321,-0.018,-0.1024,3.0783,0.3816,0.6688,1.0,0.0,0.0,17052000.0,1.94
145,30000,0.62,0.123,-0.0107,11.0274,649.63,2000.0,0.5224,4.2666,24.9082,0.1539,8.6324,-3.4625,-0.0014,-0.5651,-0.1925,-0.815,-0.1704,-0.407,-0.0176,-0.1016,3.0718,0.3986,0.6608,1.0,0.0,0.0,17169600.0,1.94
146,30000,0.62,0.1221,-0.0097,10.9919,658.57,2000.0,0.5168,4.2901,25.2466,0.1532,8.5203,-3.4588,-0.0014,-0.5648,-0.1923,-0.8503,-0.1876,-0.4273,-0.0178,-0.1033,3.0676,0.3669,0.6388,1.0,0.0,0.0,17287200.0,1.94
147,30000,0.61,0.1212,-0.0101,10.9569,651.63,2000.0,0.521,4.3044,24.8672,0.1522,8.4146,-3.4442,-0.0015,-0.5746,-0.1934,-0.8386,-0.1831,-0.4404,-0.0176,-0.1033,3.0649,0.4028,0.6243,1.0,0.0,0.0,17404800.0,1.93
148,30000,0.61,0.1225,-0.0117,10.9054,661.19,2000.0,0.5268,4.2636,25.4251,0.1531,8.6364,-3.433,-0.0015,-0.579,-0.1929,-0.826,-0.2136,-0.4074,-0.0182,-0.1032,3.0613,0.3523,0.665,1.0,0.0,0.0,17522400.0,1.95
149,30000,0.61,0.1197,-0.0113,10.8647,668.35,2000.0,0.5282,4.2686,25.6942,0.1546,8.4664,-3.4255,-0.0015,-0.5681,-0.1924,-0.8485,-0.1411,-0.4339,-0.0171,-0.1022,3.058,0.3283,0.6593,1.0,0.0,0.0,17640000.0,1.9
150,30000,0.61,0.1192,-0.0116,10.8157,673.83,2000.0,0.5431,4.284,25.9635,0.1517,8.7893,-3.4073,-0.0015,-0.5805,-0.1897,-0.8603,-0.1806,-0.3823,-0.0174,-0.1038,3.0552,0.3051,0.6444,1.0,0.0,0.0,17757600.0,1.93
151,30000,0.6,0.12,-0.0101,10.7807,667.42,2000.0,0.5365,4.29,25.0449,0.1556,8.651,-3.4198,-0.0015,-0.5674,-0.1909,-0.8318,-0.1652,-0.4112,-0.0175,-0.1022,3.0538,0.3908,0.6384,1.0,0.0,0.0,17875200.0,1.93
152,30000,0.6,0.1202,-0.0117,10.7467,664.82,2000.0,0.5264,4.2916,25.4273,0.1528,8.7172,-3.4075,-0.0014,-0.5671,-0.1897,-0.8512,-0.1836,-0.4053,-0.0177,-0.1027,3.0525,0.3565,0.6365,1.0,0.0,0.0,17992800.0,1.93
153,30000,0.6,0.1191,-0.011,10.721,672.89,2000.0,0.5402,4.2951,25.8822,0.1566,8.7181,-3.3974,-0.0015,-0.5748,-0.1877,-0.8145,-0.1405,-0.4016,-0.0172,-0.1026,3.051,0.3149,0.6338,1.0,0.0,0.0,18110400.0,1.95
154,30000,0.6,0.1179,-0.0111,10.7047,667.55,2000.0,0.5377,4.2644,25.5837,0.1553,8.6094,-3.4057,-0.0015,-0.5721,-0.1886,-0.8431,-0.1623,-0.4193,-0.0172,-0.103,3.0491,0.3423,0.6634,1.0,0.0,0.0,18228000.0,1.92
155,30000,0.6,0.1193,-0.0114,10.6736,662.91,2000.0,0.5441,4.2756,25.7358,0.1556,8.7884,-3.3761,-0.0015,-0.5826,-0.1888,-0.8326,-0.15,-0.3905,-0.0173,-0.1026,3.045,0.329,0.6538,1.0,0.0,0.0,18345600.0,1.9
156,30000,0.6,0.1189,-0.0113,10.6616,671.76,2000.0,0.527,4.2942,25.6904,0.1525,8.797,-3.3661,-0.0015,-0.5649,-0.1894,-0.8619,-0.2115,-0.3946,-0.0181,-0.1041,3.0438,0.3349,0.6347,1.0,0.0,0.0,18463200.0,1.91
157,30000,0.6,0.119,-0.0108,10.63,675.86,2000.0,0.5492,4.288,26.0104,0.154,8.8555,-3.3604,-0.0015,-0.5812,-0.1902,-0.8317,-0.1522,-0.3853,-0.0173,-0.1038,3.0439,0.3053,0.641,1.0,0.0,0.0,18580800.0,1.97
158,30000,0.59,0.1169,-0.0075,10.602,678.46,2000.0,0.5346,4.285,25.5473,0.1557,8.7215,-3.3595,-0.0015,-0.5713,-0.1857,-0.8364,-0.2039,-0.4079,-0.0179,-0.1045,3.0431,0.3493,0.6433,1.0,0.0,0.0,18698400.0,1.94
159,30000,0.59,0.1178,-0.0114,10.526,672.48,2000.0,0.5322,4.3065,25.3604,0.1527,8.6905,-3.3507,-0.0015,-0.5644,-0.1868,-0.845,-0.1842,-0.4156,-0.0177,-0.1038,3.0428,0.3673,0.6223,1.0,0.0,0.0,18816000.0,1.95
160,30000,0.59,0.1185,-0.0116,10.4878,678.59,2000.0,0.5523,4.293,25.9604,0.1554,8.7892,-3.3302,-0.0016,-0.5755,-0.1859,-0.8432,-0.1734,-0.3942,-0.0176,-0.1036,3.0414,0.3117,0.6355,1.0,0.0,0.0,18933600.0,1.94
161,30000,0.59,0.1173,-0.0109,10.4408,688.23,2000.0,0.5315,4.3273,25.8057,0.1534,8.7703,-3.3445,-0.0015,-0.5539,-0.1813,-0.8369,-0.1682,-0.4065,-0.0175,-0.1031,3.0406,0.3269,0.602,1.0,0.0,0.0,19051200.0,1.95
162,30000,0.58,0.1161,-0.0099,10.3914,687.41,2000.0,0.5606,4.3024,25.9407,0.1566,8.8054,-3.3228,-0.0016,-0.5803,-0.1865,-0.8291,-0.1407,-0.3928,-0.0172,-0.1026,3.0412,0.315,0.6271,1.0,0.0,0.0,19168800.0,1.92
163,30000,0.58,0.1158,-0.0101,10.3532,690.38,2000.0,0.5246,4.3037,26.168,0.1551,8.8282,-3.3247,-0.0015,-0.5531,-0.1815,-0.8716,-0.2498,-0.4024,-0.0186,-0.1042,3.0392,0.2961,0.6252,1.0,0.0,0.0,19286400.0,1.93
164,30000,0.58,0.1185,-0.0112,10.3168,688.61,2000.0,0.551,4.3124,26.0294,0.1562,8.7421,-3.3122,-0.0016,-0.5644,-0.1828,-0.8252,-0.1596,-0.4056,-0.0176,-0.1024,3.0405,0.3082,0.6173,1.0,0.0,0.0,19404000.0,1.94
165,30000,0.58,0.1178,-0.0104,10.284,685.07,2000.0,0.5206,4.3124,25.9302,0.1559,8.6568,-3.3176,-0.0015,-0.5499,-0.1798,-0.844,-0.1988,-0.4304,-0.018,-0.1036,3.042,0.3178,0.6162,1.0,0.0,0.0,19521600.0,1.98
166,30000,0.58,0.1182,-0.0113,10.2602,688.42,2000.0,0.5576,4.2963,26.2317,0.1562,8.8466,-3.2838,-0.0017,-0.5702,-0.1845,-0.8313,-0.2025,-0.3867,-0.018,-0.1041,3.039,0.2906,0.6333,1.0,0.0,0.0,19639200.0,1.94
167,30000,0.58,0.1156,-0.0113,10.2561,684.4,2000.0,0.5455,4.3108,26.02,0.1579,8.7152,-3.2866,-0.0016,-0.5554,-0.1796,-0.8141,-0.1577,-0.4157,-0.0175,-0.1027,3.0407,0.3105,0.6185,1.0,0.0,0.0,19756800.0,1.94
168,30000,0.58,0.1164,-0.012,10.2295,682.18,2000.0,0.5468,4.3197,26.0633,0.1559,8.7764,-3.2654,-0.0016,-0.5594,-0.1808,-0.8365,-0.1988,-0.4055,-0.018,-0.1039,3.0437,0.3073,0.6102,1.0,0.0,0.0,19874400.0,1.97
169,30000,0.57,0.1174,-0.0111,10.1944,680.51,2000.0,0.5487,4.3149,25.8986,0.1563,8.794,-3.2677,-0.0016,-0.5634,-0.1802,-0.8301,-0.1819,-0.406,-0.0177,-0.1031,3.0455,0.3232,0.6143,1.0,0.0,0.0,19992000.0,1.94
170,30000,0.57,0.1155,-0.01,10.1718,689.53,2000.0,0.5537,4.3324,26.2831,0.1572,8.8499,-3.2572,-0.0016,-0.5567,-0.1798,-0.833,-0.1582,-0.3991,-0.0175,-0.1026,3.0472,0.2888,0.5974,1.0,0.0,0.0,20109600.0,1.95
171,30000,0.57,0.1162,-0.0118,10.1332,695.04,2000.0,0.5465,4.3627,26.5393,0.1562,8.8808,-3.2769,-0.0015,-0.5492,-0.1796,-0.8325,-0.1627,-0.402,-0.0176,-0.103,3.0519,0.2658,0.5675,1.0,0.0,0.0,20227200.0,1.92
172,30000,0.57,0.1172,-0.0111,10.1118,699.9,2000.0,0.5476,4.3285,26.5153,0.1569,8.8598,-3.2356,-0.0016,-0.5479,-0.1757,-0.8161,-0.1821,-0.3972,-0.0178,-0.1033,3.0575,0.2676,0.6019,1.0,0.0,0.0,20344800.0,1.96
173,30000,0.57,0.1195,-0.0119,10.0728,701.06,2000.0,0.5612,4.3105,26.6379,0.1574,8.8592,-3.216,-0.0017,-0.5612,-0.1781,-0.8447,-0.1814,-0.3913,-0.0177,-0.1032,3.0599,0.2562,0.619,1.0,0.0,0.0,20462400.0,1.95
174,30000,0.57,0.1179,-0.0097,10.0423,696.18,2000.0,0.5666,4.3222,26.3562,0.1573,8.8984,-3.222,-0.0017,-0.5557,-0.1795,-0.8307,-0.1639,-0.3897,-0.0175,-0.1032,3.0641,0.2836,0.6078,1.0,0.0,0.0,20580000.0,1.96
175,30000,0.56,0.1136,-0.0115,10.0041,697.22,2000.0,0.5551,4.3334,26.2,0.16,8.7973,-3.2191,-0.0016,-0.5529,-0.1768,-0.8023,-0.1566,-0.4124,-0.0174,-0.1022,3.0679,0.2988,0.5961,1.0,0.0,0.0,20697600.0,2.02
176,30000,0.56,0.1169,-0.0111,9.9875,698.54,2000.0,0.5542,4.3544,26.6682,0.1567,8.8372,-3.2065,-0.0016,-0.5498,-0.1764,-0.8514,-0.1713,-0.4058,-0.0177,-0.1025,3.0723,0.2562,0.5758,1.0,0.0,0.0,20815200.0,1.96
177,30000,0.56,0.1172,-0.0114,9.9556,703.73,2000.0,0.5671,4.3548,26.8476,0.1558,8.9035,-3.1995,-0.0017,-0.5552,-0.1797,-0.8533,-0.1876,-0.3931,-0.0179,-0.1037,3.0755,0.2386,0.5754,1.0,0.0,0.0,20932800.0,1.91
178,30000,0.56,0.1186,-0.0113,9.9328,697.82,2000.0,0.5674,4.3682,26.3946,0.1564,8.8749,-3.1749,-0.0017,-0.5636,-0.1764,-0.8341,-0.1533,-0.3966,-0.0175,-0.1025,3.0814,0.2825,0.5619,1.0,0.0,0.0,21050400.0,1.97
179,30000,0.56,0.116,-0.0104,9.8966,698.5,2000.0,0.5529,4.3602,26.3348,0.1581,8.9279,-3.1819,-0.0016,-0.5318,-0.1739,-0.8287,-0.1579,-0.3979,-0.0175,-0.1026,3.0871,0.2876,0.5703,1.0,0.0,0.0,21168000.0,1.94
180,30000,0.56,0.1165,-0.0119,9.871,704.95,2000.0,0.557,4.3694,26.5395,0.1609,8.9274,-3.1811,-0.0017,-0.5359,-0.1752,-0.8214,-0.1922,-0.3963,-0.018,-0.102,3.0935,0.2694,0.5615,1.0,0.0,0.0,21285600.0,1.96
181,30000,0.55,0.1158,-0.011,9.8233,698.8,2000.0,0.5484,4.3729,26.2159,0.1602,8.9299,-3.1996,-0.0015,-0.5217,-0.171,-0.8284,-0.1525,-0.4031,-0.0173,-0.1019,3.0995,0.3007,0.5573,1.0,0.0,0.0,21403200.0,1.97
182,30000,0.55,0.117,-0.0113,9.7963,703.38,2000.0,0.5589,4.3717,26.5806,0.1583,8.8788,-3.152,-0.0017,-0.54,-0.1746,-0.8262,-0.1943,-0.4033,-0.018,-0.1036,3.1068,0.2656,0.5587,1.0,0.0,0.0,21520800.0,1.95
183,30000,0.55,0.1166,-0.0124,9.7693,703.66,2000.0,0.5567,4.3768,26.464,0.1583,8.8713,-3.1526,-0.0016,-0.5379,-0.1721,-0.8191,-0.1625,-0.407,-0.0175,-0.1023,3.1158,0.2774,0.5541,1.0,0.0,0.0,21638400.0,1.97
184,30000,0.55,0.1171,-0.0113,9.744,708.44,2000.0,0.5557,4.3941,26.0769,0.1584,8.8229,-3.136,-0.0017,-0.5418,-0.1731,-0.8299,-0.1948,-0.4112,-0.0179,-0.1029,3.1247,0.3129,0.5373,1.0,0.0,0.0,21756000.0,1.92
185,30000,0.55,0.1173,-0.0093,9.7143,697.99,2000.0,0.5591,4.394,26.4471,0.1582,8.902,-3.1331,-0.0017,-0.5292,-0.1704,-0.8423,-0.1964,-0.4014,-0.018,-0.1029,3.1328,0.2793,0.5374,1.0,0.0,0.0,21873600.0,1.93
186,30000,0.55,0.1176,-0.0113,9.6768,701.84,2000.0,0.5642,4.3976,26.5673,0.1611,8.887,-3.1328,-0.0017,-0.5309,-0.1718,-0.8335,-0.2028,-0.4048,-0.018,-0.1028,3.1411,0.2676,0.5339,1.0,0.0,0.0,21991200.0,1.95
187,30000,0.55,0.1153,-0.0101,9.6572,708.86,2000.0,0.5787,4.4012,26.6365,0.1585,8.8278,-3.1033,-0.0018,-0.5477,-0.176,-0.8009,-0.165,-0.4038,-0.0176,-0.1029,3.1489,0.2609,0.5309,1.0,0.0,0.0,22108800.0,1.94
188,30000,0.55,0.1168,-0.0114,9.6203,697.18,2000.0,0.5606,4.4141,26.0923,0.1581,8.8209,-3.1043,-0.0017,-0.5389,-0.1725,-0.8483,-0.2115,-0.4181,-0.0181,-0.104,3.1567,0.3112,0.5175,1.0,0.0,0.0,22226400.0,1.94
189,30000,0.54,0.1183,-0.0104,9.607,705.34,2000.0,0.5622,4.4078,26.4746,0.1608,8.9441,-3.1083,-0.0016,-0.523,-0.1672,-0.8095,-0.1496,-0.3993,-0.0173,-0.1021,3.1652,0.2778,0.5242,1.0,0.0,0.0,22344000.0,1.93
190,30000,0.54,0.1188,-0.011,9.5883,712.29,2000.0,0.5642,4.3932,26.9133,0.1623,8.9518,-3.1137,-0.0017,-0.5207,-0.1688,-0.8038,-0.2027,-0.4014,-0.0178,-0.1025,3.1738,0.2379,0.5378,1.0,0.0,0.0,22461600.0,2.03
191,30000,0.54,0.1165,-0.0116,9.5632,706.29,2000.0,0.568,4.398,26.4839,0.1641,8.9176,-3.0924,-0.0017,-0.5203,-0.1692,-0.7986,-0.1417,-0.4041,-0.0172,-0.1016,3.1799,0.2766,0.5333,1.0,0.0,0.0,22579200.0,1.95
192,30000,0.54,0.119,-0.0106,9.5484,708.53,2000.0,0.5829,4.4117,26.5521,0.1604,8.8611,-3.0693,-0.0018,-0.543,-0.1734,-0.8115,-0.1744,-0.4062,-0.0176,-0.1024,3.1892,0.2708,0.52,1.0,0.0,0.0,22696800.0,2.01
193,30000,0.54,0.1198,-0.0112,9.4982,708.49,2000.0,0.5645,4.4204,26.4972,0.1621,8.9237,-3.0908,-0.0016,-0.5175,-0.1679,-0.7932,-0.1746,-0.407,-0.0176,-0.102,3.1984,0.2764,0.5118,1.0,0.0,0.0,22814400.0,1.93
194,30000,0.54,0.1843,-0.0068,9.4886,710.66,1980.75,0.5547,4.3399,26.4523,0.1596,8.7605,-3.0132,-0.0017,-0.5042,-0.1674,-0.7622,-0.1746,-0.3946,-0.0174,-0.0994,3.2072,0.2255,0.4933,0.9999,0.0001,0.0,22932000.0,1.95
195,30000,0.54,0.1175,-0.0098,9.4328,706.24,1980.75,0.5604,4.4388,26.8849,0.1634,8.9696,-3.087,-0.0016,-0.5094,-0.1671,-0.8003,-0.1698,-0.407,-0.0175,-0.1015,3.2138,0.2407,0.494,0.9998,0.0002,0.0,23049600.0,1.94
196,30000,0.54,0.1179,-0.0114,9.4278,706.41,2000.0,0.5479,4.4311,25.8088,0.1643,8.93,-3.0725,-0.0016,-0.5024,-0.1648,-0.7941,-0.1738,-0.4121,-0.0175,-0.1018,3.2227,0.3416,0.5015,0.9998,0.0002,0.0,23167200.0,1.95
197,30000,0.53,0.1157,-0.0111,9.3949,709.71,2000.0,0.564,4.4477,26.6826,0.1619,8.9501,-3.0574,-0.0017,-0.5103,-0.1675,-0.8241,-0.1735,-0.4042,-0.0177,-0.1016,3.2313,0.2598,0.4853,0.9998,0.0002,0.0,23284800.0,1.93
198,30000,0.53,0.116,-0.0108,9.3632,713.95,2000.0,0.5744,4.4401,26.5963,0.1627,8.9204,-3.0438,-0.0018,-0.5142,-0.1684,-0.8035,-0.1917,-0.4075,-0.0178,-0.1021,3.2421,0.2682,0.4926,0.9998,0.0002,0.0,23402400.0,1.93
199,30000,0.53,0.1177,-0.0111,9.3298,709.91,2000.0,0.5585,4.4492,26.2901,0.1658,8.9637,-3.0736,-0.0016,-0.4963,-0.1668,-0.8057,-0.1428,-0.414,-0.0171,-0.1008,3.2505,0.2979,0.4839,0.9998,0.0002,0.0,23520000.0,1.92
200,30000,0.53,0.1177,-0.0111,9.269,709.46,2000.0,0.5647,4.4595,26.208,0.1652,8.9342,-3.0419,-0.0017,-0.5046,-0.1662,-0.8037,-0.1651,-0.411,-0.0175,-0.1011,3.2605,0.3052,0.4741,0.9998,0.0002,0.0,23637600.0,1.91
201,30000,0.53,0.1193,-0.0104,9.2466,712.2,2000.0,0.5596,4.4607,26.5096,0.1622,8.8835,-3.0398,-0.0017,-0.5007,-0.1652,-0.8051,-0.1994,-0.4205,-0.0178,-0.1024,3.2714,0.2762,0.4727,0.9998,0.0002,0.0,23755200.0,1.93
202,30000,0.53,0.116,-0.0105,9.2159,704.63,2000.0,0.5562,4.4537,26.1425,0.1618,8.9123,-3.02,-0.0017,-0.4986,-0.1641,-0.8126,-0.2188,-0.4151,-0.0182,-0.1015,3.2822,0.3111,0.4794,0.9998,0.0002,0.0,23872800.0,1.95
203,30000,0.52,0.1169,-0.0105,9.1844,702.15,2000.0,0.5667,4.4675,26.3896,0.1638,8.874,-3.0176,-0.0017,-0.5023,-0.1659,-0.8054,-0.1541,-0.4226,-0.0173,-0.1007,3.2935,0.2883,0.4664,0.9998,0.0002,0.0,23990400.0,1.94
204,30000,0.52,0.1187,-0.0108,9.126,713.76,2000.0,0.5904,4.4466,26.8177,0.165,8.8916,-3.0116,-0.0018,-0.5109,-0.1655,-0.7736,-0.1449,-0.4104,-0.0171,-0.1008,3.3058,0.248,0.4864,0.9998,0.0002,0.0,24108000.0,1.96
205,30000,0.52,0.1201,-0.0106,9.1188,711.72,2000.0,0.5657,4.4794,26.6654,0.1647,8.9647,-3.0185,-0.0017,-0.4881,-0.1635,-0.7672,-0.1306,-0.4114,-0.0171,-0.0995,3.3189,0.2638,0.4546,0.9998,0.0002,0.0,24225600.0,1.95
206,30000,0.52,0.1204,-0.0102,9.0789,713.22,2000.0,0.571,4.4641,26.5575,0.1649,8.9619,-2.9942,-0.0018,-0.4964,-0.1644,-0.7834,-0.191,-0.4069,-0.0178,-0.1009,3.3266,0.2733,0.4691,0.9998,0.0002,0.0,24343200.0,1.95
207,30000,0.52,0.1207,-0.0122,9.041,719.01,2000.0,0.5819,4.4792,27.1244,0.1656,8.9905,-2.9927,-0.0017,-0.4975,-0.1642,-0.7767,-0.1694,-0.4019,-0.0173,-0.1012,3.3358,0.2212,0.455,0.9998,0.0002,0.0,24460800.0,1.93
208,30000,0.52,0.1226,-0.0094,9.0306,719.83,2000.0,0.5683,4.4805,26.5745,0.1657,8.9501,-2.9988,-0.0017,-0.4822,-0.1627,-0.7556,-0.1404,-0.413,-0.0171,-0.1,3.3462,0.2721,0.4541,0.9998,0.0002,0.0,24578400.0,1.95
209,30000,0.52,0.1222,-0.0111,8.9799,717.62,2000.0,0.5891,4.4749,26.8457,0.1645,8.9291,-2.9776,-0.0018,-0.5058,-0.1671,-0.7979,-0.1868,-0.4096,-0.0177,-0.1015,3.3586,0.2461,0.4594,0.9998,0.0002,0.0,24696000.0,1.93
210,30000,0.51,0.1226,-0.0102,8.9335,725.46,2000.0,0.5729,4.4742,26.9571,0.1659,8.9649,-2.9794,-0.0017,-0.4859,-0.1616,-0.7606,-0.1588,-0.4076,-0.0173,-0.1006,3.3717,0.2375,0.4599,0.9998,0.0002,0.0,24813600.0,1.97
211,30000,0.51,0.1243,-0.0092,8.9201,717.8,2000.0,0.5667,4.4993,27.1316,0.1631,9.0002,-2.9678,-0.0017,-0.4826,-0.1611,-0.805,-0.2111,-0.4066,-0.0179,-0.1019,3.3827,0.2222,0.4361,0.9998,0.0002,0.0,24931200.0,1.91
212,30000,0.51,0.125,-0.0099,8.889,716.53,2000.0,0.5796,4.494,26.7413,0.1663,8.9563,-2.9763,-0.0017,-0.49,-0.1641,-0.7783,-0.1508,-0.4133,-0.0171,-0.1006,3.3923,0.2574,0.4412,0.9998,0.0002,0.0,25048800.0,1.96
213,30000,0.51,0.1236,-0.0111,8.863,710.48,2000.0,0.5553,4.5094,26.4384,0.1653,9.025,-2.975,-0.0016,-0.4726,-0.1613,-0.771,-0.1629,-0.4125,-0.0174,-0.1007,3.4033,0.286,0.4265,0.9998,0.0002,0.0,25166400.0,1.91
214,30000,0.51,0.1224,-0.0083,8.8538,717.72,2000.0,0.595,4.4951,27.1338,0.1672,8.9155,-2.9811,-0.0018,-0.4954,-0.1631,-0.7734,-0.135,-0.4184,-0.0168,-0.1003,3.4132,0.2217,0.44,0.9998,0.0002,0.0,25284000.0,1.93
215,30000,0.51,0.121,-0.0112,8.8213,719.05,2000.0,0.5988,4.4778,26.5949,0.1669,8.8884,-2.9151,-0.002,-0.4983,-0.1645,-0.7604,-0.1651,-0.4116,-0.0176,-0.1002,3.4232,0.27,0.4563,0.9998,0.0002,0.0,25401600.0,1.93
216,30000,0.51,0.1234,-0.0092,8.8054,719.74,2000.0,0.5918,4.5029,27.0765,0.1673,8.9338,-2.9376,-0.0018,-0.493,-0.1645,-0.7594,-0.1548,-0.4113,-0.0172,-0.0996,3.4347,0.2271,0.433,0.9998,0.0002,0.0,25519200.0,2.02
217,30000,0.51,0.122,-0.0095,8.777,716.04,2000.0,0.5859,4.5066,26.1582,0.1658,8.906,-2.9238,-0.0019,-0.4893,-0.1636,-0.7777,-0.1659,-0.4182,-0.0175,-0.1004,3.4453,0.3114,0.4291,0.9998,0.0002,0.0,25636800.0,2.16
218,30000,0.51,0.1233,-0.0088,8.7567,724.19,2000.0,0.597,4.493,26.9346,0.1678,8.9629,-2.9278,-0.0018,-0.4864,-0.1627,-0.7505,-0.1412,-0.407,-0.017,-0.1003,3.4594,0.2401,0.4425,0.9998,0.0002,0.0,25754400.0,2.0
219,30000,0.5,0.1197,-0.0095,8.7199,716.41,2000.0,0.5879,4.509,26.6608,0.1671,8.9451,-2.9058,-0.0019,-0.4859,-0.1645,-0.761,-0.2073,-0.4104,-0.0179,-0.1014,3.4722,0.2651,0.4272,0.9998,0.0002,0.0,25872000.0,1.94
220,30000,0.5,0.1225,-0.0101,8.6825,721.62,2000.0,0.5895,4.5088,27.2768,0.1683,8.9817,-2.9214,-0.0018,-0.4784,-0.1637,-0.7437,-0.172,-0.4084,-0.0173,-0.101,3.4828,0.2086,0.427,0.9998,0.0002,0.0,25989600.0,1.9
221,30000,0.5,0.1236,-0.0099,8.6717,726.16,2000.0,0.591,4.5231,26.8727,0.1657,8.9814,-2.9118,-0.0018,-0.4758,-0.1597,-0.7466,-0.1337,-0.4096,-0.0169,-0.0994,3.493,0.2474,0.4137,0.9998,0.0002,0.0,26107200.0,1.95
222,30000,0.5,0.1223,-0.0089,8.6684,724.16,2000.0,0.598,4.5157,26.9372,0.166,8.9613,-2.8909,-0.0019,-0.4809,-0.1631,-0.7598,-0.1484,-0.4096,-0.0172,-0.0997,3.5031,0.2404,0.4206,0.9998,0.0002,0.0,26224800.0,1.89
223,30000,0.5,0.1222,-0.0099,8.6556,721.83,2000.0,0.6142,4.5041,26.8785,0.168,8.9319,-2.8906,-0.0019,-0.4916,-0.1642,-0.7412,-0.1223,-0.4085,-0.0168,-0.0991,3.5139,0.2458,0.4318,0.9998,0.0002,0.0,26342400.0,1.92
224,30000,0.5,0.1233,-0.011,8.6314,723.35,2000.0,0.6005,4.5142,27.1251,0.1685,8.9625,-2.8738,-0.0019,-0.4821,-0.1621,-0.7309,-0.1467,-0.4061,-0.0172,-0.1002,3.5242,0.2228,0.4226,0.9998,0.0002,0.0,26460000.0,1.92
225,30000,0.5,0.1235,-0.0089,8.6419,726.41,2000.0,0.6105,4.5129,26.8514,0.1677,8.938,-2.8718,-0.002,-0.485,-0.165,-0.7552,-0.1514,-0.4086,-0.0173,-0.099,3.5355,0.2474,0.4232,0.9998,0.0002,0.0,26577600.0,1.95
226,30000,0.5,0.121,-0.0086,8.6124,720.24,2000.0,0.5986,4.5199,26.647,0.1673,8.9748,-2.8532,-0.0019,-0.4772,-0.1606,-0.7561,-0.132,-0.4069,-0.0169,-0.0995,3.5477,0.2679,0.4168,0.9998,0.0002,0.0,26695200.0,1.9
227,30000,0.5,0.1238,-0.0103,8.5685,718.02,2000.0,0.6015,4.5296,26.5086,0.1656,8.9319,-2.8488,-0.0019,-0.4737,-0.16,-0.7577,-0.1651,-0.41,-0.0174,-0.0999,3.5587,0.2796,0.4077,0.9998,0.0002,0.0,26812800.0,1.92
228,30000,0.5,0.1216,-0.0092,8.5466,726.03,2000.0,0.6034,4.5321,27.3866,0.1681,8.9742,-2.8549,-0.0019,-0.4709,-0.1589,-0.7389,-0.1453,-0.4029,-0.0172,-0.0992,3.5707,0.2001,0.4049,0.9998,0.0002,0.0,26930400.0,1.89
229,30000,0.5,0.1223,-0.0099,8.5107,728.76,2000.0,0.627,4.5252,27.0648,0.1664,8.9338,-2.8281,-0.0021,-0.4879,-0.1619,-0.7462,-0.147,-0.4005,-0.0171,-0.0995,3.5838,0.2287,0.4118,0.9998,0.0002,0.0,27048000.0,1.94
230,30000,0.49,0.1192,-0.0082,8.4884,730.88,2000.0,0.6159,4.5285,27.1951,0.1679,8.9576,-2.8548,-0.0019,-0.4784,-0.1622,-0.7371,-0.1325,-0.4064,-0.0169,-0.0993,3.5952,0.2172,0.4086,0.9998,0.0002,0.0,27165600.0,1.94
231,30000,0.49,0.1197,-0.0094,8.461,727.74,2000.0,0.5972,4.5368,26.8127,0.1684,8.9725,-2.8498,-0.0019,-0.4645,-0.1578,-0.7447,-0.1689,-0.4074,-0.0173,-0.1,3.6081,0.2528,0.4007,0.9998,0.0002,0.0,27283200.0,1.98
232,30000,0.49,0.1189,-0.0095,8.4284,737.54,2000.0,0.606,4.5362,27.5638,0.1677,9.0135,-2.8389,-0.0019,-0.4652,-0.1595,-0.736,-0.1679,-0.3985,-0.0173,-0.0999,3.6161,0.1848,0.4012,0.9998,0.0002,0.0,27400800.0,1.88
233,30000,0.49,0.118,-0.0097,8.3839,732.99,2000.0,0.6166,4.5326,26.8152,0.1656,8.9295,-2.8027,-0.0021,-0.4837,-0.1644,-0.7573,-0.1959,-0.4048,-0.0177,-0.1011,3.6255,0.2523,0.4047,0.9998,0.0002,0.0,27518400.0,1.95
234,30000,0.49,0.1177,-0.0108,8.3555,721.82,2000.0,0.5901,4.5588,26.7219,0.1673,9.0126,-2.8316,-0.0018,-0.4556,-0.1555,-0.7394,-0.1579,-0.4073,-0.0172,-0.0998,3.6335,0.2627,0.3802,0.9998,0.0002,0.0,27636000.0,1.91
235,30000,0.49,0.118,-0.0092,8.3343,733.49,2000.0,0.6033,4.5557,27.4582,0.1699,8.996,-2.8241,-0.0019,-0.4561,-0.1577,-0.7158,-0.1278,-0.4084,-0.0169,-0.0985,3.6395,0.1946,0.3834,0.9998,0.0002,0.0,27753600.0,1.95
236,30000,0.49,0.1168,-0.0104,8.293,729.66,2000.0,0.6238,4.5425,26.6581,0.1691,8.9141,-2.7997,-0.0021,-0.4697,-0.1598,-0.7426,-0.1727,-0.4067,-0.0175,-0.0989,3.6484,0.2663,0.3957,0.9998,0.0002,0.0,27871200.0,1.94
237,30000,0.48,0.1169,-0.009,8.2768,721.55,2000.0,0.5912,4.5582,27.1377,0.1696,8.9953,-2.8251,-0.0018,-0.4512,-0.1581,-0.7298,-0.149,-0.4126,-0.017,-0.0997,3.6586,0.224,0.3808,0.9998,0.0002,0.0,27988800.0,1.93
238,30000,0.48,0.1168,-0.0096,8.2451,723.23,2000.0,0.6141,4.5319,26.7437,0.169,8.9504,-2.7957,-0.002,-0.4651,-0.1587,-0.7394,-0.1615,-0.4074,-0.0173,-0.0996,3.6688,0.2587,0.4052,0.9998,0.0002,0.0,28106400.0,1.93
239,30000,0.48,0.1184,-0.01,8.196,730.2,2000.0,0.6145,4.5454,26.9119,0.1687,8.9623,-2.786,-0.002,-0.4569,-0.1577,-0.7277,-0.1584,-0.4057,-0.0172,-0.0991,3.6794,0.2442,0.3927,0.9998,0.0002,0.0,28224000.0,1.9
240,30000,0.48,0.1184,-0.0095,8.1752,726.02,2000.0,0.6192,4.5525,26.2201,0.1685,8.9203,-2.7941,-0.002,-0.4673,-0.1595,-0.7279,-0.155,-0.4138,-0.017,-0.0993,3.692,0.3071,0.3862,0.9998,0.0002,0.0,28341600.0,1.96
241,30000,0.48,0.1182,-0.0095,8.1343,716.17,2000.0,0.626,4.5426,26.2356,0.1667,8.8834,-2.763,-0.0022,-0.4729,-0.1615,-0.735,-0.1908,-0.4108,-0.0175,-0.1007,3.7021,0.3054,0.3951,0.9998,0.0002,0.0,28459200.0,1.95
242,30000,0.48,0.115,-0.0089,8.123,720.31,2000.0,0.6083,4.5611,26.6672,0.1695,8.9733,-2.7802,-0.0019,-0.4528,-0.1572,-0.7255,-0.1736,-0.4099,-0.0173,-0.0996,3.7111,0.2673,0.3779,0.9998,0.0002,0.0,28576800.0,1.92
243,30000,0.48,0.1156,-0.0095,8.1035,724.13,2000.0,0.6175,4.5709,26.9258,0.1693,8.99,-2.7796,-0.002,-0.4547,-0.1586,-0.7213,-0.1341,-0.4065,-0.017,-0.0988,3.7202,0.2439,0.3692,0.9998,0.0002,0.0,28694400.0,1.92
244,30000,0.48,0.1156,-0.0098,8.0739,727.34,2000.0,0.609,4.573,26.8983,0.1695,8.9926,-2.769,-0.0019,-0.4451,-0.1558,-0.714,-0.1188,-0.4072,-0.0168,-0.098,3.7275,0.2467,0.3671,0.9998,0.0002,0.0,28812000.0,1.94
245,30000,0.48,0.1114,-0.0102,8.0296,727.72,2000.0,0.6219,4.549,26.8827,0.1725,8.9113,-2.748,-0.0021,-0.4596,-0.1588,-0.7152,-0.1611,-0.4118,-0.0173,-0.0993,3.7358,0.2466,0.3891,0.9998,0.0002,0.0,28929600.0,1.92
246,30000,0.47,0.1112,-0.0098,8.0163,726.82,2000.0,0.597,4.5703,26.1293,0.1695,8.9754,-2.7608,-0.0019,-0.447,-0.1553,-0.7312,-0.2078,-0.4153,-0.0178,-0.0995,3.7431,0.3162,0.3694,0.9998,0.0002,0.0,29047200.0,1.99
247,30000,0.47,0.1107,-0.0102,7.9957,731.03,2000.0,0.6186,4.5629,27.2833,0.1716,8.9956,-2.7594,-0.002,-0.4439,-0.1574,-0.7128,-0.1313,-0.4082,-0.017,-0.0978,3.7525,0.2112,0.3764,0.9998,0.0002,0.0,29164800.0,1.94
248,30000,0.47,0.1118,-0.0099,7.9673,730.33,2000.0,0.63,4.5697,26.6454,0.172,8.9376,-2.7423,-0.0021,-0.4557,-0.159,-0.6961,-0.1344,-0.4101,-0.0169,-0.0982,3.7602,0.2686,0.3701,0.9998,0.0002,0.0,29282400.0,2.02
249,30000,0.47,0.1108,-0.0089,7.9407,738.99,2000.0,0.6342,4.5598,27.3445,0.1689,8.9847,-2.7199,-0.0021,-0.4564,-0.158,-0.725,-0.1424,-0.3981,-0.017,-0.0987,3.77,0.2054,0.3791,0.9998,0.0002,0.0,29400000.0,2.08
250,30000,0.47,0.1088,-0.0098,7.9137,734.19,2000.0,0.6392,4.5598,27.2945,0.172,8.9661,-2.7258,-0.0021,-0.4592,-0.1597,-0.7025,-0.1475,-0.4017,-0.017,-0.0988,3.7815,0.2095,0.3793,0.9998,0.0002,0.0,29517600.0,1.95
251,30000,0.47,0.1116,-0.008,7.9129,730.31,2000.0,0.6297,4.5681,27.1223,0.1735,8.9995,-2.7356,-0.002,-0.4438,-0.1568,-0.6772,-0.1127,-0.4055,-0.0166,-0.0976,3.7923,0.2262,0.3715,0.9998,0.0002,0.0,29635200.0,1.97
252,30000,0.47,0.1119,-0.0089,7.8839,740.34,2000.0,0.6126,4.5833,27.4451,0.1729,9.0333,-2.7494,-0.0019,-0.4328,-0.1547,-0.6935,-0.1494,-0.4066,-0.017,-0.0981,3.8036,0.1968,0.3576,0.9998,0.0002,0.0,29752800.0,1.93
253,30000,0.47,0.1095,-0.0093,7.8687,737.13,2000.0,0.6286,4.5775,26.5414,0.1706,8.9556,-2.7113,-0.0021,-0.4444,-0.1567,-0.7127,-0.1758,-0.4062,-0.0174,-0.099,3.8172,0.2788,0.3628,0.9998,0.0002,0.0,29870400.0,1.98
254,30000,0.47,0.1083,-0.0092,7.8328,721.72,2000.0,0.6182,4.583,26.3999,0.1695,8.9694,-2.717,-0.002,-0.4425,-0.1579,-0.7194,-0.1576,-0.4094,-0.0171,-0.0988,3.8282,0.2924,0.3579,0.9998,0.0002,0.0,29988000.0,1.93
255,30000,0.47,0.1073,-0.0096,7.8253,727.47,2000.0,0.6426,4.5717,27.131,0.1705,8.9185,-2.6809,-0.0022,-0.4515,-0.1577,-0.7175,-0.1898,-0.4025,-0.0176,-0.0998,3.8382,0.2246,0.3683,0.9998,0.0002,0.0,30105600.0,1.93
256,30000,0.47,0.108,-0.0095,7.7972,734.95,2000.0,0.6263,4.5807,26.8663,0.1727,8.9553,-2.7134,-0.002,-0.4417,-0.1559,-0.6935,-0.1429,-0.4133,-0.0169,-0.0982,3.8475,0.2485,0.3601,0.9998,0.0002,0.0,30223200.0,1.92
257,30000,0.46,0.1087,-0.0087,7.7779,738.88,2000.0,0.6155,4.5831,27.5594,0.1717,9.0361,-2.7114,-0.0019,-0.4366,-0.1547,-0.7124,-0.1709,-0.402,-0.0172,-0.0993,3.8583,0.1867,0.3576,0.9998,0.0002,0.0,30340800.0,1.96
258,30000,0.46,0.1098,-0.01,7.7461,739.22,2000.0,0.632,4.581,26.6652,0.1743,8.9622,-2.6956,-0.0021,-0.4379,-0.1559,-0.6881,-0.1523,-0.4093,-0.0172,-0.0984,3.8688,0.2679,0.3599,0.9998,0.0002,0.0,30458400.0,1.91
259,30000,0.46,0.1085,-0.0099,7.7006,727.46,2000.0,0.6428,4.5798,26.424,0.1698,8.9169,-2.6728,-0.0022,-0.449,-0.1586,-0.7086,-0.1517,-0.4088,-0.017,-0.0983,3.8785,0.2891,0.3608,0.9998,0.0002,0.0,30576000.0,1.94
260,30000,0.46,0.1094,-0.0075,7.6963,729.97,2000.0,0.6529,4.5694,26.6337,0.1705,8.9426,-2.6665,-0.0022,-0.4536,-0.1566,-0.703,-0.143,-0.4002,-0.0169,-0.0982,3.8892,0.271,0.3704,0.9998,0.0002,0.0,30693600.0,1.88
261,30000,0.46,0.1079,-0.0085,7.6622,742.54,2000.0,0.6343,4.5916,27.3121,0.1741,9.007,-2.7052,-0.002,-0.433,-0.1549,-0.6963,-0.1144,-0.4077,-0.0164,-0.0971,3.8957,0.2099,0.3497,0.9998,0.0002,0.0,30811200.0,1.93
262,30000,0.46,0.1078,-0.0093,7.6508,742.04,2000.0,0.6376,4.591,27.2924,0.1709,8.9884,-2.676,-0.0021,-0.4359,-0.1587,-0.7086,-0.1798,-0.4034,-0.0174,-0.0983,3.9068,0.2108,0.3507,0.9998,0.0002,0.0,30928800.0,1.95
263,30000,0.46,0.1085,-0.0093,7.616,736.06,2000.0,0.6622,4.5809,27.2413,0.174,8.9554,-2.6559,-0.0022,-0.4478,-0.1584,-0.6901,-0.1058,-0.4013,-0.0165,-0.0968,3.9175,0.2152,0.36,0.9998,0.0002,0.0,31046400.0,1.92
264,30000,0.46,0.1081,-0.0094,7.5917,741.38,2000.0,0.6409,4.5962,27.2412,0.1736,8.9853,-2.6517,-0.0021,-0.4341,-0.1549,-0.7168,-0.1495,-0.4022,-0.017,-0.0977,3.929,0.2162,0.3458,0.9998,0.0002,0.0,31164000.0,2.06
265,30000,0.46,0.1107,-0.0087,7.5685,738.52,2000.0,0.6413,4.5926,27.2228,0.1735,8.9867,-2.6607,-0.0021,-0.4374,-0.1579,-0.7052,-0.1501,-0.4048,-0.017,-0.0981,3.9406,0.2177,0.349,0.9998,0.0002,0.0,31281600.0,1.96
266,30000,0.46,0.1089,-0.0099,7.533,731.01,2000.0,0.6328,4.5947,26.6583,0.1723,8.962,-2.6532,-0.0021,-0.4322,-0.1544,-0.7087,-0.1462,-0.411,-0.017,-0.0987,3.9539,0.2693,0.3472,0.9998,0.0002,0.0,31399200.0,2.03
267,30000,0.45,0.1084,-0.0095,7.5249,731.01,2000.0,0.6753,4.5837,26.9197,0.1709,8.9239,-2.6228,-0.0023,-0.452,-0.1591,-0.6928,-0.123,-0.4014,-0.0165,-0.0981,3.9636,0.244,0.3575,0.9998,0.0002,0.0,31516800.0,1.95
268,30000,0.45,0.1079,-0.0094,7.5075,737.59,2000.0,0.634,4.6001,27.213,0.1724,9.0198,-2.6392,-0.002,-0.4258,-0.1526,-0.7015,-0.1384,-0.4024,-0.0169,-0.0973,3.9698,0.2192,0.342,0.9998,0.0002,0.0,31634400.0,1.92
269,30000,0.45,0.1076,-0.0101,7.4716,737.97,2000.0,0.6491,4.5945,27.1989,0.1744,8.9824,-2.6325,-0.0021,-0.4337,-0.1542,-0.684,-0.1393,-0.4029,-0.0169,-0.0981,3.9814,0.2202,0.3473,0.9998,0.0002,0.0,31752000.0,1.93
270,30000,0.45,0.1077,-0.0086,7.4418,730.17,2000.0,0.6602,4.5929,26.7141,0.1748,8.9393,-2.6435,-0.0022,-0.4409,-0.1577,-0.6801,-0.1172,-0.4096,-0.0165,-0.0968,3.9934,0.2641,0.3488,0.9998,0.0002,0.0,31869600.0,1.93
271,30000,0.45,0.1076,-0.0091,7.3995,728.63,2000.0,0.6537,4.6006,27.0754,0.1748,8.9474,-2.6316,-0.0022,-0.435,-0.1547,-0.6826,-0.1157,-0.4089,-0.0166,-0.0969,4.0029,0.2315,0.3416,0.9998,0.0002,0.0,31987200.0,1.97
272,30000,0.45,0.1072,-0.0098,7.3681,740.96,2000.0,0.6581,4.5953,27.5583,0.1744,8.9885,-2.624,-0.0022,-0.4296,-0.1568,-0.6704,-0.1319,-0.4021,-0.0168,-0.0976,4.0085,0.1876,0.3466,0.9998,0.0002,0.0,32104800.0,1.99
273,30000,0.45,0.1095,-0.01,7.3558,741.99,2000.0,0.656,4.603,27.3872,0.1729,8.9676,-2.6032,-0.0022,-0.4332,-0.1545,-0.6874,-0.1515,-0.3994,-0.017,-0.0982,4.0174,0.2028,0.3394,0.9998,0.0002,0.0,32222400.0,1.94
274,30000,0.45,0.1087,-0.0101,7.3378,740.53,2000.0,0.6735,4.5892,27.4555,0.1746,8.9353,-2.5889,-0.0024,-0.4389,-0.1592,-0.675,-0.1622,-0.4009,-0.0172,-0.0986,4.0283,0.1963,0.3521,0.9998,0.0002,0.0,32340000.0,1.94
275,30000,0.45,0.1075,-0.0091,7.3167,742.14,2000.0,0.664,4.6103,27.0452,0.1728,8.9565,-2.5954,-0.0023,-0.4349,-0.1568,-0.6832,-0.1443,-0.4015,-0.017,-0.0978,4.0381,0.2338,0.3329,0.9998,0.0002,0.0,32457600.0,1.91
276,30000,0.45,0.1074,-0.0087,7.2865,744.43,2000.0,0.6263,4.6164,27.7367,0.1764,9.0736,-2.6246,-0.0019,-0.4181,-0.1493,-0.6939,-0.1591,-0.4024,-0.0171,-0.0983,4.0468,0.1725,0.3272,0.9998,0.0002,0.0,32575200.0,1.91
277,30000,0.45,0.1084,-0.0092,7.2709,753.83,2000.0,0.6598,4.6007,27.9147,0.1752,9.0042,-2.5958,-0.0021,-0.4245,-0.1545,-0.6657,-0.1164,-0.3988,-0.0166,-0.0973,4.0586,0.1549,0.3415,0.9999,0.0001,0.0,32692800.0,1.93
278,30000,0.44,0.11,-0.0091,7.2488,746.1,2000.0,0.6759,4.6058,27.4753,0.1744,8.9647,-2.5818,-0.0023,-0.436,-0.1547,-0.6704,-0.1213,-0.3991,-0.0167,-0.0965,4.0661,0.1944,0.337,1.0,0.0,0.0,32810400.0,1.9
279,30000,0.44,0.1099,-0.0084,7.2305,743.19,2000.0,0.6819,4.5997,27.2569,0.1738,8.9428,-2.5669,-0.0024,-0.4424,-0.1581,-0.6774,-0.1532,-0.399,-0.017,-0.0981,4.0741,0.2146,0.3425,1.0,0.0,0.0,32928000.0,1.93
280,30000,0.44,0.1075,-0.0093,7.2114,744.15,2000.0,0.661,4.6115,26.7121,0.1748,8.9741,-2.5701,-0.0022,-0.4258,-0.1537,-0.6751,-0.1419,-0.4011,-0.0169,-0.0976,4.0826,0.2651,0.3316,1.0,0.0,0.0,33045600.0,1.92
281,30000,0.44,0.1067,-0.0096,7.1902,743.07,2000.0,0.6406,4.6235,27.1327,0.1783,9.0433,-2.6135,-0.002,-0.4119,-0.1488,-0.6627,-0.1353,-0.4084,-0.0169,-0.0963,4.0909,0.2276,0.3207,1.0,0.0,0.0,33163200.0,1.93
282,30000,0.44,0.1078,-0.0102,7.1617,739.28,2000.0,0.6704,4.6129,27.2061,0.1748,8.9784,-2.5629,-0.0023,-0.426,-0.1531,-0.6771,-0.1479,-0.4014,-0.017,-0.0976,4.1005,0.2196,0.3305,1.0,0.0,0.0,33280800.0,1.92
283,30000,0.44,0.1078,-0.0101,7.1371,743.86,2000.0,0.6461,4.6285,27.6524,0.1767,9.0306,-2.5761,-0.002,-0.4095,-0.1483,-0.6834,-0.13,-0.4043,-0.0168,-0.0959,4.1082,0.1805,0.3162,1.0,0.0,0.0,33398400.0,1.93
284,30000,0.44,0.1084,-0.0085,7.1313,754.18,2000.0,0.6543,4.6202,27.6745,0.1764,9.0311,-2.5733,-0.0021,-0.4175,-0.15,-0.6586,-0.1431,-0.4011,-0.0168,-0.0973,4.1197,0.1774,0.3239,1.0,0.0,0.0,33516000.0,1.93
285,30000,0.44,0.1079,-0.0095,7.1063,748.11,2000.0,0.662,4.6254,27.3247,0.1773,9.0026,-2.5745,-0.0021,-0.4182,-0.1523,-0.6485,-0.105,-0.4086,-0.0163,-0.0956,4.1306,0.2097,0.319,1.0,0.0,0.0,33633600.0,1.98
286,30000,0.44,0.1085,-0.0102,7.0826,741.3,2000.0,0.6409,4.6252,26.3179,0.1765,9.004,-2.5731,-0.0021,-0.4179,-0.1521,-0.6755,-0.1339,-0.4124,-0.0168,-0.0976,4.1415,0.3022,0.3192,1.0,0.0,0.0,33751200.0,2.07
287,30000,0.44,0.1082,-0.0096,7.0577,735.48,2000.0,0.6458,4.6237,27.0772,0.1774,9.0134,-2.5725,-0.0021,-0.4137,-0.1477,-0.6707,-0.1329,-0.409,-0.0168,-0.097,4.152,0.2323,0.3206,1.0,0.0,0.0,33868800.0,1.99
288,30000,0.44,0.1089,-0.0098,7.0226,744.92,2000.0,0.6265,4.6359,27.5742,0.1785,9.0907,-2.5852,-0.0018,-0.4044,-0.1473,-0.6532,-0.1346,-0.408,-0.0167,-0.0974,4.1652,0.1881,0.3094,1.0,0.0,0.0,33986400.0,1.96
289,30000,0.43,0.1077,-0.0097,6.9935,741.61,2000.0,0.7007,4.6105,26.8876,0.175,8.9075,-2.518,-0.0025,-0.4408,-0.157,-0.6654,-0.1302,-0.406,-0.0166,-0.0964,4.1744,0.2486,0.3328,1.0,0.0,0.0,34104000.0,1.95
290,30000,0.43,0.1075,-0.0092,6.9715,739.0,2000.0,0.6564,4.6262,26.4723,0.177,8.9882,-2.5396,-0.0021,-0.4173,-0.1509,-0.665,-0.1266,-0.4121,-0.0166,-0.0967,4.184,0.288,0.3183,1.0,0.0,0.0,34221600.0,1.98
291,30000,0.43,0.1049,-0.0091,6.9371,739.32,2000.0,0.6849,4.6195,27.0386,0.1748,8.961,-2.5204,-0.0024,-0.4268,-0.1535,-0.6718,-0.1234,-0.404,-0.0166,-0.0966,4.195,0.2354,0.3243,1.0,0.0,0.0,34339200.0,1.93
292,30000,0.43,0.1054,-0.0099,6.9294,746.13,2000.0,0.6726,4.6264,27.3289,0.1776,9.016,-2.5311,-0.0022,-0.4126,-0.1503,-0.6525,-0.1624,-0.3998,-0.017,-0.097,4.2041,0.209,0.3182,1.0,0.0,0.0,34456800.0,1.94
293,30000,0.43,0.1047,-0.0083,6.9065,748.53,2000.0,0.6539,4.6314,27.0673,0.1785,9.03,-2.5532,-0.0021,-0.4103,-0.1493,-0.6411,-0.1279,-0.4106,-0.0166,-0.0967,4.2176,0.2334,0.3135,1.0,0.0,0.0,34574400.0,1.98
294,30000,0.43,0.1068,-0.0095,6.8784,747.91,2000.0,0.7104,4.6158,27.5982,0.1728,8.9374,-2.4862,-0.0025,-0.4348,-0.1578,-0.6665,-0.1039,-0.4,-0.0163,-0.0963,4.2301,0.1844,0.3277,1.0,0.0,0.0,34692000.0,1.88
295,30000,0.43,0.1063,-0.0091,6.858,744.24,2000.0,0.6655,4.6326,27.3424,0.177,9.0208,-2.5115,-0.0021,-0.4127,-0.1493,-0.6621,-0.1334,-0.4047,-0.0167,-0.0969,4.2387,0.2083,0.3125,1.0,0.0,0.0,34809600.0,1.94
296,30000,0.43,0.1072,-0.0082,6.8361,748.68,2000.0,0.6805,4.6328,27.3457,0.1759,8.9993,-2.5019,-0.0023,-0.416,-0.1508,-0.6693,-0.1494,-0.4029,-0.0169,-0.0971,4.25,0.2079,0.3124,1.0,0.0,0.0,34927200.0,1.96
297,30000,0.43,0.1071,-0.0103,6.8338,740.94,2000.0,0.693,4.615,25.2394,0.1748,8.9404,-2.4743,-0.0024,-0.4202,-0.1521,-0.6664,-0.1381,-0.4067,-0.0168,-0.0968,4.2589,0.4004,0.3283,1.0,0.0,0.0,35044800.0,1.9
298,30000,0.43,0.1072,-0.0097,6.822,740.34,2000.0,0.6696,4.632,27.0159,0.1805,9.0032,-2.5191,-0.0022,-0.4076,-0.1495,-0.6471,-0.1223,-0.409,-0.0166,-0.096,4.2688,0.238,0.3129,1.0,0.0,0.0,35162400.0,1.95
299,30000,0.43,0.1057,-0.0091,6.8132,742.79,2000.0,0.6831,4.6289,27.2179,0.1774,9.0035,-2.5005,-0.0023,-0.4133,-0.1501,-0.6497,-0.1283,-0.4057,-0.0166,-0.096,4.2782,0.2199,0.3158,1.0,0.0,0.0,35280000.0,1.92
300,30000,0.43,0.1079,-0.0096,6.7782,746.07,2000.0,0.6699,4.6442,27.5648,0.1788,9.0325,-2.5102,-0.0022,-0.4079,-0.1493,-0.6561,-0.1367,-0.4082,-0.0168,-0.0961,4.2879,0.1887,0.302,1.0,0.0,0.0,35397600.0,1.92
301,30000,0.42,0.1071,-0.0084,6.7326,745.07,2000.0,0.675,4.6364,26.9809,0.1774,8.9972,-2.4866,-0.0022,-0.4088,-0.1502,-0.6653,-0.1399,-0.4071,-0.0168,-0.0965,4.301,0.2418,0.309,1.0,0.0,0.0,35515200.0,2.04
302,30000,0.42,0.1079,-0.0088,6.6823,741.3,2000.0,0.6748,4.6343,25.7784,0.1798,8.9855,-2.4936,-0.0022,-0.4125,-0.1492,-0.636,-0.1102,-0.4157,-0.0165,-0.0961,4.313,0.3518,0.3109,1.0,0.0,0.0,35632800.0,2.05
303,30000,0.42,0.1074,-0.0096,6.662,740.05,2000.0,0.6648,4.6425,26.8957,0.1799,9.014,-2.4964,-0.0021,-0.4048,-0.1461,-0.6299,-0.1307,-0.412,-0.0167,-0.0959,4.3197,0.2494,0.3034,1.0,0.0,0.0,35750400.0,1.98
304,30000,0.42,0.1075,-0.0102,6.6392,743.62,2000.0,0.6582,4.6414,26.8419,0.1777,9.0489,-2.49,-0.0021,-0.4026,-0.1447,-0.6623,-0.1682,-0.4089,-0.0171,-0.0973,4.3274,0.2551,0.3046,1.0,0.0,0.0,35868000.0,1.94
305,30000,0.42,0.1783,-0.0057,6.614,734.16,1980.73,0.6694,4.5436,26.4164,0.1725,8.832,-2.4169,-0.0022,-0.3999,-0.1449,-0.6473,-0.1233,-0.3979,-0.0163,-0.0943,4.3333,0.2393,0.3026,0.9999,0.0001,0.0,35985600.0,1.95
306,30000,0.42,0.1074,-0.0094,6.5838,738.24,1980.73,0.6462,4.6487,26.8857,0.1807,9.071,-2.5017,-0.002,-0.391,-0.143,-0.6501,-0.1359,-0.4131,-0.0167,-0.0961,4.3412,0.2511,0.298,0.9998,0.0002,0.0,36103200.0,1.96
307,30000,0.42,0.1075,-0.0087,6.5866,752.4,2000.0,0.7031,4.6285,27.8485,0.1794,9.004,-2.452,-0.0024,-0.4188,-0.1498,-0.6542,-0.135,-0.4021,-0.0167,-0.0964,4.353,0.1627,0.3162,0.9998,0.0002,0.0,36220800.0,1.93
308,30000,0.42,0.1089,-0.0086,6.5578,757.53,2000.0,0.6874,4.6391,27.8034,0.1789,9.0322,-2.463,-0.0023,-0.4058,-0.1471,-0.6386,-0.1215,-0.4047,-0.0165,-0.0957,4.3645,0.1672,0.3065,0.9998,0.0002,0.0,36338400.0,1.97
309,30000,0.42,0.1101,-0.0089,6.554,746.75,2000.0,0.697,4.6359,26.9248,0.1774,8.9821,-2.4482,-0.0024,-0.4118,-0.152,-0.6714,-0.1322,-0.4107,-0.0167,-0.0963,4.3731,0.2465,0.3095,0.9998,0.0002,0.0,36456000.0,1.94
310,30000,0.42,0.1095,-0.0098,6.5065,753.6,2000.0,0.6845,4.6501,27.9875,0.1799,9.0573,-2.4691,-0.0022,-0.403,-0.1438,-0.6413,-0.105,-0.4083,-0.0163,-0.0945,4.3831,0.1511,0.2968,0.9998,0.0002,0.0,36573600.0,1.96
311,30000,0.42,0.1084,-0.0083,6.4963,758.35,2000.0,0.6988,4.6375,27.5829,0.1789,9.0168,-2.4467,-0.0024,-0.4073,-0.1495,-0.6568,-0.1302,-0.4046,-0.0167,-0.0957,4.3899,0.187,0.308,0.9998,0.0002,0.0,36691200.0,1.92
312,30000,0.42,0.109,-0.0091,6.4728,751.22,2000.0,0.682,4.6502,27.2496,0.179,9.0465,-2.4515,-0.0022,-0.3967,-0.1444,-0.6408,-0.1305,-0.408,-0.0166,-0.0957,4.3999,0.2178,0.2966,0.9998,0.0002,0.0,36808800.0,1.94
313,30000,0.42,0.1097,-0.0096,6.4382,759.12,2000.0,0.7073,4.6409,27.9401,0.1788,9.0141,-2.431,-0.0023,-0.4051,-0.1466,-0.6406,-0.1253,-0.4049,-0.0166,-0.0955,4.4062,0.155,0.305,0.9998,0.0002,0.0,36926400.0,1.94
314,30000,0.41,0.1098,-0.0083,6.4307,757.03,2000.0,0.684,4.6516,27.2433,0.1786,9.0493,-2.4482,-0.0022,-0.398,-0.1458,-0.6439,-0.1183,-0.4078,-0.0165,-0.0952,4.4161,0.2185,0.2954,0.9998,0.0002,0.0,37044000.0,1.93
315,30000,0.41,0.1127,-0.0087,6.3923,758.44,2000.0,0.6897,4.6485,27.4622,0.1784,9.0153,-2.431,-0.0023,-0.3997,-0.1451,-0.6591,-0.1334,-0.4085,-0.0168,-0.0961,4.4272,0.1985,0.298,0.9998,0.0002,0.0,37161600.0,1.87
316,30000,0.41,0.1116,-0.0092,6.3608,759.18,2000.0,0.7116,4.6387,27.8316,0.1772,9.0071,-2.4156,-0.0024,-0.409,-0.148,-0.658,-0.121,-0.4061,-0.0166,-0.0954,4.4332,0.1643,0.3069,0.9998,0.0002,0.0,37279200.0,1.96
317,30000,0.41,0.1123,-0.01,6.3294,754.39,2000.0,0.6792,4.653,27.5602,0.1779,9.0631,-2.426,-0.0022,-0.3937,-0.1432,-0.6557,-0.1714,-0.4086,-0.0171,-0.0961,4.4406,0.1902,0.2939,0.9998,0.0002,0.0,37396800.0,1.89
318,30000,0.41,0.1127,-0.0089,6.3162,749.26,2000.0,0.7026,4.6471,27.3468,0.1797,9.0351,-2.413,-0.0023,-0.401,-0.147,-0.6393,-0.101,-0.4069,-0.0164,-0.0951,4.4492,0.2088,0.2993,0.9998,0.0002,0.0,37514400.0,1.94
319,30000,0.41,0.1136,-0.0092,6.297,754.68,2000.0,0.6912,4.6575,27.6252,0.1796,9.0514,-2.42,-0.0022,-0.392,-0.1429,-0.644,-0.1117,-0.4101,-0.0165,-0.095,4.4511,0.1842,0.2898,0.9998,0.0002,0.0,37632000.0,1.94
320,30000,0.41,0.1154,-0.0089,6.276,749.37,2000.0,0.673,4.6561,26.7561,0.1819,9.0577,-2.438,-0.0021,-0.3869,-0.1394,-0.6389,-0.139,-0.4152,-0.0167,-0.0956,4.4588,0.2634,0.2911,0.9998,0.0002,0.0,37749600.0,1.93
321,30000,0.41,0.1171,-0.0091,6.2521,745.56,2000.0,0.6864,4.6514,26.6528,0.181,9.0224,-2.4198,-0.0022,-0.3977,-0.1442,-0.6331,-0.1517,-0.4158,-0.0168,-0.0959,4.4681,0.2727,0.2956,0.9998,0.0002,0.0,37867200.0,2.03
322,30000,0.41,0.2028,-0.0054,6.2452,743.92,1980.85,0.7043,4.6133,27.0513,0.1777,8.9452,-2.3775,-0.0024,-0.3991,-0.1444,-0.648,-0.1448,-0.4074,-0.0167,-0.0944,4.4779,0.218,0.3,0.9997,0.0003,0.0,37984800.0,1.92
323,30000,0.41,0.1862,-0.0034,6.2206,735.01,1962.9,0.692,4.6074,26.9098,0.1759,8.9441,-2.3818,-0.0023,-0.3942,-0.1443,-0.6523,-0.1644,-0.4083,-0.0167,-0.0958,4.4888,0.2239,0.2934,0.9995,0.0005,0.0,38102400.0,1.93
324,30000,0.41,0.1197,-0.0101,6.1769,749.54,1982.05,0.704,4.6505,27.6444,0.179,9.0395,-2.3874,-0.0023,-0.3934,-0.1424,-0.6525,-0.1141,-0.4073,-0.0165,-0.0952,4.4966,0.1826,0.2962,0.9994,0.0006,0.0,38220000.0,1.96
325,30000,0.41,0.1185,-0.0089,6.1727,750.13,2000.0,0.6762,4.6566,26.4878,0.1815,9.0603,-2.4222,-0.0021,-0.3841,-0.1408,-0.6431,-0.1185,-0.4179,-0.0164,-0.0947,4.5007,0.2881,0.2907,0.9994,0.0006,0.0,38337600.0,1.93
326,30000,0.41,0.1172,-0.0069,6.1637,749.24,2000.0,0.697,4.6573,27.5815,0.1774,9.0439,-2.3791,-0.0024,-0.3936,-0.1427,-0.6643,-0.1817,-0.4061,-0.0172,-0.0977,4.5052,0.1879,0.2903,0.9994,0.0006,0.0,38455200.0,1.95
327,30000,0.4,0.1162,-0.0087,6.1339,757.2,2000.0,0.6972,4.6566,27.7146,0.1781,9.0591,-2.3808,-0.0023,-0.3868,-0.1407,-0.6552,-0.1632,-0.408,-0.017,-0.0973,4.5112,0.1762,0.2906,0.9994,0.0006,0.0,38572800.0,1.94
328,30000,0.4,0.1161,-0.0081,6.1134,753.96,2000.0,0.7132,4.6489,27.2948,0.1809,9.0325,-2.3872,-0.0024,-0.3965,-0.1438,-0.6419,-0.1455,-0.4121,-0.0167,-0.096,4.5173,0.2133,0.2978,0.9994,0.0006,0.0,38690400.0,1.92
329,30000,0.4,0.1825,-0.0049,6.1114,734.41,1961.08,0.6422,4.4674,25.4234,0.1732,8.7158,-2.3024,-0.002,-0.3662,-0.1343,-0.6256,-0.1604,-0.3989,-0.0163,-0.0937,4.5259,0.2765,0.2792,0.999,0.001,0.0,38808000.0,1.91
330,30000,0.4,0.121,-0.008,6.0916,753.21,2000.0,0.7158,4.6546,27.4484,0.1805,9.0383,-2.3679,-0.0024,-0.3966,-0.1428,-0.6505,-0.1348,-0.4144,-0.0167,-0.0949,4.5352,0.2003,0.2926,0.999,0.001,0.0,38925600.0,1.92
331,30000,0.4,0.118,-0.0091,6.0815,759.86,2000.0,0.6947,4.6641,27.8828,0.1812,9.086,-2.3861,-0.0022,-0.3855,-0.1419,-0.6309,-0.134,-0.4115,-0.0166,-0.0953,4.5438,0.1614,0.2841,0.999,0.001,0.0,39043200.0,1.99
332,30000,0.4,0.1211,-0.0087,6.0539,762.39,2000.0,0.7104,4.6565,27.4737,0.1779,9.0585,-2.3529,-0.0024,-0.3889,-0.1429,-0.6451,-0.1446,-0.4089,-0.0168,-0.0959,4.5543,0.1981,0.2908,0.999,0.001,0.0,39160800.0,1.95
333,30000,0.4,0.1191,-0.007,6.0375,752.53,2000.0,0.7352,4.6514,26.8454,0.1802,8.9998,-2.3434,-0.0026,-0.3969,-0.1441,-0.6387,-0.123,-0.4126,-0.0166,-0.0946,4.5646,0.2541,0.2953,0.999,0.001,0.0,39278400.0,1.93
334,30000,0.4,0.122,-0.0083,6.0091,748.94,2000.0,0.6976,4.6612,27.1378,0.1821,9.0818,-2.386,-0.0022,-0.3851,-0.1415,-0.6221,-0.1154,-0.417,-0.0164,-0.0943,4.5755,0.2291,0.2868,0.999,0.001,0.0,39396000.0,1.94
335,30000,0.4,0.155,-0.0054,5.9995,746.32,1980.59,0.7163,4.5907,27.0858,0.1779,8.9031,-2.3244,-0.0024,-0.3909,-0.1433,-0.6346,-0.1019,-0.4119,-0.0161,-0.0927,4.5813,0.1972,0.29,0.9988,0.0012,0.0,39513600.0,1.93
336,30000,0.4,0.1196,-0.0078,5.9706,753.08,2000.0,0.7047,4.6645,27.3262,0.1803,9.0858,-2.3641,-0.0022,-0.3854,-0.1405,-0.6318,-0.1216,-0.4108,-0.0163,-0.095,4.5866,0.2123,0.2836,0.9988,0.0012,0.0,39631200.0,1.97
337,30000,0.4,0.1196,-0.0083,5.9775,756.34,2000.0,0.7367,4.6562,27.0684,0.1773,9.018,-2.331,-0.0026,-0.3967,-0.1458,-0.6559,-0.1398,-0.4129,-0.0167,-0.0956,4.5945,0.2346,0.2911,0.9988,0.0012,0.0,39748800.0,1.93
338,30000,0.4,0.1193,-0.0071,5.9519,754.3,2000.0,0.7201,4.6565,27.4197,0.1794,9.085,-2.3421,-0.0023,-0.3895,-0.1413,-0.6478,-0.1347,-0.4092,-0.0165,-0.0942,4.6021,0.2037,0.2907,0.9988,0.0012,0.0,39866400.0,1.9
339,30000,0.4,0.1191,-0.0088,5.9404,753.73,2000.0,0.7078,4.6668,27.656,0.1806,9.0672,-2.3533,-0.0023,-0.3813,-0.1404,-0.6392,-0.1606,-0.4126,-0.0169,-0.0957,4.6098,0.1823,0.2817,0.9988,0.0012,0.0,39984000.0,1.91
340,30000,0.4,0.1183,-0.008,5.9364,753.82,2000.0,0.7272,4.6626,27.3747,0.1792,9.0724,-2.3268,-0.0024,-0.3882,-0.1416,-0.6392,-0.1213,-0.4092,-0.0164,-0.0946,4.6171,0.2075,0.2853,0.9988,0.0012,0.0,40101600.0,1.94
341,30000,0.4,0.1159,-0.0082,5.9243,750.87,2000.0,0.711,4.6593,26.6064,0.1808,9.066,-2.3311,-0.0023,-0.3831,-0.1385,-0.6455,-0.1422,-0.413,-0.0167,-0.0949,4.6241,0.2777,0.2882,0.9988,0.0012,0.0,40219200.0,1.93
342,30000,0.4,0.118,-0.0059,5.9193,750.22,2000.0,0.7415,4.654,26.9827,0.177,9.0152,-2.3023,-0.0026,-0.3911,-0.1445,-0.6488,-0.1466,-0.4134,-0.0168,-0.0951,4.6325,0.243,0.2929,0.9988,0.0012,0.0,40336800.0,1.93
343,30000,0.4,0.1175,-0.0087,5.8719,754.53,2000.0,0.7473,4.6562,27.5316,0.1789,9.048,-2.3195,-0.0026,-0.3951,-0.1462,-0.638,-0.1231,-0.4111,-0.0165,-0.0943,4.6397,0.1928,0.2913,0.9988,0.0012,0.0,40454400.0,1.88
344,30000,0.4,0.1153,-0.0094,5.8612,753.79,2000.0,0.7236,4.6667,26.7965,0.1787,9.049,-2.3167,-0.0025,-0.3902,-0.1443,-0.6404,-0.1388,-0.4163,-0.0167,-0.0947,4.6462,0.2603,0.2818,0.9988,0.0012,0.0,40572000.0,1.94
345,30000,0.4,0.1151,-0.008,5.8695,749.84,2000.0,0.7503,4.6592,26.9177,0.1784,9.0064,-2.2971,-0.0026,-0.3906,-0.1443,-0.6516,-0.1187,-0.4185,-0.0165,-0.0939,4.6562,0.2483,0.2884,0.9988,0.0012,0.0,40689600.0,1.94
346,30000,0.39,0.1152,-0.0086,5.8412,748.57,2000.0,0.7469,4.6586,27.0058,0.1787,9.0419,-2.2905,-0.0026,-0.392,-0.1442,-0.6387,-0.1292,-0.4139,-0.0166,-0.0948,4.6636,0.2406,0.289,0.9988,0.0012,0.0,40807200.0,1.9
347,30000,0.39,0.1142,-0.0076,5.839,748.95,2000.0,0.743,4.6598,26.8177,0.1807,9.0106,-2.3039,-0.0026,-0.3901,-0.1431,-0.6467,-0.1286,-0.4209,-0.0166,-0.0942,4.6668,0.2574,0.2879,0.9988,0.0012,0.0,40924800.0,1.95
348,30000,0.39,0.1178,-0.0084,5.8213,755.03,2000.0,0.739,4.6663,27.2198,0.1795,9.0644,-2.299,-0.0024,-0.3867,-0.1436,-0.6405,-0.1205,-0.4125,-0.0164,-0.0944,4.669,0.2218,0.2821,0.9988,0.0012,0.0,41042400.0,1.97
349,30000,0.39,0.1351,-0.0053,5.8282,750.67,1980.64,0.7324,4.6,26.9399,0.177,8.9445,-2.2553,-0.0025,-0.3793,-0.141,-0.6368,-0.1173,-0.4063,-0.0162,-0.0932,4.6739,0.2112,0.2814,0.9986,0.0014,0.0,41160000.0,1.97
350,30000,0.39,0.1154,-0.0081,5.8029,765.25,2000.0,0.7359,4.6684,27.4557,0.1774,9.0789,-2.2831,-0.0025,-0.385,-0.142,-0.6542,-0.1564,-0.4108,-0.0168,-0.096,4.6825,0.2004,0.2802,0.9986,0.0014,0.0,41277600.0,1.94
351,30000,0.39,0.116,-0.009,5.8011,763.46,2000.0,0.7197,4.6703,27.6984,0.1791,9.1251,-2.2952,-0.0023,-0.3776,-0.1376,-0.6536,-0.1585,-0.4116,-0.0168,-0.0959,4.6902,0.1786,0.2784,0.9986,0.0014,0.0,41395200.0,1.9
352,30000,0.39,0.1139,-0.005,5.7806,755.11,2000.0,0.7337,4.6675,27.1947,0.1798,9.0891,-2.2807,-0.0025,-0.3788,-0.1403,-0.6515,-0.1248,-0.4136,-0.0166,-0.0945,4.6953,0.2244,0.2809,0.9986,0.0014,0.0,41512800.0,1.93
353,30000,0.39,0.1131,-0.0089,5.7543,750.8,2000.0,0.7351,4.6687,27.3551,0.18,9.0835,-2.2869,-0.0024,-0.3817,-0.1401,-0.6441,-0.144,-0.4142,-0.0166,-0.0948,4.6991,0.2097,0.2799,0.9986,0.0014,0.0,41630400.0,1.96
354,30000,0.39,0.1134,-0.0086,5.7472,758.21,2000.0,0.7501,4.6633,27.386,0.1788,9.0766,-2.2664,-0.0026,-0.3853,-0.1423,-0.6448,-0.1383,-0.4137,-0.0166,-0.0954,4.7069,0.2065,0.2846,0.9986,0.0014,0.0,41748000.0,1.92
355,30000,0.39,0.1148,-0.0073,5.7579,759.94,2000.0,0.7368,4.6713,27.7519,0.1805,9.1095,-2.2824,-0.0024,-0.3796,-0.139,-0.6501,-0.1378,-0.414,-0.0165,-0.0946,4.7166,0.174,0.2775,0.9986,0.0014,0.0,41865600.0,1.94
356,30000,0.39,0.1125,-0.0059,5.7508,754.08,2000.0,0.7639,4.6582,27.179,0.1797,9.0513,-2.2658,-0.0026,-0.3908,-0.1445,-0.6427,-0.1369,-0.4153,-0.0165,-0.0947,4.725,0.2254,0.2903,0.9986,0.0014,0.0,41983200.0,1.97
357,30000,0.39,0.1144,-0.0075,5.727,757.26,2000.0,0.6997,4.6798,27.8971,0.1837,9.1522,-2.2979,-0.0022,-0.3688,-0.1338,-0.6376,-0.1609,-0.4158,-0.0168,-0.0958,4.7352,0.1612,0.27,0.9986,0.0014,0.0,42100800.0,1.94
358,30000,0.39,0.1126,-0.0061,5.7007,756.27,2000.0,0.7527,4.6654,27.2342,0.1805,9.0852,-2.2592,-0.0025,-0.3808,-0.1401,-0.6515,-0.1471,-0.4126,-0.0167,-0.0945,4.74,0.2208,0.2829,0.9986,0.0014,0.0,42218400.0,1.91
359,30000,0.39,0.112,-0.0075,5.6737,751.68,2000.0,0.7606,4.6704,27.3811,0.1796,9.0737,-2.2635,-0.0026,-0.3829,-0.1419,-0.6375,-0.1082,-0.4184,-0.0163,-0.0932,4.7476,0.2072,0.2786,0.9986,0.0014,0.0,42336000.0,1.98
360,30000,0.39,0.1102,-0.009,5.6509,754.28,2000.0,0.7533,4.6664,26.3225,0.181,9.076,-2.2629,-0.0025,-0.3814,-0.141,-0.6349,-0.1098,-0.4195,-0.0163,-0.0936,4.7566,0.3033,0.282,0.9986,0.0014,0.0,42453600.0,1.96
361,30000,0.39,0.1096,-0.0079,5.6282,749.19,2000.0,0.7228,4.6745,27.4661,0.1821,9.1421,-2.2743,-0.0023,-0.3724,-0.1388,-0.6427,-0.136,-0.4148,-0.0165,-0.0948,4.7611,0.2006,0.2747,0.9986,0.0014,0.0,42571200.0,1.89
362,30000,0.39,0.1096,-0.0082,5.6097,762.3,2000.0,0.7828,4.6651,27.6884,0.1794,9.077,-2.2296,-0.0027,-0.3855,-0.1438,-0.6422,-0.117,-0.4123,-0.0165,-0.0937,4.7639,0.1793,0.2831,0.9986,0.0014,0.0,42688800.0,1.94
363,30000,0.39,0.1085,-0.0088,5.6052,761.9,2000.0,0.7341,4.6722,27.6528,0.1824,9.1392,-2.2681,-0.0023,-0.3721,-0.1384,-0.6309,-0.1311,-0.4158,-0.0164,-0.0942,4.7706,0.1833,0.2768,0.9986,0.0014,0.0,42806400.0,1.95
364,30000,0.39,0.1085,-0.0082,5.5761,756.34,2000.0,0.7812,4.6652,27.3706,0.1785,9.0644,-2.2302,-0.0028,-0.383,-0.1431,-0.6513,-0.1378,-0.4166,-0.0167,-0.0953,4.7788,0.2076,0.283,0.9986,0.0014,0.0,42924000.0,1.9
365,30000,0.39,0.1091,-0.0065,5.5788,756.19,2000.0,0.7434,4.6751,26.7305,0.1817,9.1143,-2.2522,-0.0025,-0.3774,-0.1403,-0.6373,-0.135,-0.4188,-0.0166,-0.0944,4.7844,0.267,0.2742,0.9986,0.0014,0.0,43041600.0,1.93
366,30000,0.39,0.1076,-0.008,5.5563,759.13,2000.0,0.8024,4.6588,27.3417,0.1784,9.0411,-2.2119,-0.003,-0.3901,-0.1472,-0.6607,-0.1285,-0.4171,-0.0167,-0.094,4.7881,0.2102,0.2887,0.9986,0.0014,0.0,43159200.0,1.9
367,30000,0.39,0.1093,-0.0073,5.5573,767.58,2000.0,0.7549,4.6729,27.8242,0.182,9.1203,-2.242,-0.0026,-0.3725,-0.1382,-0.6435,-0.1083,-0.4177,-0.0164,-0.0929,4.7945,0.168,0.2761,0.9986,0.0014,0.0,43276800.0,1.91
368,30000,0.38,0.1091,-0.0062,5.5415,760.84,2000.0,0.7662,4.6738,27.4534,0.1799,9.1026,-2.2349,-0.0026,-0.3758,-0.1405,-0.6358,-0.1378,-0.4179,-0.0166,-0.0934,4.8035,0.2007,0.2753,0.9986,0.0014,0.0,43394400.0,1.93
369,30000,0.38,0.1104,-0.0086,5.4932,757.12,2000.0,0.7723,4.6735,27.3067,0.1804,9.108,-2.2197,-0.0026,-0.3765,-0.1397,-0.6503,-0.136,-0.4161,-0.0165,-0.0944,4.8075,0.2144,0.2756,0.9986,0.0014,0.0,43512000.0,1.92
370,30000,0.38,0.112,-0.0056,5.4769,764.1,2000.0,0.7744,4.6717,27.4951,0.1817,9.1086,-2.2274,-0.0027,-0.3815,-0.1413,-0.6342,-0.1102,-0.4183,-0.0163,-0.0934,4.8126,0.1973,0.2773,0.9986,0.0014,0.0,43629600.0,1.95
371,30000,0.38,0.1092,-0.0073,5.4215,759.72,2000.0,0.766,4.678,27.425,0.1801,9.126,-2.2191,-0.0026,-0.3769,-0.1396,-0.6418,-0.1128,-0.4148,-0.0164,-0.0937,4.8188,0.2037,0.2717,0.9986,0.0014,0.0,43747200.0,1.96
372,30000,0.38,0.1106,-0.0074,5.4227,766.64,2000.0,0.7482,4.682,27.597,0.182,9.1596,-2.2462,-0.0024,-0.3685,-0.1369,-0.6247,-0.1056,-0.4185,-0.0162,-0.0935,4.8273,0.1884,0.2679,0.9986,0.0014,0.0,43864800.0,1.91
373,30000,0.38,0.1104,-0.0083,5.3903,762.55,2000.0,0.7704,4.6761,27.2679,0.1796,9.1125,-2.2099,-0.0027,-0.3712,-0.1398,-0.6445,-0.1452,-0.4147,-0.0167,-0.0945,4.8315,0.218,0.2733,0.9986,0.0014,0.0,43982400.0,1.95
374,30000,0.38,0.1101,-0.0079,5.3688,760.6,2000.0,0.777,4.6761,27.0496,0.1808,9.1139,-2.2135,-0.0026,-0.3746,-0.1401,-0.6423,-0.1188,-0.4209,-0.0164,-0.0934,4.837,0.238,0.2732,0.9986,0.0014,0.0,44100000.0,1.92
375,30000,0.38,0.1096,-0.0091,5.3461,757.23,2000.0,0.7785,4.6731,27.0821,0.1797,9.1191,-2.2058,-0.0026,-0.377,-0.1409,-0.6409,-0.1203,-0.4165,-0.0163,-0.0937,4.8422,0.2351,0.2759,0.9986,0.0014,0.0,44217600.0,2.05
376,30000,0.38,0.1103,-0.0061,5.329,763.81,2000.0,0.771,4.6757,27.5903,0.1801,9.1466,-2.2088,-0.0026,-0.374,-0.1396,-0.6459,-0.1431,-0.415,-0.0166,-0.0947,4.8492,0.1893,0.2736,0.9986,0.0014,0.0,44335200.0,1.98
377,30000,0.38,0.11,-0.0079,5.2845,767.55,2000.0,0.7886,4.6764,27.9521,0.1794,9.1395,-2.1977,-0.0027,-0.3746,-0.1398,-0.638,-0.1243,-0.4137,-0.0164,-0.0939,4.8523,0.156,0.273,0.9986,0.0014,0.0,44452800.0,1.91
378,30000,0.37,0.1105,-0.0083,5.2485,766.93,2000.0,0.7564,4.6847,27.3606,0.1786,9.154,-2.2148,-0.0025,-0.3671,-0.137,-0.6409,-0.1163,-0.4164,-0.0163,-0.0942,4.8573,0.2099,0.2656,0.9986,0.0014,0.0,44570400.0,1.94
379,30000,0.37,0.1951,-0.0046,5.2224,755.96,1980.66,0.7538,4.6231,26.96,0.1771,9.0382,-2.1766,-0.0024,-0.3628,-0.1355,-0.6294,-0.1053,-0.4108,-0.016,-0.092,4.8627,0.2105,0.2609,0.9985,0.0015,0.0,44688000.0,1.96
380,30000,0.37,0.1135,-0.0078,5.181,752.1,1980.66,0.8112,4.6753,26.5965,0.178,9.0743,-2.1726,-0.0029,-0.3813,-0.1444,-0.6527,-0.1251,-0.4219,-0.0165,-0.0933,4.8675,0.2787,0.274,0.9984,0.0016,0.0,44805600.0,1.93
381,30000,0.37,0.1121,-0.006,5.2017,758.39,2000.0,0.8176,4.6646,27.3765,0.1781,9.1106,-2.1623,-0.0029,-0.3787,-0.142,-0.6609,-0.1193,-0.4148,-0.0164,-0.0943,4.8662,0.208,0.2834,0.9984,0.0016,0.0,44923200.0,1.92
382,30000,0.37,0.1115,-0.0074,5.1814,755.74,2000.0,0.7905,4.6745,27.3888,0.1788,9.1306,-2.1844,-0.0027,-0.3756,-0.1423,-0.647,-0.1413,-0.4189,-0.0166,-0.0946,4.8656,0.2067,0.2748,0.9984,0.0016,0.0,45040800.0,1.95
383,30000,0.37,0.1123,-0.0069,5.154,757.38,2000.0,0.7861,4.6766,27.3085,0.1813,9.1385,-2.1944,-0.0027,-0.3759,-0.1412,-0.6367,-0.1052,-0.424,-0.0163,-0.0927,4.8665,0.2145,0.2728,0.9984,0.0016,0.0,45158400.0,1.94
384,30000,0.37,0.1127,-0.0059,5.1352,765.5,2000.0,0.809,4.6732,27.7686,0.1787,9.1143,-2.1657,-0.003,-0.3782,-0.1441,-0.6571,-0.1481,-0.4177,-0.0168,-0.0942,4.8716,0.172,0.2759,0.9984,0.0016,0.0,45276000.0,1.97
385,30000,0.37,0.1146,-0.0077,5.1292,767.64,2000.0,0.8006,4.6735,27.3162,0.1806,9.1394,-2.1725,-0.0028,-0.3742,-0.142,-0.6391,-0.1185,-0.4191,-0.0164,-0.0938,4.8744,0.2142,0.2756,0.9984,0.0016,0.0,45393600.0,1.93
386,30000,0.37,0.167,-0.0047,5.1268,762.62,1980.56,0.7742,4.582,27.2807,0.1767,8.9683,-2.1291,-0.0026,-0.3613,-0.1379,-0.6365,-0.1175,-0.4113,-0.0161,-0.092,4.8802,0.1626,0.2672,0.9984,0.0016,0.0,45511200.0,1.95
387,30000,0.37,0.1156,-0.0071,5.1013,758.91,1980.56,0.8159,4.6717,27.4444,0.1775,9.1245,-2.1582,-0.0029,-0.3772,-0.1425,-0.6421,-0.1399,-0.4183,-0.0166,-0.0944,4.881,0.2018,0.2772,0.9982,0.0018,0.0,45628800.0,1.9
388,30000,0.37,0.1137,-0.0079,5.097,763.65,2000.0,0.7924,4.6845,27.5469,0.1788,9.1734,-2.1625,-0.0027,-0.3703,-0.1404,-0.6423,-0.1186,-0.4184,-0.0165,-0.0939,4.8817,0.1933,0.2658,0.9982,0.0018,0.0,45746400.0,1.91
389,30000,0.37,0.1134,-0.0072,5.0902,760.68,2000.0,0.757,4.6899,26.7601,0.181,9.2193,-2.1839,-0.0024,-0.359,-0.1342,-0.6407,-0.1089,-0.4209,-0.0163,-0.0936,4.8816,0.2652,0.2609,0.9984,0.0016,0.0,45864000.0,1.91
390,30000,0.37,0.1121,-0.0075,5.0613,753.82,2000.0,0.8284,4.6762,26.9032,0.1803,9.1408,-2.1422,-0.003,-0.3724,-0.1413,-0.6423,-0.1176,-0.4221,-0.0166,-0.0932,4.8854,0.2515,0.2732,0.9984,0.0016,0.0,45981600.0,1.92
391,30000,0.37,0.1124,-0.0066,5.0506,763.34,2000.0,0.8255,4.6711,27.1883,0.1797,9.1118,-2.1572,-0.003,-0.3744,-0.1419,-0.6422,-0.127,-0.4253,-0.0165,-0.0936,4.8897,0.2246,0.2778,0.9984,0.0016,0.0,46099200.0,1.95
392,30000,0.37,0.1145,-0.0065,5.0217,762.6,2000.0,0.823,4.6792,27.2714,0.1806,9.1642,-2.158,-0.0029,-0.3761,-0.1427,-0.6486,-0.1003,-0.4233,-0.0162,-0.0921,4.8962,0.2179,0.2706,0.9984,0.0016,0.0,46216800.0,1.97
393,30000,0.37,0.114,-0.0049,5.0227,765.21,2000.0,0.8343,4.6763,27.5406,0.1784,9.153,-2.1383,-0.003,-0.3757,-0.1423,-0.645,-0.1186,-0.4202,-0.0165,-0.0937,4.9021,0.1934,0.2732,0.9984,0.0016,0.0,46334400.0,1.88
394,30000,0.37,0.1137,-0.0078,4.9992,769.72,2000.0,0.811,4.681,27.4987,0.1807,9.1857,-2.1471,-0.0028,-0.3682,-0.1385,-0.6454,-0.113,-0.4225,-0.0164,-0.0935,4.9106,0.198,0.2689,0.9984,0.0016,0.0,46452000.0,1.91
395,30000,0.37,0.1153,-0.0063,4.9983,759.15,2000.0,0.8251,4.6749,26.8336,0.1778,9.1519,-2.1319,-0.0029,-0.3753,-0.1419,-0.6495,-0.1105,-0.4226,-0.0164,-0.094,4.9213,0.2578,0.2742,0.9984,0.0016,0.0,46569600.0,1.94
396,30000,0.37,0.1161,-0.0074,4.9649,754.5,2000.0,0.8388,4.6792,26.3504,0.1779,9.1158,-2.1295,-0.0031,-0.378,-0.1442,-0.6486,-0.1626,-0.4276,-0.0169,-0.0951,4.93,0.3015,0.2705,0.9984,0.0016,0.0,46687200.0,1.94
397,30000,0.37,0.1164,-0.0072,4.9462,770.44,2000.0,0.8244,4.683,27.248,0.1783,9.1659,-2.1339,-0.003,-0.3731,-0.1408,-0.6533,-0.1349,-0.4233,-0.0166,-0.0941,4.9395,0.2202,0.2671,0.9984,0.0016,0.0,46804800.0,1.92
398,30000,0.37,0.1169,-0.0071,4.9436,766.57,2000.0,0.8502,4.6735,27.3759,0.1786,9.1613,-2.1235,-0.0031,-0.3772,-0.1437,-0.6387,-0.1102,-0.4223,-0.0164,-0.0935,4.9394,0.2081,0.2757,0.9984,0.0016,0.0,46922400.0,1.93
399,30000,0.37,0.1164,-0.0065,4.9294,770.72,2000.0,0.8441,4.68,27.5358,0.1781,9.1761,-2.1228,-0.003,-0.3731,-0.1421,-0.6598,-0.1275,-0.4224,-0.0166,-0.0941,4.9429,0.1938,0.2699,0.9984,0.0016,0.0,47040000.0,1.88
400,30000,0.37,0.1142,-0.008,4.934,775.04,2000.0,0.809,4.6857,28.0321,0.1791,9.213,-2.1369,-0.0027,-0.3687,-0.1391,-0.6502,-0.1389,-0.4218,-0.0165,-0.0948,4.9489,0.1498,0.2647,0.9984,0.0016,0.0,47157600.0,1.92
401,30000,0.36,0.1156,-0.0067,4.9138,768.37,2000.0,0.8341,4.6907,26.9737,0.1791,9.1738,-2.1202,-0.003,-0.3738,-0.1422,-0.6451,-0.13,-0.4262,-0.0166,-0.094,4.9498,0.2456,0.2605,0.9984,0.0016,0.0,47275200.0,1.93
402,30000,0.36,0.1159,-0.0077,4.8692,753.76,2000.0,0.7992,4.6925,26.5916,0.1798,9.2222,-2.146,-0.0027,-0.3633,-0.1369,-0.6432,-0.1224,-0.4266,-0.0165,-0.0938,4.9514,0.2805,0.2587,0.9984,0.0016,0.0,47392800.0,1.94
403,30000,0.36,0.1144,-0.0058,4.8785,749.77,2000.0,0.8452,4.6852,27.1255,0.1788,9.1659,-2.1116,-0.0031,-0.3768,-0.1445,-0.6487,-0.122,-0.427,-0.0166,-0.0941,4.9522,0.2305,0.2653,0.9984,0.0016,0.0,47510400.0,1.93
404,30000,0.36,0.1143,-0.0067,4.8696,757.94,2000.0,0.8741,4.6784,27.3392,0.1761,9.139,-2.0989,-0.0033,-0.3838,-0.1477,-0.6585,-0.1187,-0.426,-0.0165,-0.0943,4.9571,0.2111,0.2714,0.9984,0.0016,0.0,47628000.0,1.93
405,30000,0.36,0.1159,-0.0061,4.8655,767.41,2000.0,0.8385,4.687,27.8028,0.1784,9.1905,-2.1138,-0.003,-0.3715,-0.143,-0.6566,-0.1271,-0.424,-0.0166,-0.0946,4.9594,0.1698,0.2636,0.9984,0.0016,0.0,47745600.0,1.9
406,30000,0.36,0.1165,-0.003,4.8654,768.21,2000.0,0.8606,4.6843,27.6176,0.1777,9.189,-2.1114,-0.0031,-0.3773,-0.1434,-0.6517,-0.1193,-0.4244,-0.0164,-0.0938,4.9623,0.1865,0.266,0.9986,0.0014,0.0,47863200.0,1.89
407,30000,0.36,0.1159,-0.0074,4.8121,757.74,2000.0,0.8425,4.6896,26.9618,0.179,9.1894,-2.1239,-0.003,-0.3738,-0.1421,-0.6464,-0.1028,-0.4299,-0.0163,-0.0932,4.9707,0.2463,0.2614,0.9988,0.0012,0.0,47980800.0,1.95
408,30000,0.36,0.1172,-0.0066,4.801,760.53,2000.0,0.8678,4.6848,27.1206,0.1798,9.1922,-2.1078,-0.0031,-0.3731,-0.1416,-0.6375,-0.1097,-0.4279,-0.0164,-0.0936,4.9756,0.232,0.2655,0.9988,0.0012,0.0,48098400.0,1.94
409,30000,0.36,0.1175,-0.007,4.7798,772.44,2000.0,0.8465,4.687,27.8964,0.1775,9.197,-2.1168,-0.003,-0.3737,-0.1435,-0.653,-0.1307,-0.427,-0.0166,-0.0941,4.9821,0.1617,0.2636,0.9988,0.0012,0.0,48216000.0,1.93
410,30000,0.36,0.1171,-0.0052,4.7617,774.63,2000.0,0.8556,4.6881,27.9171,0.1804,9.2154,-2.1133,-0.003,-0.3679,-0.1423,-0.6433,-0.1161,-0.4276,-0.0165,-0.0932,4.987,0.1596,0.2627,0.9988,0.0012,0.0,48333600.0,1.92
411,30000,0.36,0.116,-0.0082,4.7344,766.36,2000.0,0.8713,4.6935,27.2001,0.1762,9.1778,-2.0975,-0.0032,-0.3733,-0.1445,-0.6469,-0.1144,-0.4318,-0.0166,-0.094,4.9884,0.2244,0.258,0.9988,0.0012,0.0,48451200.0,1.95
412,30000,0.36,0.1162,-0.0074,4.7355,766.38,2000.0,0.8853,4.685,27.2322,0.1793,9.1707,-2.0947,-0.0033,-0.3797,-0.1481,-0.6523,-0.1045,-0.4323,-0.0165,-0.0928,4.9938,0.2211,0.2654,0.999,0.001,0.0,48568800.0,1.93
413,30000,0.36,0.2533,-0.0035,4.7394,768.2,2000.0,0.8849,4.6859,27.2602,0.1787,9.1886,-2.0926,-0.0033,-0.3791,-0.147,-0.6433,-0.1166,-0.4325,-0.0165,-0.0935,4.994,0.2193,0.2646,0.9992,0.0008,0.0,48686400.0,1.94
414,30000,0.36,0.1149,-0.0072,4.7094,766.9,2000.0,0.8956,4.6816,27.2505,0.1775,9.1733,-2.0799,-0.0033,-0.3808,-0.1484,-0.6495,-0.1238,-0.4314,-0.0167,-0.0942,4.9918,0.2191,0.2684,0.9992,0.0008,0.0,48804000.0,1.93
415,30000,0.36,0.1142,-0.0049,4.7158,761.74,2000.0,0.9123,4.6808,27.1401,0.1758,9.1544,-2.0742,-0.0035,-0.3827,-0.1485,-0.6539,-0.1372,-0.4312,-0.0167,-0.0947,4.995,0.2289,0.2692,0.9992,0.0008,0.0,48921600.0,1.98
416,30000,0.36,0.123,-0.0073,4.681,761.2,2000.0,0.8546,4.6926,27.4343,0.1799,9.2218,-2.0983,-0.003,-0.3704,-0.141,-0.6456,-0.1269,-0.4307,-0.0166,-0.0938,5.0018,0.2038,0.2587,0.9992,0.0008,0.0,49039200.0,1.95
417,30000,0.36,0.1133,-0.0063,4.6624,766.25,2000.0,0.8627,4.6914,27.2962,0.179,9.2335,-2.0968,-0.003,-0.3699,-0.1424,-0.6489,-0.1121,-0.4286,-0.0164,-0.0937,5.0131,0.2157,0.2598,0.9992,0.0008,0.0,49156800.0,1.95
418,30000,0.36,0.1129,-0.0075,4.6466,771.62,2000.0,0.8775,4.6954,27.8807,0.1787,9.239,-2.0841,-0.0031,-0.3703,-0.142,-0.6505,-0.1237,-0.4302,-0.0166,-0.0943,5.0178,0.163,0.2562,0.9993,0.0007,0.0,49274400.0,1.93
419,30000,0.36,0.1134,-0.0056,4.6469,761.95,2000.0,0.8751,4.6972,26.8463,0.1782,9.2194,-2.091,-0.0031,-0.3752,-0.1428,-0.6436,-0.1066,-0.4336,-0.0164,-0.0936,5.0237,0.2567,0.2547,0.9994,0.0006,0.0,49392000.0,1.93
420,30000,0.36,0.1142,-0.0083,4.6154,764.39,2000.0,0.8845,4.6928,26.904,0.1796,9.2125,-2.0819,-0.0033,-0.3692,-0.1437,-0.6432,-0.1307,-0.4343,-0.0168,-0.0931,5.0305,0.2517,0.2585,0.9994,0.0006,0.0,49509600.0,1.94
421,30000,0.36,0.1517,-0.0055,4.6205,759.17,1980.71,0.8568,4.6016,27.0379,0.174,9.0562,-2.0397,-0.0031,-0.3639,-0.1406,-0.6406,-0.132,-0.4207,-0.0163,-0.0927,5.0369,0.1856,0.2505,0.9992,0.0008,0.0,49627200.0,1.91
422,30000,0.36,0.1105,-0.0049,4.6062,766.37,1980.71,0.8963,4.6881,27.5136,0.176,9.2102,-2.0673,-0.0033,-0.3751,-0.145,-0.6434,-0.1178,-0.431,-0.0166,-0.0949,5.0402,0.196,0.2628,0.9992,0.0008,0.0,49744800.0,1.92
423,30000,0.36,0.1104,-0.0076,4.5804,775.24,2000.0,0.8718,4.6933,27.7164,0.1784,9.2302,-2.087,-0.0031,-0.3697,-0.1425,-0.6492,-0.136,-0.4326,-0.0167,-0.0947,5.0481,0.1777,0.2581,0.9992,0.0008,0.0,49862400.0,1.93
424,30000,0.35,0.1126,-0.0063,4.5806,770.61,2000.0,0.8642,4.6914,27.1469,0.1774,9.2312,-2.0805,-0.0031,-0.3702,-0.1412,-0.6494,-0.1465,-0.433,-0.0167,-0.0962,5.0555,0.2296,0.2598,0.9992,0.0008,0.0,49980000.0,1.94
425,30000,0.35,0.1128,-0.0072,4.5677,762.05,2000.0,0.8768,4.696,27.0385,0.1784,9.2474,-2.0785,-0.0031,-0.3718,-0.1423,-0.6511,-0.1305,-0.4333,-0.0167,-0.0947,5.0601,0.2399,0.2557,0.9992,0.0008,0.0,50097600.0,1.92
426,30000,0.35,0.1125,-0.0071,4.5378,773.4,2000.0,0.9342,4.6907,27.4919,0.1756,9.1843,-2.0517,-0.0035,-0.3817,-0.1495,-0.6545,-0.1083,-0.4362,-0.0165,-0.0941,5.0633,0.1977,0.2603,0.9992,0.0008,0.0,50215200.0,1.94
427,30000,0.35,0.114,-0.0054,4.5401,773.48,2000.0,0.8661,4.6983,27.3505,0.1787,9.2624,-2.0785,-0.003,-0.3662,-0.1417,-0.6492,-0.1305,-0.4329,-0.0166,-0.0953,5.0674,0.2118,0.2537,0.9992,0.0008,0.0,50332800.0,1.89
428,30000,0.35,0.1631,-0.005,4.5262,763.84,1980.44,0.9051,4.5978,26.9103,0.1728,9.0239,-2.0087,-0.0034,-0.3715,-0.1434,-0.6404,-0.1233,-0.4256,-0.0163,-0.0919,5.0743,0.1953,0.2526,0.9991,0.0009,0.0,50450400.0,1.93
429,30000,0.35,0.1138,-0.0081,4.4894,759.97,1980.44,0.9334,4.6922,27.0219,0.1754,9.1888,-2.0414,-0.0036,-0.3797,-0.1492,-0.659,-0.1176,-0.4375,-0.0167,-0.0954,5.084,0.2404,0.2589,0.999,0.001,0.0,50568000.0,1.92
430,30000,0.35,0.1129,-0.0064,4.4821,770.29,2000.0,0.921,4.6911,27.1653,0.1776,9.2088,-2.0488,-0.0034,-0.374,-0.145,-0.6445,-0.1085,-0.4384,-0.0166,-0.0945,5.0926,0.2274,0.26,0.999,0.001,0.0,50685600.0,2.1
431,30000,0.35,0.1134,-0.0066,4.4389,778.54,2000.0,0.9066,4.6926,27.9773,0.1754,9.2295,-2.0511,-0.0033,-0.3745,-0.1456,-0.6642,-0.1412,-0.4317,-0.0168,-0.096,5.1,0.1542,0.2586,0.999,0.001,0.0,50803200.0,2.02
432,30000,0.35,0.1139,-0.0069,4.4504,769.61,2000.0,0.9103,4.6992,26.9136,0.1763,9.2336,-2.0497,-0.0033,-0.3683,-0.1457,-0.6482,-0.1101,-0.4389,-0.0166,-0.0945,5.1049,0.2509,0.2529,0.9991,0.0009,0.0,50920800.0,1.98
433,30000,0.35,0.1124,-0.0072,4.4229,770.76,2000.0,0.8934,4.7028,27.6658,0.1752,9.2381,-2.0562,-0.0032,-0.3686,-0.1442,-0.6464,-0.1296,-0.4335,-0.0166,-0.0956,5.1126,0.1827,0.2497,0.9992,0.0008,0.0,51038400.0,2.02
434,30000,0.35,0.1119,-0.0076,4.42,775.94,2000.0,0.9153,4.6977,27.8402,0.1746,9.2345,-2.0399,-0.0033,-0.3755,-0.1462,-0.6545,-0.1376,-0.4322,-0.0167,-0.0969,5.1154,0.1666,0.2541,0.9992,0.0008,0.0,51156000.0,1.93
435,30000,0.35,0.1139,-0.0069,4.4128,771.17,2000.0,0.9,4.7002,27.3208,0.1768,9.2524,-2.0542,-0.0033,-0.3695,-0.1452,-0.6537,-0.1396,-0.4366,-0.0168,-0.0954,5.1204,0.2136,0.2519,0.9992,0.0008,0.0,51273600.0,1.92
436,30000,0.35,0.1106,-0.0033,4.4286,761.36,2000.0,0.9464,4.6915,26.808,0.1781,9.2596,-2.0461,-0.0035,-0.3796,-0.1495,-0.6457,-0.0798,-0.4369,-0.0163,-0.0924,5.125,0.2601,0.2597,0.9992,0.0008,0.0,51391200.0,1.95
437,30000,0.35,0.1091,-0.007,4.3788,765.49,2000.0,0.9377,4.6948,26.9847,0.1754,9.2398,-2.0329,-0.0035,-0.3772,-0.1476,-0.6525,-0.1235,-0.4329,-0.0165,-0.0955,5.1287,0.2442,0.2567,0.9992,0.0008,0.0,51508800.0,1.92
438,30000,0.35,0.1102,-0.0071,4.3798,773.78,2000.0,0.9091,4.7055,27.5717,0.177,9.2666,-2.043,-0.0033,-0.3666,-0.1451,-0.6514,-0.1225,-0.4355,-0.0167,-0.0944,5.1378,0.1915,0.2474,0.9992,0.0008,0.0,51626400.0,1.97
439,30000,0.35,0.1604,-0.0058,4.3518,761.44,1980.72,0.9094,4.6318,26.2504,0.172,9.1007,-2.0028,-0.0034,-0.3726,-0.146,-0.6412,-0.1279,-0.4319,-0.0164,-0.0952,5.1449,0.2749,0.2534,0.9991,0.0009,0.0,51744000.0,1.93
440,30000,0.35,0.1118,-0.0053,4.3539,770.58,1980.72,0.9433,4.6972,27.6651,0.1765,9.2393,-2.0289,-0.0035,-0.377,-0.1473,-0.6405,-0.0954,-0.4397,-0.0164,-0.0946,5.1513,0.1825,0.2547,0.999,0.001,0.0,51861600.0,1.95
441,30000,0.35,0.111,-0.0072,4.3292,777.75,2000.0,0.9117,4.7051,27.5061,0.1769,9.2736,-2.0405,-0.0032,-0.3642,-0.1435,-0.6423,-0.1006,-0.4371,-0.0164,-0.0949,5.1541,0.197,0.2476,0.999,0.001,0.0,51979200.0,1.94
442,30000,0.35,0.112,-0.005,4.3344,772.22,2000.0,0.8867,4.716,27.6001,0.1784,9.3206,-2.0498,-0.003,-0.3606,-0.1399,-0.6393,-0.0886,-0.4375,-0.0162,-0.0929,5.156,0.1897,0.2381,0.999,0.001,0.0,52096800.0,1.87
443,30000,0.35,0.1255,-0.0057,4.324,769.66,2000.0,0.9304,4.701,27.0893,0.1772,9.2555,-2.0298,-0.0034,-0.3719,-0.1457,-0.6514,-0.1155,-0.4396,-0.0166,-0.0948,5.1566,0.2349,0.2513,0.999,0.001,0.0,52214400.0,1.92
444,30000,0.35,0.2198,-0.005,4.3167,752.9,1961.08,0.8577,4.416,25.701,0.165,8.7078,-1.9089,-0.0031,-0.3444,-0.1351,-0.6115,-0.1258,-0.4102,-0.0156,-0.0909,5.1549,0.1968,0.2355,0.9989,0.0011,0.0,52332000.0,1.91
445,30000,0.35,0.1171,-0.0072,4.27,744.86,1941.76,0.8629,4.5198,25.9836,0.169,8.915,-1.9581,-0.0029,-0.3494,-0.1369,-0.6281,-0.1328,-0.419,-0.016,-0.0922,5.1554,0.2275,0.2342,0.9984,0.0016,0.0,52449600.0,1.93
446,30000,0.35,0.1154,-0.0084,4.2655,770.55,2000.0,0.9806,4.6957,27.5223,0.1749,9.2381,-2.0047,-0.0037,-0.3766,-0.1481,-0.6411,-0.1036,-0.4386,-0.0165,-0.0946,5.1613,0.1949,0.256,0.9984,0.0016,0.0,52567200.0,1.93
447,30000,0.35,0.1153,-0.0072,4.2598,770.23,2000.0,0.9317,4.7035,27.3821,0.1754,9.2502,-2.0176,-0.0034,-0.3697,-0.1442,-0.6562,-0.1409,-0.4407,-0.0168,-0.0964,5.1649,0.2078,0.249,0.9984,0.0016,0.0,52684800.0,1.91
448,30000,0.34,0.1229,-0.0089,4.2435,774.37,2000.0,0.9314,4.706,27.7598,0.1767,9.294,-2.0238,-0.0034,-0.3733,-0.1444,-0.6527,-0.1212,-0.4395,-0.0166,-0.0953,5.1686,0.1741,0.2469,0.9984,0.0016,0.0,52802400.0,1.95
449,30000,0.34,0.1274,-0.0039,4.2422,766.17,1980.86,0.9652,4.6501,26.9629,0.1736,9.1413,-1.9846,-0.0037,-0.3758,-0.1502,-0.6478,-0.1148,-0.4374,-0.0166,-0.0935,5.1688,0.2193,0.2523,0.9983,0.0017,0.0,52920000.0,1.93
450,30000,0.34,0.1123,-0.0081,4.209,762.77,1980.86,0.9505,4.7025,27.4154,0.1758,9.2237,-2.0098,-0.0036,-0.3718,-0.1468,-0.6562,-0.1422,-0.445,-0.0169,-0.0956,5.1679,0.2049,0.2501,0.9982,0.0018,0.0,53037600.0,1.91
451,30000,0.34,0.1128,-0.0072,4.2311,763.5,2000.0,0.9565,4.7032,26.9961,0.1738,9.2629,-1.9999,-0.0035,-0.3682,-0.1456,-0.6623,-0.131,-0.4377,-0.0167,-0.0962,5.1706,0.2438,0.2494,0.9982,0.0018,0.0,53155200.0,1.92
452,30000,0.34,0.1231,-0.0073,4.2283,768.81,2000.0,0.987,4.6957,27.1785,0.1735,9.2419,-1.9845,-0.0039,-0.3784,-0.151,-0.6543,-0.1224,-0.4405,-0.0167,-0.0952,5.1744,0.2263,0.2559,0.9982,0.0018,0.0,53272800.0,1.96
453,30000,0.34,0.1446,-0.004,4.2063,767.4,1980.62,0.9382,4.6607,27.177,0.1732,9.2032,-1.9893,-0.0034,-0.3692,-0.1424,-0.6476,-0.1007,-0.4327,-0.0162,-0.0941,5.1752,0.1999,0.2424,0.9981,0.0019,0.0,53390400.0,1.96
454,30000,0.34,0.1129,-0.0059,4.1878,766.31,1980.62,0.9436,4.7082,27.6036,0.1752,9.2812,-2.0107,-0.0035,-0.3726,-0.1469,-0.6518,-0.1378,-0.44,-0.0168,-0.0953,5.1765,0.1882,0.245,0.998,0.002,0.0,53508000.0,1.95
455,30000,0.34,0.1127,-0.0062,4.1764,770.77,2000.0,0.9661,4.7054,27.3471,0.1752,9.2746,-1.9976,-0.0035,-0.3716,-0.148,-0.6417,-0.1005,-0.4415,-0.0165,-0.0943,5.1834,0.2118,0.2474,0.998,0.002,0.0,53625600.0,1.91
456,30000,0.34,0.1145,-0.005,4.177,781.7,2000.0,0.9782,4.7073,28.3936,0.1743,9.2858,-1.9888,-0.0036,-0.3768,-0.1488,-0.6554,-0.1127,-0.4378,-0.0166,-0.0952,5.1851,0.1168,0.2457,0.998,0.002,0.0,53743200.0,1.96
457,30000,0.34,0.1137,-0.0061,4.1649,786.09,2000.0,1.0205,4.6955,27.5737,0.1734,9.2367,-1.9768,-0.0041,-0.3855,-0.1547,-0.6615,-0.1064,-0.4438,-0.0165,-0.0945,5.189,0.1905,0.256,0.998,0.002,0.0,53860800.0,1.93
458,30000,0.34,0.1135,-0.0055,4.1509,780.63,2000.0,0.9346,4.7095,27.9979,0.1759,9.3172,-2.0081,-0.0033,-0.3632,-0.1434,-0.639,-0.1094,-0.4368,-0.0164,-0.0948,5.1889,0.153,0.2437,0.998,0.002,0.0,53978400.0,1.93
459,30000,0.34,0.1114,-0.0039,4.126,773.08,2000.0,0.9201,4.7116,26.9854,0.1761,9.3298,-2.0131,-0.0032,-0.3643,-0.1441,-0.6628,-0.1182,-0.44,-0.0165,-0.095,5.1921,0.245,0.242,0.998,0.002,0.0,54096000.0,1.92
460,30000,0.34,0.1093,-0.0085,4.106,767.83,2000.0,0.9864,4.7016,27.0909,0.1737,9.2616,-1.9893,-0.0037,-0.3774,-0.1506,-0.6564,-0.1225,-0.4416,-0.0165,-0.0959,5.1975,0.2344,0.2507,0.998,0.002,0.0,54213600.0,1.95
461,30000,0.34,0.1098,-0.0065,4.0972,776.21,2000.0,0.9333,4.7186,27.4497,0.175,9.3247,-1.9948,-0.0032,-0.3606,-0.1407,-0.6476,-0.1108,-0.4399,-0.0164,-0.0945,5.2019,0.2035,0.2358,0.998,0.002,0.0,54331200.0,1.89
462,30000,0.34,0.1109,-0.0065,4.0887,769.35,2000.0,0.9992,4.7043,27.3098,0.1741,9.2653,-1.9754,-0.0038,-0.3744,-0.1501,-0.6463,-0.0999,-0.4453,-0.0164,-0.0942,5.2044,0.2143,0.2483,0.998,0.002,0.0,54448800.0,1.96
463,30000,0.34,0.1108,-0.0072,4.0802,779.32,2000.0,0.9659,4.7101,27.7952,0.1745,9.3009,-1.983,-0.0035,-0.3655,-0.146,-0.6405,-0.1182,-0.4426,-0.0166,-0.0942,5.2055,0.1715,0.2433,0.9981,0.0019,0.0,54566400.0,1.91
464,30000,0.34,0.1102,-0.006,4.0584,776.58,2000.0,0.9618,4.7063,27.6267,0.1758,9.3003,-1.9888,-0.0034,-0.3684,-0.146,-0.6471,-0.1235,-0.4433,-0.0166,-0.0951,5.2084,0.1866,0.2465,0.9982,0.0018,0.0,54684000.0,1.94
465,30000,0.34,0.1139,-0.0066,4.0585,769.87,2000.0,0.9545,4.7067,26.6649,0.1757,9.2811,-1.9885,-0.0035,-0.3703,-0.1479,-0.6571,-0.1143,-0.4464,-0.0166,-0.095,5.217,0.2738,0.2463,0.9982,0.0018,0.0,54801600.0,1.91
466,30000,0.34,0.111,-0.0075,4.036,770.14,2000.0,0.9968,4.703,27.4942,0.1746,9.2847,-1.9703,-0.0037,-0.377,-0.1516,-0.6489,-0.1344,-0.444,-0.0168,-0.0957,5.2214,0.1975,0.2496,0.9982,0.0018,0.0,54919200.0,1.92
467,30000,0.34,0.1102,-0.0053,4.0343,769.31,2000.0,0.9664,4.7128,26.9601,0.1762,9.3194,-1.9826,-0.0035,-0.3681,-0.1484,-0.6487,-0.1001,-0.4451,-0.0164,-0.0935,5.2293,0.2469,0.2409,0.9982,0.0018,0.0,55036800.0,1.94
468,30000,0.34,0.1082,-0.0064,4.0351,771.7,2000.0,0.9978,4.7061,27.8142,0.1744,9.2987,-1.9623,-0.0037,-0.3697,-0.1487,-0.6437,-0.1048,-0.4433,-0.0165,-0.0944,5.2335,0.1694,0.2467,0.9982,0.0018,0.0,55154400.0,1.93
469,30000,0.34,0.1083,-0.0063,4.0301,773.83,2000.0,1.0267,4.7007,27.2988,0.1729,9.2346,-1.9586,-0.0041,-0.3806,-0.1538,-0.6467,-0.1528,-0.446,-0.0169,-0.0962,5.2383,0.2152,0.2516,0.9982,0.0018,0.0,55272000.0,1.95
470,30000,0.34,0.1075,-0.0054,4.0201,771.89,2000.0,0.9544,4.718,27.362,0.175,9.3467,-1.9762,-0.0034,-0.3651,-0.1471,-0.6459,-0.0979,-0.4391,-0.0163,-0.0948,5.2374,0.2115,0.2363,0.9983,0.0017,0.0,55389600.0,1.92
471,30000,0.34,0.1078,-0.0079,3.9825,773.21,2000.0,0.941,4.7233,26.9532,0.1739,9.3429,-1.9781,-0.0033,-0.36,-0.1436,-0.6641,-0.1256,-0.4416,-0.0166,-0.0954,5.2387,0.2488,0.2316,0.9984,0.0016,0.0,55507200.0,1.99
472,30000,0.34,0.1096,-0.0053,3.9774,771.79,2000.0,0.9847,4.712,27.0983,0.1745,9.3016,-1.9708,-0.0037,-0.3686,-0.15,-0.6467,-0.1055,-0.4465,-0.0165,-0.0944,5.2395,0.2341,0.2416,0.9984,0.0016,0.0,55624800.0,1.91
473,30000,0.34,0.1097,-0.0051,3.9601,776.23,2000.0,0.9749,4.7136,27.7503,0.175,9.3148,-1.9671,-0.0035,-0.3672,-0.1471,-0.6589,-0.1307,-0.444,-0.0167,-0.0956,5.2421,0.1755,0.2403,0.9984,0.0016,0.0,55742400.0,1.92
474,30000,0.34,0.1095,-0.0075,3.9272,784.1,2000.0,0.9916,4.7114,27.8796,0.1766,9.3338,-1.9733,-0.0036,-0.369,-0.1496,-0.64,-0.0909,-0.4448,-0.0163,-0.093,5.25,0.1632,0.2421,0.9984,0.0016,0.0,55860000.0,1.95
475,30000,0.34,0.111,-0.0056,3.9142,782.38,2000.0,0.9864,4.7123,27.8545,0.1757,9.323,-1.9615,-0.0036,-0.3673,-0.1495,-0.6543,-0.1117,-0.445,-0.0166,-0.0946,5.2547,0.1657,0.2414,0.9984,0.0016,0.0,55977600.0,1.95
