rahulrajes/HRL_SunLabs/rigid_spine_log_analysis/outputs/data_SQUAD.csv
iteration,action_noise_std,value_function_loss,surrogate_loss,entropy_loss,mean_reward,mean_episode_length,rew_air_time,rew_base_angular_vel,rew_base_linear_vel,rew_foot_clearance,rew_gait,rew_action_smoothness,rew_air_time_variance,rew_base_motion,rew_base_orientation,rew_foot_slip,rew_joint_acc,rew_joint_pos,rew_joint_torques,rew_joint_vel,terrain_level,error_vel_xy,error_vel_yaw,term_timeout,term_body_contact,term_out_of_bounds,total_timesteps
0,1.0,1.5217,0.1046,21.2765,2.3,15.24,0.0086,0.029,0.0879,0.0002,0.0347,-0.0332,-0.0,-0.0129,-0.0011,-0.0003,-0.0032,-0.0035,-0.0001,-0.0017,4.3831,0.0108,0.0015,0.0066,0.0003,0.0,117600.0
1,1.0,0.785,0.0017,21.2763,5.52,46.25,0.0232,0.0798,0.2524,0.0023,0.097,-0.0981,-0.0001,-0.0592,-0.0149,-0.009,-0.0067,-0.0092,-0.0004,-0.0037,3.9798,0.0355,0.0097,0.017,0.4527,0.0,235200.0
2,1.0,0.6616,-0.0031,21.2693,4.55,38.08,0.0253,0.0947,0.3071,0.0034,0.1188,-0.1173,-0.0001,-0.0623,-0.0202,-0.012,-0.007,-0.0103,-0.0004,-0.0037,3.5037,0.0423,0.0127,0.0097,0.9108,0.0,352800.0
3,1.0,0.8736,-0.004,21.2501,5.36,40.92,0.0258,0.093,0.2909,0.0033,0.1181,-0.1149,-0.0001,-0.0626,-0.0193,-0.0116,-0.0061,-0.0088,-0.0004,-0.0033,2.9578,0.0437,0.0122,0.0028,0.9739,0.0,470400.0
4,1.0,0.7073,-0.0018,21.2489,4.92,40.18,0.0241,0.0848,0.262,0.0026,0.1032,-0.1035,-0.0001,-0.0628,-0.0157,-0.0099,-0.0057,-0.0079,-0.0004,-0.003,2.5413,0.0397,0.0102,0.0007,0.9895,0.0,588000.0
5,1.0,0.5207,0.0,21.2241,4.96,36.5,0.0245,0.087,0.2752,0.0028,0.1062,-0.1061,-0.0001,-0.0631,-0.0165,-0.0104,-0.0057,-0.0081,-0.0004,-0.0031,2.1556,0.0395,0.0105,0.0,0.996,0.0,705600.0
6,0.99,0.5006,-0.0028,21.1941,5.07,39.3,0.0245,0.089,0.2746,0.0029,0.11,-0.1086,-0.0001,-0.0628,-0.017,-0.0108,-0.006,-0.0084,-0.0004,-0.0031,1.7714,0.0422,0.0108,0.0,0.9986,0.0,823200.0
7,0.99,0.448,-0.0015,21.1478,4.81,39.51,0.0245,0.0861,0.2669,0.0027,0.1068,-0.1049,-0.0001,-0.0629,-0.0162,-0.0103,-0.0057,-0.0077,-0.0004,-0.003,1.4474,0.0401,0.0105,0.0,0.9997,0.0,940800.0
8,0.99,0.4343,-0.0026,21.1113,5.45,39.61,0.0241,0.0857,0.2667,0.0026,0.104,-0.1036,-0.0001,-0.0631,-0.0158,-0.0101,-0.0057,-0.0079,-0.0004,-0.003,1.1643,0.0396,0.0101,0.0,1.0,0.0,1058400.0
9,0.99,0.437,-0.0026,21.0861,4.78,37.68,0.0248,0.087,0.2711,0.0027,0.1075,-0.1052,-0.0001,-0.0629,-0.0163,-0.0104,-0.0056,-0.0079,-0.0004,-0.003,0.9072,0.0402,0.0105,0.0,1.0,0.0,1176000.0
10,0.98,0.4209,-0.0036,21.0293,5.49,42.25,0.0244,0.0868,0.2733,0.0027,0.1056,-0.1046,-0.0001,-0.063,-0.0165,-0.0103,-0.0057,-0.0082,-0.0004,-0.003,0.6864,0.0399,0.0106,0.0,1.0,0.0,1293600.0
11,0.98,0.4576,-0.002,20.9853,5.31,39.88,0.0246,0.0867,0.2735,0.0027,0.106,-0.1041,-0.0001,-0.063,-0.0163,-0.0102,-0.0056,-0.008,-0.0004,-0.003,0.5023,0.0397,0.0105,0.0,1.0,0.0,1411200.0
12,0.98,0.4591,-0.0027,20.9276,5.5,41.62,0.0251,0.0882,0.2771,0.0028,0.1087,-0.1053,-0.0001,-0.063,-0.0168,-0.0105,-0.006,-0.008,-0.0004,-0.0031,0.3536,0.0404,0.0106,0.0,1.0,0.0,1528800.0
13,0.97,0.452,-0.0072,20.8748,5.64,43.75,0.0253,0.0877,0.2721,0.0027,0.1093,-0.1045,-0.0001,-0.0629,-0.0168,-0.0103,-0.0057,-0.0077,-0.0004,-0.0031,0.2397,0.0407,0.0107,0.0,1.0,0.0,1646400.0
14,0.97,0.4806,-0.0061,20.8412,5.23,41.22,0.0254,0.0886,0.2758,0.0028,0.1097,-0.1055,-0.0001,-0.063,-0.0169,-0.0105,-0.0058,-0.008,-0.0004,-0.0031,0.1581,0.0411,0.0109,0.0,1.0,0.0,1764000.0
15,0.97,0.4816,-0.0063,20.7913,5.17,41.88,0.0252,0.0893,0.2805,0.0028,0.1101,-0.1059,-0.0001,-0.0629,-0.0173,-0.0107,-0.0058,-0.0082,-0.0004,-0.0031,0.1026,0.041,0.0109,0.0,1.0,0.0,1881600.0
16,0.96,0.4817,-0.0063,20.7298,5.37,40.59,0.0255,0.0903,0.2803,0.0029,0.112,-0.1065,-0.0001,-0.0628,-0.0179,-0.0108,-0.006,-0.0082,-0.0004,-0.0031,0.0675,0.042,0.0111,0.0,1.0,0.0,1999200.0
17,0.96,0.4906,-0.006,20.6741,5.68,40.79,0.0252,0.09,0.2818,0.0028,0.1113,-0.1055,-0.0001,-0.0627,-0.0177,-0.0107,-0.0059,-0.0083,-0.0004,-0.0031,0.0433,0.0414,0.011,0.0,1.0,0.0,2116800.0
18,0.96,0.5112,-0.0076,20.6269,5.67,42.94,0.0253,0.0906,0.2829,0.0029,0.1124,-0.1059,-0.0001,-0.0626,-0.0176,-0.0108,-0.0058,-0.0083,-0.0004,-0.0031,0.0276,0.042,0.0111,0.0,1.0,0.0,2234400.0
19,0.95,0.5276,-0.0068,20.5811,5.51,41.47,0.025,0.0918,0.2875,0.003,0.1129,-0.1071,-0.0001,-0.0628,-0.0182,-0.011,-0.0057,-0.0087,-0.0004,-0.0031,0.0168,0.0425,0.0114,0.0,1.0,0.0,2352000.0
20,0.95,0.5143,-0.0073,20.5358,5.67,42.85,0.0261,0.0915,0.2818,0.0029,0.1154,-0.1063,-0.0001,-0.0627,-0.0182,-0.011,-0.006,-0.0081,-0.0004,-0.0031,0.0117,0.0431,0.0113,0.0,1.0,0.0,2469600.0
21,0.95,0.5242,-0.0065,20.4662,5.06,41.54,0.026,0.0909,0.2855,0.0029,0.1125,-0.1054,-0.0001,-0.0627,-0.018,-0.0107,-0.0057,-0.0083,-0.0004,-0.0031,0.0071,0.0419,0.0113,0.0,1.0,0.0,2587200.0
22,0.95,0.5124,-0.009,20.4222,5.82,43.06,0.026,0.0925,0.2905,0.003,0.1148,-0.1071,-0.0001,-0.0629,-0.0182,-0.011,-0.006,-0.0085,-0.0004,-0.0031,0.0045,0.0425,0.0115,0.0,1.0,0.0,2704800.0
23,0.94,0.5443,-0.0079,20.3865,5.33,41.34,0.026,0.0932,0.292,0.003,0.1165,-0.1073,-0.0001,-0.0629,-0.0185,-0.0112,-0.0058,-0.0086,-0.0004,-0.0032,0.0027,0.0432,0.0116,0.0,1.0,0.0,2822400.0
24,0.94,0.5357,-0.0103,20.3341,5.59,40.76,0.0258,0.0941,0.294,0.0031,0.1165,-0.1082,-0.0001,-0.0631,-0.0187,-0.0113,-0.0058,-0.0089,-0.0004,-0.0032,0.0011,0.0438,0.0118,0.0,1.0,0.0,2940000.0
25,0.94,0.5864,-0.0082,20.2949,5.21,41.94,0.0258,0.0942,0.2977,0.0031,0.1161,-0.1078,-0.0001,-0.0627,-0.0188,-0.0113,-0.0058,-0.009,-0.0004,-0.0032,0.0004,0.0432,0.0118,0.0,1.0,0.0,3057600.0
26,0.93,0.58,-0.0096,20.2393,5.67,43.83,0.0261,0.0945,0.297,0.0031,0.1171,-0.108,-0.0001,-0.0629,-0.019,-0.0114,-0.006,-0.0089,-0.0004,-0.0032,0.0002,0.0436,0.0118,0.0,1.0,0.0,3175200.0
27,0.93,0.5705,-0.0102,20.2056,5.25,43.11,0.0274,0.0961,0.2964,0.0032,0.1229,-0.1097,-0.0001,-0.0629,-0.0197,-0.0116,-0.0059,-0.0085,-0.0004,-0.0032,0.0002,0.0453,0.0121,0.0,1.0,0.0,3292800.0
28,0.93,0.581,-0.0103,20.1514,5.61,42.72,0.0268,0.0964,0.3053,0.0033,0.1213,-0.1097,-0.0001,-0.0628,-0.0197,-0.0116,-0.0059,-0.0089,-0.0004,-0.0032,0.0001,0.044,0.0121,0.0,1.0,0.0,3410400.0
29,0.93,0.5896,-0.01,20.1128,6.11,45.46,0.0273,0.0979,0.3054,0.0034,0.1247,-0.111,-0.0001,-0.063,-0.0197,-0.0118,-0.006,-0.0088,-0.0004,-0.0033,0.0,0.0455,0.0122,0.0,1.0,0.0,3528000.0
30,0.92,0.6201,-0.0102,20.0843,6.16,45.49,0.0269,0.098,0.3085,0.0033,0.1234,-0.1111,-0.0001,-0.063,-0.0203,-0.0118,-0.0059,-0.0092,-0.0004,-0.0033,0.0,0.0454,0.0124,0.0,1.0,0.0,3645600.0
31,0.92,0.6261,-0.0094,20.0481,5.48,42.95,0.0275,0.0994,0.3117,0.0035,0.1273,-0.1123,-0.0001,-0.063,-0.0204,-0.012,-0.0061,-0.009,-0.0004,-0.0033,0.0,0.0461,0.0126,0.0,1.0,0.0,3763200.0
32,0.92,0.6403,-0.0111,19.9611,6.44,45.86,0.0275,0.1004,0.3217,0.0035,0.1278,-0.1131,-0.0001,-0.0631,-0.0209,-0.0121,-0.0062,-0.0094,-0.0004,-0.0033,0.0,0.0451,0.0128,0.0,1.0,0.0,3880800.0
33,0.91,0.6484,-0.0116,19.9184,7.0,47.72,0.0276,0.1005,0.3197,0.0035,0.1286,-0.113,-0.0001,-0.063,-0.0209,-0.0121,-0.0062,-0.0093,-0.0004,-0.0033,0.0,0.046,0.013,0.0,1.0,0.0,3998400.0
34,0.91,0.677,-0.0106,19.8801,6.55,48.77,0.028,0.1003,0.3115,0.0035,0.1279,-0.1122,-0.0001,-0.0628,-0.0207,-0.012,-0.0059,-0.0092,-0.0004,-0.0033,0.0,0.047,0.013,0.0,1.0,0.0,4116000.0
35,0.91,0.663,-0.0104,19.8246,7.19,48.55,0.0285,0.1028,0.3207,0.0037,0.1333,-0.1148,-0.0001,-0.0633,-0.0216,-0.0125,-0.0064,-0.0094,-0.0004,-0.0034,0.0,0.0483,0.0135,0.0,1.0,0.0,4233600.0
36,0.9,0.6919,-0.0123,19.7652,6.81,47.24,0.0283,0.1028,0.3229,0.0037,0.1319,-0.1144,-0.0001,-0.0634,-0.0214,-0.0125,-0.0059,-0.0096,-0.0004,-0.0034,0.0,0.0479,0.0134,0.0,1.0,0.0,4351200.0
37,0.9,0.6749,-0.0119,19.7251,6.65,46.13,0.0281,0.1047,0.3319,0.0038,0.1341,-0.1161,-0.0001,-0.0634,-0.0222,-0.0127,-0.0062,-0.0099,-0.0004,-0.0034,0.0,0.0481,0.0135,0.0,1.0,0.0,4468800.0
38,0.9,0.7276,-0.0114,19.675,7.31,49.47,0.0285,0.1045,0.3302,0.0037,0.1338,-0.1151,-0.0001,-0.0632,-0.0218,-0.0125,-0.006,-0.0097,-0.0004,-0.0034,0.0,0.0478,0.0133,0.0,1.0,0.0,4586400.0
39,0.9,0.7293,-0.0124,19.6163,7.56,50.48,0.0281,0.1058,0.3416,0.0038,0.1354,-0.1168,-0.0001,-0.0635,-0.0225,-0.0128,-0.0063,-0.0101,-0.0004,-0.0034,0.0,0.0478,0.0139,0.0,1.0,0.0,4704000.0
40,0.89,0.7837,-0.0132,19.5779,7.55,51.19,0.0288,0.1081,0.3431,0.004,0.1393,-0.119,-0.0001,-0.0638,-0.0228,-0.0131,-0.0063,-0.0102,-0.0004,-0.0035,0.0,0.0497,0.0143,0.0,1.0,0.0,4821600.0
41,0.89,0.792,-0.012,19.5238,6.65,47.28,0.029,0.1075,0.3388,0.0039,0.1389,-0.1178,-0.0001,-0.0633,-0.0225,-0.0129,-0.0064,-0.01,-0.0004,-0.0035,0.0,0.0497,0.0139,0.0,1.0,0.0,4939200.0
42,0.89,0.811,-0.0119,19.4734,7.51,52.23,0.0297,0.1105,0.3471,0.0041,0.144,-0.1208,-0.0001,-0.064,-0.0231,-0.0134,-0.0066,-0.0102,-0.0005,-0.0035,0.0,0.051,0.0142,0.0,1.0,0.0,5056800.0
43,0.88,0.8236,-0.0123,19.3789,7.26,51.33,0.03,0.1131,0.3578,0.0043,0.1487,-0.1235,-0.0001,-0.0643,-0.0237,-0.0138,-0.0067,-0.0105,-0.0005,-0.0036,0.0,0.0523,0.0149,0.0,1.0,0.0,5174400.0
44,0.88,0.8645,-0.0054,19.3645,6.98,53.6,0.0298,0.1139,0.3589,0.0043,0.1496,-0.1239,-0.0001,-0.0642,-0.0239,-0.0139,-0.0068,-0.0106,-0.0005,-0.0036,0.0,0.053,0.0148,0.0,1.0,0.0,5292000.0
45,0.87,0.8964,-0.0127,19.2413,8.64,56.9,0.0294,0.1136,0.3661,0.0043,0.1477,-0.123,-0.0001,-0.064,-0.0239,-0.0138,-0.0068,-0.0109,-0.0005,-0.0036,0.0,0.0511,0.0147,0.0,1.0,0.0,5409600.0
46,0.87,0.8621,-0.0122,19.1941,8.08,53.5,0.0297,0.1153,0.3732,0.0044,0.1498,-0.1244,-0.0001,-0.0643,-0.0245,-0.014,-0.007,-0.0111,-0.0005,-0.0036,0.0,0.0518,0.0151,0.0,1.0,0.0,5527200.0
47,0.87,0.8822,-0.0118,19.134,7.89,52.34,0.0303,0.1172,0.382,0.0045,0.1526,-0.1259,-0.0001,-0.0643,-0.0249,-0.0143,-0.0068,-0.0113,-0.0005,-0.0037,0.0,0.0521,0.0155,0.0,1.0,0.0,5644800.0
48,0.86,0.9015,-0.0102,19.0703,8.21,55.03,0.0306,0.1173,0.3749,0.0045,0.1526,-0.1252,-0.0001,-0.0642,-0.0251,-0.0141,-0.0066,-0.0112,-0.0005,-0.0036,0.0,0.0534,0.0152,0.0,1.0,0.0,5762400.0
49,0.86,0.9456,-0.0104,19.001,8.34,54.77,0.0308,0.1188,0.3807,0.0046,0.1571,-0.1266,-0.0001,-0.0644,-0.0253,-0.0145,-0.0068,-0.0113,-0.0005,-0.0037,0.0,0.0541,0.0155,0.0,1.0,0.0,5880000.0
50,0.86,0.882,-0.0133,18.9281,8.45,58.21,0.0304,0.1175,0.3705,0.0045,0.1546,-0.1247,-0.0001,-0.0641,-0.0249,-0.0142,-0.0065,-0.0112,-0.0005,-0.0036,0.0,0.0541,0.0153,0.0,1.0,0.0,5997600.0
51,0.85,0.9042,-0.0094,18.8862,8.74,59.13,0.031,0.1195,0.3803,0.0047,0.1582,-0.1264,-0.0001,-0.0645,-0.0255,-0.0146,-0.0067,-0.0113,-0.0005,-0.0037,0.0,0.0549,0.0156,0.0,1.0,0.0,6115200.0
52,0.85,0.924,-0.006,18.82,8.07,58.58,0.0315,0.1219,0.3851,0.0048,0.1618,-0.1283,-0.0001,-0.0647,-0.0259,-0.0148,-0.0071,-0.0116,-0.0005,-0.0037,0.0,0.0565,0.016,0.0,1.0,0.0,6232800.0
53,0.85,0.9636,-0.009,18.756,8.07,54.52,0.031,0.1242,0.3972,0.0049,0.1644,-0.1303,-0.0001,-0.0647,-0.0261,-0.0152,-0.007,-0.0121,-0.0005,-0.0038,0.0,0.0565,0.0163,0.0,1.0,0.0,6350400.0
54,0.84,0.95,-0.0108,18.685,7.22,54.01,0.0319,0.1248,0.3934,0.0049,0.1661,-0.1303,-0.0001,-0.0651,-0.0265,-0.0154,-0.0072,-0.0118,-0.0005,-0.0038,0.0,0.0573,0.0161,0.0,1.0,0.0,6468000.0
55,0.84,0.9928,-0.0066,18.6521,7.76,55.32,0.0318,0.1256,0.4101,0.005,0.1663,-0.131,-0.0001,-0.0651,-0.0264,-0.0153,-0.007,-0.0122,-0.0005,-0.0038,0.0,0.0561,0.0165,0.0,1.0,0.0,6585600.0
56,0.84,1.0495,-0.0086,18.558,9.44,62.78,0.0328,0.1271,0.4044,0.0052,0.1727,-0.1321,-0.0001,-0.0652,-0.0267,-0.0155,-0.0071,-0.0118,-0.0005,-0.0038,0.0,0.0583,0.0168,0.0,1.0,0.0,6703200.0
57,0.83,0.9938,-0.0084,18.5099,9.35,61.89,0.0331,0.1298,0.4068,0.0053,0.1775,-0.1344,-0.0001,-0.0657,-0.027,-0.016,-0.007,-0.0121,-0.0005,-0.0038,0.0,0.0608,0.0173,0.0,1.0,0.0,6820800.0
58,0.83,1.0593,-0.0092,18.4486,8.71,58.22,0.0326,0.1295,0.4208,0.0053,0.1736,-0.1336,-0.0001,-0.0657,-0.0272,-0.0159,-0.0071,-0.0127,-0.0005,-0.0039,0.0,0.0583,0.0173,0.0,1.0,0.0,6938400.0
59,0.83,1.1004,-0.0072,18.408,9.48,62.08,0.0326,0.1309,0.421,0.0053,0.175,-0.1344,-0.0001,-0.0656,-0.0278,-0.0162,-0.0071,-0.0129,-0.0005,-0.0039,0.0,0.0595,0.0171,0.0,1.0,0.0,7056000.0
60,0.82,1.1177,-0.0127,18.3299,8.57,59.54,0.034,0.1373,0.4475,0.0057,0.1863,-0.1409,-0.0001,-0.0668,-0.0287,-0.017,-0.0077,-0.0136,-0.0006,-0.004,0.0,0.0618,0.0184,0.0,1.0,0.0,7173600.0
61,0.82,1.1203,-0.0079,18.3099,10.37,67.01,0.0337,0.1368,0.4514,0.0057,0.1862,-0.1398,-0.0001,-0.0666,-0.0284,-0.017,-0.0075,-0.0134,-0.0005,-0.004,0.0,0.0599,0.018,0.0,1.0,0.0,7291200.0
62,0.82,1.1708,-0.0057,18.2368,11.15,69.15,0.0349,0.1404,0.4534,0.0059,0.1921,-0.1433,-0.0001,-0.0673,-0.029,-0.0174,-0.0074,-0.0138,-0.0006,-0.0041,0.0,0.0634,0.0188,0.0,1.0,0.0,7408800.0
63,0.81,1.2316,-0.0088,18.1524,10.39,70.47,0.035,0.1436,0.4661,0.0061,0.1972,-0.146,-0.0001,-0.0679,-0.0295,-0.018,-0.0076,-0.0142,-0.0006,-0.0041,0.0,0.065,0.0193,0.0,1.0,0.0,7526400.0
64,0.81,1.2542,-0.0089,18.0966,9.2,60.85,0.0349,0.1442,0.4778,0.0061,0.196,-0.1461,-0.0001,-0.0679,-0.0299,-0.0179,-0.0075,-0.0146,-0.0006,-0.0042,0.0,0.0636,0.0193,0.0,1.0,0.0,7644000.0
65,0.81,1.3056,-0.0078,18.0196,11.51,70.36,0.0365,0.1481,0.4748,0.0064,0.2064,-0.1492,-0.0002,-0.0684,-0.0302,-0.0186,-0.0078,-0.0142,-0.0006,-0.0042,0.0,0.0674,0.0196,0.0,1.0,0.0,7761600.0
66,0.8,1.2746,-0.0093,17.956,10.13,65.53,0.0359,0.148,0.489,0.0063,0.204,-0.1489,-0.0001,-0.0684,-0.0306,-0.0184,-0.0079,-0.0149,-0.0006,-0.0042,0.0,0.065,0.0199,0.0,1.0,0.0,7879200.0
67,0.8,1.3721,-0.0063,17.881,12.49,74.81,0.0369,0.1522,0.5055,0.0066,0.2096,-0.1523,-0.0002,-0.0693,-0.0319,-0.0192,-0.0079,-0.0152,-0.0006,-0.0043,0.0,0.0663,0.0203,0.0,1.0,0.0,7996800.0
68,0.8,1.3408,-0.0071,17.8371,10.22,65.31,0.0368,0.1526,0.5057,0.0066,0.2093,-0.1526,-0.0002,-0.0694,-0.0313,-0.0192,-0.0079,-0.0156,-0.0006,-0.0043,0.0,0.0661,0.0206,0.0,1.0,0.0,8114400.0
69,0.79,1.437,-0.0021,17.7626,11.76,76.83,0.0371,0.1557,0.502,0.0068,0.2112,-0.1548,-0.0002,-0.0696,-0.0317,-0.0196,-0.008,-0.0163,-0.0006,-0.0044,0.0,0.0712,0.0209,0.0,1.0,0.0,8232000.0
70,0.79,1.4826,-0.0046,17.7235,12.19,74.94,0.0387,0.1617,0.5269,0.0071,0.2183,-0.1605,-0.0002,-0.0707,-0.034,-0.0204,-0.0083,-0.0173,-0.0006,-0.0045,0.0,0.0732,0.0221,0.0,1.0,0.0,8349600.0
71,0.79,1.5146,-0.0052,17.6674,11.94,74.8,0.0387,0.1607,0.5246,0.007,0.2199,-0.1596,-0.0002,-0.0708,-0.034,-0.0204,-0.0082,-0.0169,-0.0006,-0.0045,0.0,0.073,0.0223,0.0,1.0,0.0,8467200.0
72,0.79,1.5943,-0.006,17.6322,12.82,78.69,0.0407,0.1711,0.5709,0.0077,0.2335,-0.1687,-0.0002,-0.0717,-0.0356,-0.0218,-0.0087,-0.0184,-0.0007,-0.0047,0.0,0.0744,0.0232,0.0,1.0,0.0,8584800.0
73,0.78,1.6356,-0.0111,17.5412,12.49,78.79,0.0418,0.1757,0.5881,0.0081,0.2418,-0.1741,-0.0002,-0.073,-0.0369,-0.0228,-0.0094,-0.0195,-0.0007,-0.0048,0.0,0.0772,0.0253,0.0,1.0,0.0,8702400.0
74,0.78,1.8199,-0.0057,17.5087,12.63,77.78,0.0431,0.1777,0.5996,0.008,0.2457,-0.1752,-0.0002,-0.0731,-0.0376,-0.0228,-0.0089,-0.0191,-0.0007,-0.0048,0.0,0.0767,0.0247,0.0,1.0,0.0,8820000.0
75,0.78,1.7854,-0.0056,17.4332,13.14,84.68,0.0437,0.1837,0.623,0.0085,0.2537,-0.1813,-0.0002,-0.0742,-0.0404,-0.0239,-0.0087,-0.0204,-0.0007,-0.0049,0.0,0.0803,0.0265,0.0,1.0,0.0,8937600.0
76,0.78,1.8304,-0.004,17.4033,14.42,86.55,0.0446,0.1885,0.6323,0.009,0.2579,-0.1845,-0.0002,-0.0742,-0.0416,-0.0242,-0.0097,-0.0211,-0.0008,-0.005,0.0,0.0825,0.0262,0.0,1.0,0.0,9055200.0
77,0.77,1.7046,-0.0106,17.3293,15.2,89.19,0.0443,0.1896,0.6589,0.0087,0.2582,-0.1849,-0.0002,-0.075,-0.0423,-0.0243,-0.0101,-0.0217,-0.0008,-0.0051,0.0,0.0784,0.026,0.0,1.0,0.0,9172800.0
78,0.77,1.8112,-0.0067,17.296,15.12,93.89,0.0473,0.2008,0.6823,0.0096,0.2748,-0.1955,-0.0002,-0.0763,-0.0444,-0.0257,-0.0097,-0.0229,-0.0008,-0.0053,0.0,0.0864,0.0278,0.0,1.0,0.0,9290400.0
79,0.77,1.9385,-0.0083,17.2367,14.58,87.29,0.0486,0.2006,0.6952,0.0095,0.275,-0.1949,-0.0002,-0.0761,-0.0466,-0.026,-0.0098,-0.0226,-0.0008,-0.0053,0.0,0.0834,0.0279,0.0,1.0,0.0,9408000.0
80,0.77,1.9797,-0.007,17.1988,18.83,102.52,0.0515,0.2103,0.733,0.0102,0.2947,-0.2044,-0.0002,-0.0774,-0.0493,-0.0263,-0.0098,-0.0232,-0.0008,-0.0055,0.0,0.0861,0.0299,0.0,1.0,0.0,9525600.0
81,0.77,1.9665,0.0002,17.1644,16.18,91.55,0.0504,0.2074,0.721,0.0099,0.2843,-0.2003,-0.0002,-0.0774,-0.0489,-0.0262,-0.0102,-0.0237,-0.0008,-0.0054,0.0,0.0858,0.0285,0.0,1.0,0.0,9643200.0
82,0.76,2.0299,-0.0023,17.1344,20.08,109.73,0.0529,0.2154,0.7626,0.0104,0.2931,-0.2083,-0.0003,-0.0782,-0.0522,-0.0273,-0.0103,-0.025,-0.0009,-0.0056,0.0,0.0873,0.0305,0.0,1.0,0.0,9760800.0
83,0.76,2.1652,-0.0055,17.0941,16.26,95.16,0.0536,0.213,0.7336,0.0102,0.2887,-0.2053,-0.0003,-0.0779,-0.0516,-0.0267,-0.0105,-0.0246,-0.0009,-0.0055,0.0,0.0887,0.0298,0.0,1.0,0.0,9878400.0
84,0.76,2.3715,-0.0075,17.0226,16.6,94.5,0.0524,0.213,0.7478,0.0102,0.2811,-0.205,-0.0003,-0.0776,-0.0521,-0.0264,-0.0102,-0.0267,-0.0009,-0.0055,0.0,0.0872,0.0301,0.0,1.0,0.0,9996000.0
85,0.76,4.1519,-0.0048,16.9875,16.84,102.68,0.0556,0.2163,0.7444,0.0105,0.2848,-0.2072,-0.0003,-0.0785,-0.0545,-0.0269,-0.0104,-0.0263,-0.0009,-0.0056,0.0,0.092,0.0305,0.0,1.0,0.0,10113600.0
86,0.76,4.2131,0.01,16.9794,16.65,95.18,0.056,0.2216,0.7916,0.0108,0.2923,-0.2117,-0.0003,-0.0792,-0.0555,-0.0275,-0.0107,-0.0274,-0.0009,-0.0057,0.0,0.0886,0.0311,0.0,1.0,0.0,10231200.0
87,0.76,2.1714,-0.0024,16.9753,15.22,93.62,0.0577,0.2276,0.8083,0.0113,0.2942,-0.2173,-0.0003,-0.08,-0.0577,-0.0279,-0.0111,-0.0289,-0.0009,-0.0058,0.0,0.0916,0.0323,0.0,1.0,0.0,10348800.0
88,0.75,1.9533,-0.0092,16.9432,19.99,111.69,0.0554,0.2136,0.7652,0.0104,0.2703,-0.2041,-0.0003,-0.0782,-0.0554,-0.026,-0.0102,-0.0281,-0.0009,-0.0055,0.0,0.0861,0.0306,0.0,1.0,0.0,10466400.0
89,0.75,2.0214,0.0032,16.9234,18.15,103.75,0.0575,0.2189,0.8054,0.0107,0.2806,-0.2083,-0.0003,-0.0795,-0.0579,-0.0264,-0.0108,-0.0277,-0.0009,-0.0057,0.0,0.0841,0.0309,0.0,1.0,0.0,10584000.0
90,0.75,1.9245,-0.0025,16.9054,15.85,97.8,0.0576,0.2151,0.7575,0.0105,0.2736,-0.2049,-0.0003,-0.0788,-0.0576,-0.0257,-0.0102,-0.0276,-0.0009,-0.0056,0.0,0.0898,0.0305,0.0,1.0,0.0,10701600.0
91,0.75,1.9813,0.0016,16.8984,19.27,106.92,0.0583,0.2176,0.7918,0.0105,0.2731,-0.2078,-0.0003,-0.08,-0.0585,-0.0257,-0.0105,-0.0289,-0.0009,-0.0057,0.0,0.0856,0.0315,0.0,1.0,0.0,10819200.0
92,0.75,1.8731,-0.0019,16.8977,17.63,107.02,0.0595,0.2232,0.7866,0.0112,0.2806,-0.2127,-0.0003,-0.0805,-0.0609,-0.0266,-0.0105,-0.029,-0.0009,-0.0058,0.0,0.0922,0.0322,0.0,1.0,0.0,10936800.0
93,0.75,1.8709,0.001,16.8881,18.01,107.84,0.061,0.2234,0.7999,0.0111,0.2803,-0.2128,-0.0003,-0.0808,-0.0614,-0.0262,-0.0111,-0.0282,-0.0009,-0.0058,0.0,0.09,0.0325,0.0,1.0,0.0,11054400.0
94,0.75,1.8392,-0.0001,16.8815,20.71,114.4,0.0601,0.2267,0.8293,0.0111,0.2798,-0.2151,-0.0003,-0.0818,-0.0621,-0.0266,-0.0109,-0.0302,-0.0009,-0.0058,0.0,0.0876,0.0323,0.0,1.0,0.0,11172000.0
95,0.75,1.7646,-0.0071,16.8614,19.73,112.26,0.0583,0.2235,0.8017,0.011,0.2714,-0.2123,-0.0003,-0.0815,-0.0618,-0.0262,-0.0104,-0.0314,-0.0009,-0.0058,0.0,0.0906,0.0324,0.0,1.0,0.0,11289600.0
96,0.75,1.7444,-0.0128,16.815,15.76,101.45,0.0621,0.235,0.8328,0.0118,0.2998,-0.2236,-0.0003,-0.0832,-0.0644,-0.0277,-0.0111,-0.0303,-0.001,-0.006,0.0,0.0955,0.0347,0.0,1.0,0.0,11407200.0
97,0.75,1.7954,-0.0079,16.8058,18.21,103.56,0.0591,0.2258,0.8167,0.0113,0.2821,-0.214,-0.0003,-0.0817,-0.0616,-0.0266,-0.0113,-0.0297,-0.0009,-0.0059,0.0,0.0887,0.0323,0.0,1.0,0.0,11524800.0
98,0.75,1.7525,0.0059,16.784,16.91,104.88,0.0633,0.2386,0.8201,0.012,0.309,-0.2257,-0.0003,-0.0828,-0.0653,-0.0285,-0.0113,-0.0295,-0.001,-0.0061,0.0,0.102,0.0344,0.0,1.0,0.0,11642400.0
99,0.75,1.7768,-0.0023,16.776,20.73,119.73,0.0643,0.2452,0.8714,0.0128,0.313,-0.2322,-0.0004,-0.0836,-0.069,-0.0289,-0.0118,-0.0324,-0.001,-0.0062,0.0,0.1006,0.0363,0.0,1.0,0.0,11760000.0
100,0.74,1.7324,-0.0085,16.7384,19.24,109.65,0.0634,0.2455,0.8859,0.0126,0.315,-0.2319,-0.0003,-0.084,-0.0675,-0.0292,-0.0108,-0.0315,-0.001,-0.0062,0.0,0.0978,0.0351,0.0,1.0,0.0,11877600.0
101,0.74,1.7927,-0.0033,16.6993,21.96,123.94,0.0614,0.2451,0.9017,0.0126,0.3004,-0.231,-0.0003,-0.084,-0.0665,-0.029,-0.0117,-0.0352,-0.001,-0.0062,0.0,0.0954,0.0347,0.0,1.0,0.0,11995200.0
102,0.74,1.828,-0.0068,16.6672,21.36,122.78,0.0642,0.2521,0.9148,0.013,0.3206,-0.238,-0.0004,-0.0853,-0.0683,-0.03,-0.012,-0.0335,-0.001,-0.0064,0.0,0.0997,0.0367,0.0,1.0,0.0,12112800.0
103,0.74,1.7935,-0.0025,16.6299,20.74,123.76,0.0658,0.2555,0.8708,0.0134,0.3367,-0.2402,-0.0003,-0.085,-0.0696,-0.0306,-0.0127,-0.0316,-0.0011,-0.0064,0.0,0.1107,0.0368,0.0,1.0,0.0,12230400.0
104,0.74,1.8458,-0.0047,16.5967,22.9,128.39,0.0663,0.2638,0.9558,0.0141,0.3436,-0.2473,-0.0004,-0.0857,-0.0705,-0.0314,-0.012,-0.0335,-0.0011,-0.0065,0.0,0.102,0.0369,0.0,1.0,0.0,12348000.0
105,0.74,1.8694,-0.0059,16.5569,21.68,127.92,0.0648,0.2722,0.9772,0.0144,0.3466,-0.2545,-0.0004,-0.0867,-0.072,-0.0323,-0.0123,-0.0365,-0.0011,-0.0067,0.0,0.109,0.038,0.0,1.0,0.0,12465600.0
106,0.74,1.8943,-0.0013,16.5395,24.37,142.94,0.0678,0.2732,0.9591,0.0143,0.3685,-0.2547,-0.0004,-0.0874,-0.0718,-0.0323,-0.0133,-0.0324,-0.0011,-0.0067,0.0,0.1115,0.0378,0.0,1.0,0.0,12583200.0
107,0.73,1.8863,-0.005,16.5063,22.25,126.88,0.0675,0.2783,0.9567,0.0148,0.3694,-0.26,-0.0004,-0.0879,-0.0739,-0.0335,-0.0131,-0.0353,-0.0011,-0.0068,0.0,0.1189,0.0399,0.0,1.0,0.0,12700800.0
108,0.73,1.9265,-0.0063,16.453,22.23,136.04,0.0687,0.2808,0.9814,0.015,0.3787,-0.2616,-0.0004,-0.0878,-0.0738,-0.0336,-0.0135,-0.0334,-0.0011,-0.0069,0.0,0.1161,0.0399,0.0,1.0,0.0,12818400.0
109,0.73,2.0438,-0.0039,16.4484,21.95,137.24,0.0707,0.2927,1.0205,0.0157,0.3937,-0.2719,-0.0004,-0.089,-0.0771,-0.035,-0.0131,-0.0357,-0.0012,-0.007,0.0,0.122,0.0412,0.0,1.0,0.0,12936000.0
110,0.73,1.9099,-0.0109,16.4139,22.27,125.17,0.0685,0.2875,1.0343,0.0151,0.3712,-0.2661,-0.0004,-0.089,-0.0755,-0.0349,-0.0131,-0.0372,-0.0012,-0.007,0.0,0.1146,0.0401,0.0,1.0,0.0,13053600.0
111,0.73,1.886,-0.0023,16.4124,26.18,149.11,0.0673,0.2849,1.0245,0.0151,0.3738,-0.2638,-0.0004,-0.0885,-0.0754,-0.0346,-0.0135,-0.0365,-0.0012,-0.0069,0.0,0.1109,0.04,0.0,1.0,0.0,13171200.0
112,0.73,1.9248,0.0024,16.3928,28.05,156.93,0.0707,0.3062,1.0725,0.0167,0.4065,-0.283,-0.0004,-0.0913,-0.0793,-0.0363,-0.0142,-0.039,-0.0012,-0.0073,0.0,0.1271,0.0423,0.0,1.0,0.0,13288800.0
113,0.73,1.7888,-0.0008,16.3672,24.52,139.7,0.068,0.2879,1.0208,0.0153,0.387,-0.2659,-0.0004,-0.0896,-0.0728,-0.0348,-0.0129,-0.0352,-0.0011,-0.007,0.0,0.1166,0.0401,0.0,1.0,0.0,13406400.0
114,0.73,1.8571,-0.0054,16.3243,27.46,154.09,0.0699,0.3109,1.1262,0.0171,0.4146,-0.286,-0.0004,-0.0915,-0.079,-0.0372,-0.0146,-0.0396,-0.0012,-0.0074,0.0,0.122,0.0428,0.0,1.0,0.0,13524000.0
115,0.72,1.8517,-0.004,16.2877,27.86,160.43,0.07,0.3087,1.1139,0.0167,0.4161,-0.283,-0.0004,-0.09,-0.0779,-0.037,-0.0144,-0.0381,-0.0012,-0.0073,0.0,0.1225,0.0419,0.0,1.0,0.0,13641600.0
116,0.72,1.9473,-0.002,16.2341,25.02,140.82,0.0695,0.3067,1.1131,0.0164,0.4152,-0.2823,-0.0004,-0.0909,-0.0746,-0.0371,-0.0144,-0.0377,-0.0012,-0.0074,0.0,0.1186,0.0427,0.0,1.0,0.0,13759200.0
117,0.72,1.8759,-0.0044,16.2042,27.07,145.14,0.0689,0.3045,1.106,0.0163,0.4157,-0.2789,-0.0004,-0.0912,-0.0737,-0.0367,-0.0144,-0.0364,-0.0012,-0.0073,0.0,0.1179,0.0412,0.0,1.0,0.0,13876800.0
118,0.72,1.9602,-0.0052,16.1342,24.49,147.08,0.0767,0.3501,1.2263,0.0193,0.4921,-0.3204,-0.0004,-0.0967,-0.083,-0.0425,-0.0149,-0.0418,-0.0014,-0.0082,0.0,0.1416,0.0478,0.0,1.0,0.0,13994400.0
119,0.72,1.9721,-0.0018,16.1152,30.23,166.39,0.0709,0.3365,1.1898,0.0184,0.4543,-0.3064,-0.0004,-0.094,-0.0807,-0.0401,-0.0151,-0.0428,-0.0013,-0.0079,0.0,0.1339,0.0446,0.0,1.0,0.0,14112000.0
120,0.71,1.9661,-0.0046,16.0672,30.97,172.69,0.0756,0.346,1.2288,0.019,0.4691,-0.3142,-0.0004,-0.0952,-0.0828,-0.041,-0.0141,-0.0425,-0.0013,-0.008,0.0,0.1372,0.0455,0.0,1.0,0.0,14229600.0
121,0.71,2.0967,-0.0049,16.0167,30.35,159.07,0.075,0.3487,1.2646,0.0192,0.4662,-0.3173,-0.0004,-0.0965,-0.0874,-0.0415,-0.0153,-0.0456,-0.0014,-0.0081,0.0,0.1375,0.048,0.0,1.0,0.0,14347200.0
122,0.71,1.9917,-0.0051,15.9801,28.45,159.57,0.0765,0.3543,1.2571,0.0198,0.4827,-0.3202,-0.0004,-0.0962,-0.0865,-0.0424,-0.017,-0.0444,-0.0014,-0.0082,0.0,0.1444,0.0474,0.0,1.0,0.0,14464800.0
123,0.71,2.0204,0.0007,15.9493,28.43,167.57,0.0769,0.3662,1.2729,0.0206,0.5079,-0.3302,-0.0004,-0.0985,-0.0848,-0.0426,-0.0158,-0.045,-0.0014,-0.0084,0.0,0.1501,0.0483,0.0,1.0,0.0,14582400.0
124,0.71,1.9823,-0.0026,15.9046,33.28,179.51,0.0803,0.3618,1.271,0.02,0.5064,-0.3254,-0.0005,-0.097,-0.0867,-0.0424,-0.0152,-0.0424,-0.0014,-0.0083,0.0,0.1455,0.0475,0.0,1.0,0.0,14700000.0
125,0.71,2.0221,-0.0008,15.8833,30.04,163.36,0.0763,0.3368,1.2121,0.0185,0.4585,-0.3024,-0.0004,-0.0944,-0.08,-0.0404,-0.0141,-0.0411,-0.0013,-0.0078,0.0,0.1317,0.0448,0.0,1.0,0.0,14817600.0
126,0.7,2.0462,-0.0066,15.854,36.56,206.77,0.0845,0.3903,1.3006,0.0226,0.5624,-0.3493,-0.0005,-0.0992,-0.0938,-0.0462,-0.0169,-0.0436,-0.0015,-0.0087,0.0,0.1699,0.0521,0.0,1.0,0.0,14935200.0
127,0.7,2.115,-0.0031,15.8197,31.74,170.13,0.083,0.3794,1.3435,0.0215,0.5433,-0.3385,-0.0005,-0.099,-0.0879,-0.0445,-0.0175,-0.0425,-0.0015,-0.0086,0.0,0.1504,0.0498,0.0,1.0,0.0,15052800.0
128,0.7,2.0397,-0.0026,15.7883,31.71,184.54,0.0843,0.3838,1.3187,0.0217,0.5537,-0.3415,-0.0004,-0.0993,-0.0872,-0.0445,-0.0161,-0.0421,-0.0015,-0.0086,0.0,0.1584,0.0489,0.0,1.0,0.0,15170400.0
129,0.7,1.9102,-0.004,15.7501,35.82,189.47,0.0881,0.4044,1.4061,0.0236,0.5837,-0.3603,-0.0005,-0.1023,-0.0973,-0.0469,-0.0161,-0.0454,-0.0015,-0.009,0.0,0.1643,0.053,0.0,1.0,0.0,15288000.0
130,0.7,1.9394,-0.0069,15.699,32.03,181.02,0.0926,0.4287,1.5278,0.0246,0.6024,-0.3798,-0.0005,-0.1049,-0.1008,-0.0499,-0.0182,-0.0522,-0.0017,-0.0094,0.0,0.1677,0.0557,0.0,1.0,0.0,15405600.0
131,0.7,2.1316,-0.0018,15.6651,35.42,194.79,0.093,0.439,1.5757,0.0253,0.6134,-0.3891,-0.0005,-0.1071,-0.1031,-0.0521,-0.0183,-0.0525,-0.0017,-0.0096,0.0,0.1685,0.0562,0.0,1.0,0.0,15523200.0
132,0.69,1.9728,-0.007,15.6212,32.87,183.93,0.093,0.4185,1.3936,0.024,0.6068,-0.3689,-0.0005,-0.1039,-0.0986,-0.0478,-0.0159,-0.0442,-0.0016,-0.0091,0.0,0.1833,0.052,0.0,1.0,0.0,15640800.0
133,0.69,2.0033,0.0021,15.6222,37.01,193.24,0.0903,0.4529,1.6786,0.0267,0.5952,-0.3994,-0.0005,-0.1074,-0.1052,-0.0512,-0.019,-0.0603,-0.0017,-0.0098,0.0,0.1682,0.0563,0.0002,0.9998,0.0,15758400.0
134,0.69,1.9242,0.0104,15.6076,34.88,197.32,0.097,0.4571,1.5736,0.0269,0.6653,-0.4016,-0.0005,-0.1073,-0.1056,-0.0536,-0.0207,-0.0489,-0.0018,-0.0099,0.0,0.1848,0.0574,0.0002,0.9998,0.0,15876000.0
135,0.69,1.8388,-0.0032,15.5997,34.55,192.8,0.0944,0.4606,1.6167,0.0267,0.6442,-0.4059,-0.0006,-0.1097,-0.1069,-0.0549,-0.0198,-0.0581,-0.0018,-0.0101,0.0,0.1889,0.0593,0.0002,0.9998,0.0,15993600.0
136,0.69,1.779,-0.0033,15.5584,35.82,198.96,0.096,0.4484,1.5119,0.0257,0.6286,-0.3933,-0.0005,-0.1077,-0.1107,-0.0522,-0.0189,-0.0519,-0.0017,-0.0098,0.0,0.19,0.0565,0.0002,0.9998,0.0,16111200.0
137,0.69,1.7768,-0.0016,15.5431,39.79,229.32,0.1036,0.4903,1.6801,0.0282,0.6732,-0.4328,-0.0006,-0.1137,-0.1171,-0.0588,-0.0213,-0.0598,-0.0019,-0.0107,0.0,0.2073,0.0642,0.0002,0.9998,0.0,16228800.0
138,0.69,1.7408,0.0029,15.5155,36.51,211.54,0.1045,0.5188,1.8227,0.0304,0.734,-0.4521,-0.0006,-0.1156,-0.1177,-0.0599,-0.0174,-0.0616,-0.0019,-0.0109,0.0,0.2066,0.063,0.0002,0.9998,0.0,16346400.0
139,0.69,1.7127,0.0092,15.5004,41.17,233.21,0.1088,0.5112,1.6463,0.0299,0.7326,-0.448,-0.0006,-0.1142,-0.1253,-0.0594,-0.0208,-0.057,-0.002,-0.0109,0.0,0.2339,0.0664,0.0001,0.9999,0.0,16464000.0
140,0.69,1.7199,0.0069,15.4973,43.21,225.91,0.1079,0.515,1.8022,0.0303,0.7189,-0.4489,-0.0006,-0.1153,-0.1255,-0.0599,-0.0213,-0.0619,-0.002,-0.0109,0.0,0.2082,0.0644,0.0,1.0,0.0,16581600.0
141,0.69,1.6772,0.0037,15.4918,43.27,240.17,0.1125,0.5455,1.8661,0.0327,0.7943,-0.4761,-0.0007,-0.1165,-0.134,-0.063,-0.0237,-0.06,-0.0021,-0.0114,0.0,0.2292,0.0693,0.0,1.0,0.0,16699200.0
142,0.69,1.7119,0.0207,15.4758,47.22,252.48,0.111,0.528,1.8795,0.0312,0.7593,-0.4605,-0.0007,-0.1151,-0.1281,-0.0609,-0.0203,-0.0601,-0.002,-0.011,0.0,0.2038,0.0668,0.0,1.0,0.0,16816800.0
143,0.69,1.6629,0.0063,15.4732,45.38,247.76,0.112,0.5281,1.7116,0.0309,0.7566,-0.4595,-0.0006,-0.115,-0.1301,-0.0616,-0.021,-0.0559,-0.002,-0.011,0.0,0.23,0.0651,0.0,1.0,0.0,16934400.0
144,0.69,1.6856,-0.0004,15.4654,41.4,248.09,0.1164,0.561,1.8156,0.0337,0.8148,-0.4857,-0.0006,-0.1177,-0.1298,-0.0658,-0.0239,-0.0613,-0.0021,-0.0116,0.0,0.2484,0.0684,0.0,1.0,0.0,17052000.0
145,0.69,1.6141,0.0152,15.4304,49.5,266.26,0.1286,0.6284,2.1943,0.0373,0.9539,-0.5444,-0.0007,-0.1277,-0.1476,-0.0731,-0.0269,-0.0633,-0.0024,-0.0129,0.0,0.2329,0.0764,0.0,1.0,0.0,17169600.0
146,0.69,1.5526,0.0082,15.427,50.89,277.31,0.1284,0.6353,2.1864,0.0389,0.8639,-0.549,-0.0008,-0.1259,-0.16,-0.0723,-0.0235,-0.0813,-0.0024,-0.0127,0.0,0.2648,0.0786,0.0,1.0,0.0,17287200.0
147,0.69,1.5932,0.0057,15.4234,57.17,325.65,0.1364,0.6545,2.272,0.0394,0.8822,-0.5673,-0.0008,-0.1279,-0.1703,-0.0741,-0.0249,-0.0805,-0.0025,-0.0131,0.0,0.2675,0.0815,0.0,1.0,0.0,17404800.0
148,0.69,1.559,-0.0015,15.4155,60.9,305.99,0.1316,0.6665,2.5667,0.0401,0.8783,-0.5795,-0.0009,-0.1309,-0.1656,-0.0756,-0.0272,-0.0906,-0.0025,-0.0134,0.0,0.2419,0.0838,0.0,1.0,0.0,17522400.0
149,0.68,1.5991,-0.0027,15.3802,54.86,295.04,0.1272,0.6439,2.1346,0.0391,0.9061,-0.5537,-0.0008,-0.1269,-0.1585,-0.0723,-0.0233,-0.0763,-0.0024,-0.0128,0.0,0.2725,0.0766,0.0,1.0,0.0,17640000.0
150,0.68,1.6208,-0.0009,15.3649,62.27,322.33,0.136,0.6919,2.5535,0.0432,0.9012,-0.5945,-0.0008,-0.1303,-0.1776,-0.0786,-0.0254,-0.0988,-0.0026,-0.0136,0.0,0.2501,0.0811,0.0002,0.9998,0.0,17757600.0
151,0.68,1.5598,0.0015,15.3495,51.36,299.43,0.1365,0.6624,2.2799,0.0409,0.9527,-0.5718,-0.0008,-0.129,-0.1649,-0.0761,-0.0257,-0.0778,-0.0025,-0.0133,0.0,0.2741,0.0815,0.0002,0.9998,0.0,17875200.0
152,0.68,1.5573,0.0012,15.3469,50.58,286.95,0.1407,0.6747,2.2391,0.0412,0.9712,-0.5777,-0.0009,-0.1297,-0.1807,-0.0771,-0.024,-0.0738,-0.0025,-0.0132,0.0,0.2828,0.0811,0.0002,0.9998,0.0,17992800.0
153,0.68,1.6315,0.0052,15.3486,55.92,308.76,0.1442,0.6974,2.4245,0.0429,1.0024,-0.6013,-0.0009,-0.1359,-0.1782,-0.0805,-0.029,-0.0778,-0.0026,-0.0141,0.0,0.2793,0.0868,0.0001,0.9999,0.0,18110400.0
154,0.68,1.5371,0.005,15.3485,55.62,305.13,0.1313,0.6596,2.3243,0.0411,0.9295,-0.5635,-0.0007,-0.1269,-0.1697,-0.075,-0.0288,-0.0819,-0.0025,-0.013,0.0,0.2553,0.0772,0.0,1.0,0.0,18228000.0
155,0.68,1.6052,0.0045,15.3456,61.6,321.74,0.143,0.7259,2.6023,0.0441,0.982,-0.6192,-0.0009,-0.1341,-0.1864,-0.0824,-0.0302,-0.0946,-0.0027,-0.0139,0.0,0.2785,0.0837,0.0,1.0,0.0,18345600.0
156,0.68,1.585,-0.0013,15.3375,61.17,328.61,0.1485,0.7471,2.6389,0.0455,1.0484,-0.6383,-0.0009,-0.14,-0.1861,-0.086,-0.0342,-0.0908,-0.0029,-0.0147,0.0,0.3014,0.0885,0.0,1.0,0.0,18463200.0
157,0.68,1.4718,-0.0001,15.3089,63.9,346.8,0.1578,0.7778,2.542,0.0472,1.1596,-0.6643,-0.001,-0.1424,-0.1975,-0.0909,-0.0336,-0.0808,-0.003,-0.0153,0.0,0.3274,0.091,0.0,1.0,0.0,18580800.0
158,0.68,1.473,-0.0015,15.3002,55.08,291.89,0.1421,0.6684,2.2308,0.0403,0.9763,-0.5724,-0.0009,-0.1303,-0.1715,-0.0777,-0.0251,-0.0693,-0.0025,-0.0133,0.0,0.2877,0.0793,0.0,1.0,0.0,18698400.0
159,0.68,1.4054,-0.0047,15.2579,78.51,380.79,0.1733,0.893,3.4856,0.0565,1.1574,-0.7584,-0.0011,-0.153,-0.233,-0.0992,-0.0337,-0.1275,-0.0033,-0.0168,0.0,0.2888,0.1017,0.0,1.0,0.0,18816000.0
160,0.68,1.3609,-0.0073,15.2252,89.66,467.01,0.1968,1.0074,3.464,0.0646,1.5248,-0.8558,-0.0012,-0.165,-0.2511,-0.1157,-0.0383,-0.103,-0.0037,-0.0191,0.0,0.3998,0.1149,0.0,1.0,0.0,18933600.0
161,0.68,1.3828,-0.0008,15.1879,63.63,339.91,0.1479,0.7823,2.7355,0.0486,1.05,-0.6667,-0.0009,-0.143,-0.1881,-0.0887,-0.0282,-0.1075,-0.0029,-0.0152,0.0,0.3068,0.0912,0.0,1.0,0.0,19051200.0
162,0.68,1.4137,-0.0011,15.1812,59.27,342.2,0.1521,0.7647,2.3681,0.0464,1.0808,-0.6475,-0.0009,-0.141,-0.1853,-0.0872,-0.0297,-0.0907,-0.0028,-0.015,0.0,0.339,0.0849,0.0,1.0,0.0,19168800.0
163,0.67,1.3937,-0.0022,15.1692,71.46,389.07,0.1719,0.8735,2.9115,0.054,1.3203,-0.7441,-0.001,-0.1543,-0.2066,-0.0999,-0.0351,-0.0921,-0.0033,-0.017,0.0,0.3524,0.1001,0.0,1.0,0.0,19286400.0
164,0.67,1.3375,-0.0041,15.1483,76.41,406.4,0.1665,0.869,2.955,0.0547,1.2229,-0.7381,-0.001,-0.1526,-0.215,-0.0976,-0.0316,-0.108,-0.0032,-0.0168,0.0,0.3643,0.1001,0.0,1.0,0.0,19404000.0
165,0.67,1.3288,-0.0048,15.1265,69.97,394.42,0.1756,0.8415,2.552,0.0518,1.2376,-0.7159,-0.001,-0.1505,-0.2073,-0.095,-0.0331,-0.0903,-0.0031,-0.0162,0.0,0.4065,0.0984,0.0,1.0,0.0,19521600.0
166,0.67,1.2722,-0.0069,15.102,89.23,420.4,0.185,0.9688,3.8739,0.0605,1.3362,-0.8203,-0.0011,-0.1668,-0.2349,-0.1106,-0.0424,-0.1268,-0.0036,-0.0189,0.0,0.3005,0.1111,0.0,1.0,0.0,19639200.0
167,0.67,1.4329,-0.0077,15.0941,70.17,372.47,0.1634,0.8786,3.0401,0.0555,1.1969,-0.7403,-0.001,-0.153,-0.2122,-0.0992,-0.0347,-0.1161,-0.0032,-0.0169,0.0,0.3403,0.098,0.0,1.0,0.0,19756800.0
168,0.67,1.2755,0.0007,15.0658,61.37,357.58,0.1662,0.7914,2.5668,0.0494,1.1564,-0.6705,-0.001,-0.1394,-0.2157,-0.0904,-0.0341,-0.0825,-0.003,-0.0152,0.0,0.3342,0.092,0.0,1.0,0.0,19874400.0
169,0.67,1.3606,-0.0028,15.0525,73.67,374.31,0.1703,0.8665,3.122,0.0543,1.2146,-0.7303,-0.0011,-0.151,-0.2028,-0.0957,-0.0304,-0.1111,-0.0032,-0.0164,0.0,0.3205,0.0967,0.0,1.0,0.0,19992000.0
170,0.67,1.2464,-0.0063,15.01,77.09,407.17,0.1789,0.9335,3.213,0.0582,1.3628,-0.7894,-0.001,-0.1599,-0.2263,-0.1045,-0.0396,-0.1108,-0.0035,-0.0178,0.0,0.366,0.1034,0.0001,0.9999,0.0,20109600.0
171,0.67,1.2604,-0.0028,14.9962,86.42,449.9,0.2034,1.041,3.8034,0.0644,1.4884,-0.878,-0.0012,-0.173,-0.2485,-0.1175,-0.0396,-0.128,-0.0038,-0.0196,0.0,0.3791,0.1192,0.0002,0.9998,0.0,20227200.0
172,0.67,1.253,-0.0014,14.9878,89.04,465.89,0.2027,0.9966,3.4007,0.0609,1.4226,-0.834,-0.0014,-0.165,-0.2542,-0.1082,-0.0379,-0.1095,-0.0037,-0.0185,0.0,0.3993,0.1089,0.0002,0.9998,0.0,20344800.0
173,0.67,1.2688,-0.0075,14.9637,82.82,473.31,0.1996,1.019,3.2235,0.0628,1.4062,-0.8565,-0.0013,-0.1712,-0.2593,-0.1162,-0.04,-0.1301,-0.0038,-0.0194,0.0,0.4681,0.1154,0.0002,0.9998,0.0,20462400.0
174,0.67,1.1407,-0.0027,14.9576,87.59,461.36,0.1955,0.9913,3.4436,0.0602,1.3918,-0.8291,-0.0013,-0.1639,-0.2627,-0.1127,-0.0373,-0.1157,-0.0037,-0.0184,0.0,0.3637,0.1081,0.0004,0.9996,0.0,20580000.0
175,0.67,1.1816,-0.0031,14.951,109.41,563.47,0.2281,1.1681,3.7848,0.0719,1.7727,-0.9776,-0.0013,-0.1802,-0.2892,-0.1331,-0.0483,-0.1239,-0.0043,-0.0216,0.0,0.4823,0.1282,0.0006,0.9994,0.0,20697600.0
176,0.67,1.1698,-0.0029,14.9393,96.48,475.09,0.2049,1.0956,4.1758,0.0687,1.5,-0.9204,-0.0013,-0.1787,-0.2579,-0.1225,-0.0417,-0.146,-0.004,-0.021,0.0,0.3772,0.1211,0.001,0.999,0.0,20815200.0
177,0.66,1.2155,-0.0066,14.9199,87.52,458.13,0.207,1.0226,3.5337,0.0634,1.469,-0.8512,-0.0015,-0.1639,-0.258,-0.1083,-0.0315,-0.1178,-0.0037,-0.0185,0.0,0.4128,0.11,0.001,0.999,0.0,20932800.0
178,0.66,1.2723,-0.0058,14.9099,114.46,571.63,0.2292,1.2346,4.5837,0.0765,1.8038,-1.0321,-0.0014,-0.1889,-0.2872,-0.1391,-0.0601,-0.1442,-0.0047,-0.0228,0.0,0.4373,0.1303,0.0017,0.9983,0.0,21050400.0
179,0.66,1.1991,-0.0046,14.8917,98.35,535.22,0.2267,1.2141,4.0173,0.0788,1.6675,-1.0132,-0.0015,-0.1887,-0.2993,-0.1302,-0.0507,-0.1549,-0.0045,-0.0225,0.0,0.5125,0.1311,0.0026,0.9974,0.0,21168000.0
180,0.66,1.1341,-0.0062,14.8731,112.91,625.28,0.2638,1.4574,4.6622,0.0949,2.0922,-1.2176,-0.0016,-0.2118,-0.3599,-0.1625,-0.0567,-0.1769,-0.0054,-0.026,0.0,0.6146,0.1571,0.0034,0.9966,0.0,21285600.0
181,0.66,1.0862,-0.0077,14.8439,98.42,543.51,0.2293,1.1966,3.8869,0.076,1.6721,-1.0008,-0.0014,-0.1886,-0.2851,-0.1322,-0.0383,-0.1509,-0.0043,-0.0219,0.0,0.5204,0.1309,0.0042,0.9958,0.0,21403200.0
182,0.66,1.1956,-0.0094,14.8186,102.08,548.25,0.2208,1.1216,4.0916,0.0691,1.5176,-0.9373,-0.0014,-0.1767,-0.277,-0.1226,-0.0396,-0.15,-0.0041,-0.0207,0.0,0.4028,0.1218,0.005,0.995,0.0,21520800.0
183,0.66,1.1143,-0.0044,14.7944,110.57,554.52,0.23,1.2026,4.2918,0.0771,1.6539,-1.0018,-0.0014,-0.187,-0.2953,-0.1272,-0.0408,-0.1612,-0.0044,-0.0221,0.0,0.4601,0.1277,0.0056,0.9944,0.0,21638400.0
184,0.66,1.1757,-0.0027,14.7788,154.51,764.73,0.3375,1.9703,7.2406,0.1332,2.8873,-1.6503,-0.002,-0.2738,-0.4353,-0.2122,-0.0699,-0.2636,-0.0072,-0.0356,0.0,0.6998,0.2119,0.0074,0.9926,0.0,21756000.0
185,0.66,1.0677,-0.0011,14.7807,123.66,661.05,0.2833,1.5015,5.1455,0.096,2.1461,-1.259,-0.0018,-0.2269,-0.3481,-0.1646,-0.058,-0.1816,-0.0055,-0.0282,0.0,0.5898,0.1645,0.0097,0.9903,0.0,21873600.0
186,0.66,1.1512,-0.0043,14.7669,150.51,737.71,0.2966,1.6156,6.2196,0.1035,2.2919,-1.3496,-0.0017,-0.2292,-0.3745,-0.179,-0.0649,-0.2077,-0.0059,-0.029,0.0,0.5361,0.1733,0.0119,0.9881,0.0,21991200.0
187,0.66,1.1735,-0.0052,14.7409,174.53,899.26,0.3354,2.0455,7.4006,0.1394,2.954,-1.7155,-0.002,-0.2807,-0.4359,-0.2151,-0.0764,-0.2731,-0.0074,-0.0376,0.0,0.7563,0.2169,0.0155,0.9845,0.0,22108800.0
188,0.66,1.1308,-0.0074,14.7112,167.17,874.72,0.3526,1.9886,6.497,0.1316,3.0425,-1.6584,-0.0021,-0.2716,-0.4442,-0.2195,-0.0698,-0.2242,-0.0071,-0.0353,0.0,0.8335,0.2076,0.0194,0.9806,0.0,22226400.0
189,0.65,1.1954,-0.006,14.6899,199.82,937.53,0.3412,2.0005,7.8478,0.1332,2.8339,-1.6737,-0.0019,-0.2789,-0.4324,-0.2126,-0.0679,-0.2707,-0.0072,-0.0359,0.0001,0.6471,0.2165,0.0226,0.9774,0.0,22344000.0
190,0.65,1.2044,-0.008,14.6375,169.16,841.24,0.3281,1.8735,6.7924,0.126,2.8513,-1.5601,-0.0018,-0.2623,-0.3874,-0.1935,-0.0622,-0.219,-0.0067,-0.034,0.0003,0.6873,0.1962,0.0267,0.9733,0.0,22461600.0
191,0.65,1.2446,-0.0045,14.6184,173.48,872.35,0.3398,1.9098,6.4799,0.1288,3.043,-1.5887,-0.0018,-0.2673,-0.4006,-0.1979,-0.074,-0.2019,-0.007,-0.0346,0.0004,0.7719,0.1978,0.0305,0.9695,0.0,22579200.0
192,0.65,1.3456,0.0123,14.6023,197.81,939.38,0.3179,1.8681,7.0076,0.1269,2.7673,-1.5524,-0.0017,-0.2635,-0.4001,-0.201,-0.0738,-0.2422,-0.0068,-0.0341,0.0005,0.6155,0.1915,0.0345,0.9655,0.0,22696800.0
193,0.65,1.2676,0.0005,14.5961,199.43,956.96,0.3407,1.99,7.4809,0.1326,2.9315,-1.6627,-0.0017,-0.2821,-0.3954,-0.2188,-0.0656,-0.257,-0.0071,-0.0366,0.0008,0.6797,0.2106,0.039,0.961,0.0,22814400.0
194,0.65,1.2027,-0.0035,14.578,209.49,1021.23,0.368,2.2271,7.8035,0.1544,3.5164,-1.8573,-0.0018,-0.3087,-0.4332,-0.2254,-0.0735,-0.255,-0.0079,-0.0405,0.0008,0.8475,0.2304,0.0458,0.9542,0.0,22932000.0
195,0.65,1.0442,-0.0085,14.5294,207.61,1047.48,0.439,2.5154,8.6033,0.1714,3.9893,-2.0895,-0.0023,-0.3338,-0.536,-0.2767,-0.1112,-0.2625,-0.0093,-0.0458,0.0009,0.9759,0.2553,0.051,0.949,0.0,23049600.0
196,0.65,1.0484,-0.0085,14.4955,236.04,1157.25,0.4104,2.406,8.6718,0.1642,3.7216,-2.0007,-0.002,-0.3281,-0.4954,-0.2543,-0.0943,-0.2824,-0.0087,-0.0441,0.001,0.8685,0.2492,0.059,0.941,0.0,23167200.0
197,0.65,1.0739,-0.006,14.4817,245.21,1215.64,0.4366,2.646,9.3902,0.179,3.8513,-2.2009,-0.0023,-0.3531,-0.5259,-0.2805,-0.0875,-0.3473,-0.0093,-0.0476,0.001,1.0261,0.2718,0.0649,0.9351,0.0,23284800.0
198,0.65,1.0949,-0.0045,14.4695,247.76,1171.6,0.4129,2.5376,9.5044,0.1724,3.856,-2.106,-0.0022,-0.347,-0.4726,-0.2586,-0.0895,-0.3085,-0.0091,-0.0466,0.0013,0.8707,0.258,0.0737,0.9263,0.0,23402400.0
199,0.64,1.1301,-0.0091,14.4293,254.96,1304.79,0.4913,2.82,9.0102,0.1949,4.6044,-2.3338,-0.0024,-0.3682,-0.5588,-0.2931,-0.1124,-0.2878,-0.0102,-0.0509,0.0016,1.2081,0.2829,0.0834,0.9166,0.0,23520000.0
200,0.64,1.175,-0.0052,14.3924,228.19,1100.9,0.4639,2.6908,9.9488,0.1804,4.1655,-2.2223,-0.0024,-0.3571,-0.5379,-0.2869,-0.0925,-0.3038,-0.0095,-0.0485,0.0023,0.9347,0.2692,0.0943,0.9057,0.0,23637600.0
201,0.64,1.2372,-0.0025,14.3726,258.96,1246.07,0.4751,2.7807,9.5872,0.1892,4.5203,-2.3038,-0.0023,-0.3709,-0.5472,-0.2991,-0.1145,-0.2878,-0.0101,-0.0507,0.0031,1.099,0.289,0.1041,0.8959,0.0,23755200.0
202,0.64,1.2207,-0.0047,14.353,255.01,1260.36,0.4364,2.6857,9.4593,0.181,4.0442,-2.2205,-0.0023,-0.3557,-0.5231,-0.2885,-0.1257,-0.3314,-0.0099,-0.0498,0.0038,1.0193,0.2704,0.1145,0.8855,0.0,23872800.0
203,0.64,1.2265,-0.0079,14.3295,311.09,1515.13,0.591,3.5298,12.2475,0.246,5.4337,-2.9167,-0.0031,-0.4542,-0.6821,-0.3689,-0.1257,-0.4271,-0.0126,-0.0633,0.005,1.386,0.355,0.1283,0.8717,0.0,23990400.0
204,0.64,1.0733,-0.0069,14.3242,236.36,1119.76,0.4463,2.6435,9.9118,0.1773,4.0848,-2.1837,-0.0023,-0.3591,-0.4983,-0.2786,-0.0991,-0.3087,-0.0095,-0.0491,0.0059,0.9039,0.2665,0.142,0.858,0.0,24108000.0
205,0.64,1.2048,-0.0098,14.2957,272.73,1359.65,0.5247,3.1364,10.8779,0.2094,4.6042,-2.5852,-0.0029,-0.4041,-0.6144,-0.3255,-0.1016,-0.4135,-0.0111,-0.0557,0.0061,1.1942,0.3166,0.1516,0.8484,0.0,24225600.0
206,0.64,1.2683,-0.0075,14.272,253.96,1233.81,0.4726,2.8772,9.9494,0.1976,4.3549,-2.3777,-0.0024,-0.3786,-0.5436,-0.2971,-0.0994,-0.3615,-0.0101,-0.0524,0.0073,1.1199,0.2873,0.164,0.836,0.0,24343200.0
207,0.64,1.2905,-0.0069,14.2539,265.05,1288.41,0.4785,2.8095,9.9595,0.1894,4.45,-2.3198,-0.0024,-0.3776,-0.5329,-0.2953,-0.1033,-0.3124,-0.01,-0.0521,0.0081,1.0438,0.2853,0.1774,0.8226,0.0,24460800.0
208,0.64,1.3059,-0.0034,14.2443,268.68,1281.64,0.4779,2.924,10.94,0.2005,4.5273,-2.4014,-0.0025,-0.3843,-0.5476,-0.2978,-0.1048,-0.3446,-0.0104,-0.0531,0.0091,1.0173,0.2902,0.1896,0.8104,0.0,24578400.0
209,0.64,1.2979,-0.0104,14.224,264.66,1285.05,0.5016,2.9508,11.1235,0.1958,4.4117,-2.4239,-0.0026,-0.3972,-0.561,-0.3126,-0.1021,-0.3743,-0.0104,-0.0541,0.0102,0.9866,0.3003,0.2009,0.7991,0.0,24696000.0
210,0.64,1.1729,-0.0079,14.2229,300.44,1411.0,0.4674,2.8581,10.6438,0.1915,4.2494,-2.3483,-0.0025,-0.3913,-0.5125,-0.2984,-0.0947,-0.3732,-0.0101,-0.0531,0.0124,0.9858,0.2883,0.2124,0.7876,0.0,24813600.0
211,0.63,1.2266,-0.0054,14.1986,278.02,1345.1,0.4993,3.0755,11.3505,0.2075,4.5228,-2.5283,-0.0027,-0.4119,-0.5506,-0.3131,-0.0988,-0.4068,-0.0108,-0.0568,0.0135,1.0977,0.3101,0.2259,0.7741,0.0,24931200.0
212,0.63,1.3092,-0.0004,14.1783,269.18,1348.13,0.5213,3.0258,10.5003,0.201,4.729,-2.4851,-0.0027,-0.4082,-0.5589,-0.3207,-0.122,-0.3489,-0.0109,-0.0565,0.0158,1.171,0.3091,0.2401,0.7599,0.0,25048800.0
213,0.63,1.2707,-0.0098,14.1618,253.7,1295.15,0.4832,2.787,9.1674,0.1891,4.5139,-2.2848,-0.0025,-0.3789,-0.505,-0.2837,-0.0982,-0.2877,-0.0099,-0.0518,0.0191,1.1242,0.2765,0.2537,0.7463,0.0,25166400.0
214,0.63,1.2786,-0.0076,14.1365,257.97,1217.97,0.4355,2.5978,9.5369,0.1743,4.016,-2.1236,-0.0022,-0.3555,-0.4807,-0.2667,-0.0881,-0.3085,-0.0091,-0.048,0.0216,0.9212,0.2572,0.2664,0.7336,0.0,25284000.0
215,0.63,1.3467,-0.0075,14.1192,261.45,1253.77,0.4748,2.9146,10.6213,0.1963,4.587,-2.3866,-0.0025,-0.3901,-0.5014,-0.3014,-0.12,-0.337,-0.0105,-0.055,0.0249,1.0619,0.2912,0.2777,0.7223,0.0,25401600.0
216,0.63,1.2264,-0.0018,14.108,236.46,1106.93,0.4155,2.4281,9.1017,0.1613,3.7038,-1.9906,-0.0022,-0.3365,-0.4381,-0.2506,-0.0805,-0.2881,-0.0085,-0.0452,0.0268,0.8431,0.2458,0.2861,0.7139,0.0,25519200.0
217,0.63,1.217,-0.0033,14.0861,267.9,1324.94,0.5191,2.862,9.4475,0.1894,4.6876,-2.3394,-0.0026,-0.3911,-0.506,-0.3013,-0.1013,-0.2833,-0.0102,-0.0531,0.0298,1.1712,0.2885,0.2941,0.7059,0.0,25636800.0
218,0.63,1.2178,-0.0093,14.0686,247.39,1262.46,0.4931,2.8925,9.5779,0.1895,4.5155,-2.3689,-0.0026,-0.3838,-0.5552,-0.304,-0.1006,-0.3365,-0.0102,-0.0533,0.034,1.1732,0.2956,0.3072,0.6928,0.0,25754400.0
219,0.63,1.1922,-0.0068,14.0539,266.24,1297.31,0.4993,2.9172,10.1775,0.1929,4.5237,-2.3958,-0.0028,-0.404,-0.5266,-0.3058,-0.1248,-0.3377,-0.0106,-0.0558,0.0366,1.1133,0.3013,0.3161,0.6839,0.0,25872000.0
220,0.63,1.1812,-0.0072,14.0415,248.57,1212.09,0.4394,2.7005,9.9512,0.1756,3.8321,-2.2068,-0.0025,-0.3664,-0.4799,-0.2884,-0.1022,-0.3861,-0.0097,-0.0508,0.0387,0.9491,0.2722,0.325,0.675,0.0,25989600.0
221,0.63,1.2626,-0.0077,14.0235,244.24,1189.74,0.5052,2.8769,10.4482,0.1872,4.2894,-2.3498,-0.0029,-0.3924,-0.5721,-0.3089,-0.0955,-0.351,-0.0102,-0.0534,0.0426,1.04,0.2955,0.3333,0.6667,0.0,26107200.0
222,0.63,1.0305,-0.0095,14.0087,235.24,1174.11,0.4277,2.4484,8.5476,0.1572,3.7182,-2.0002,-0.0023,-0.3336,-0.4468,-0.2614,-0.0935,-0.2948,-0.0088,-0.0464,0.0461,0.9156,0.2446,0.3412,0.6588,0.0,26224800.0
223,0.63,1.0972,-0.0082,13.97,218.37,1097.13,0.4474,2.4828,8.6335,0.1608,3.9516,-2.0268,-0.0024,-0.3516,-0.4587,-0.2708,-0.0853,-0.2593,-0.0088,-0.0471,0.0479,0.9492,0.2577,0.346,0.654,0.0,26342400.0
224,0.63,1.1105,-0.0036,13.9627,297.25,1399.3,0.5306,3.1131,11.2334,0.204,4.7223,-2.5379,-0.0031,-0.4127,-0.5619,-0.3297,-0.0981,-0.37,-0.0109,-0.0566,0.051,1.1728,0.3148,0.3532,0.6468,0.0,26460000.0
225,0.63,1.0162,-0.007,13.9527,268.6,1324.21,0.5146,3.0134,10.3789,0.1949,4.376,-2.4647,-0.0031,-0.4186,-0.553,-0.3147,-0.1004,-0.4024,-0.0107,-0.0566,0.0545,1.1874,0.314,0.3624,0.6376,0.0,26577600.0
226,0.63,1.2579,-0.0034,13.9302,215.01,1050.1,0.4184,2.4918,9.3942,0.1601,3.616,-2.028,-0.0025,-0.3365,-0.4885,-0.2676,-0.0894,-0.3301,-0.0089,-0.0457,0.0569,0.8734,0.2531,0.37,0.63,0.0,26695200.0
227,0.62,1.1562,-0.0012,13.9156,276.96,1310.94,0.5269,3.1086,12.1546,0.1976,4.5373,-2.5271,-0.003,-0.4079,-0.5512,-0.3388,-0.1409,-0.4154,-0.0114,-0.0581,0.059,0.9719,0.3059,0.3759,0.6241,0.0,26812800.0
228,0.62,1.1079,-0.0024,13.9069,244.79,1223.04,0.4962,2.6957,8.7791,0.1737,4.2923,-2.1871,-0.0028,-0.3609,-0.4772,-0.2819,-0.0718,-0.2776,-0.0093,-0.0491,0.0618,1.1244,0.2675,0.3842,0.6158,0.0,26930400.0
229,0.62,1.0766,-0.0063,13.8848,247.38,1190.49,0.5308,2.9035,10.0335,0.1873,4.6311,-2.3644,-0.0028,-0.394,-0.5577,-0.3224,-0.1141,-0.3057,-0.0105,-0.0542,0.064,1.1106,0.2982,0.3899,0.6101,0.0,27048000.0
230,0.62,0.9967,-0.0032,13.8444,267.47,1322.15,0.5483,3.1964,11.005,0.2029,4.703,-2.5985,-0.0033,-0.4343,-0.6018,-0.346,-0.1306,-0.4106,-0.0115,-0.0604,0.0674,1.2934,0.33,0.3978,0.6022,0.0,27165600.0
231,0.62,1.0608,-0.006,13.8299,263.67,1257.59,0.5097,2.8693,10.4851,0.1829,4.3486,-2.3316,-0.0028,-0.3899,-0.5319,-0.3026,-0.1091,-0.3577,-0.0103,-0.0537,0.0709,0.9985,0.2982,0.4047,0.5953,0.0,27283200.0
232,0.62,0.992,-0.0093,13.8053,257.02,1266.48,0.4681,2.6468,9.0866,0.1659,3.9602,-2.1486,-0.0027,-0.3648,-0.4585,-0.2971,-0.1063,-0.3254,-0.0096,-0.0514,0.0739,1.0522,0.2657,0.4106,0.5894,0.0,27400800.0
233,0.62,1.0281,-0.0078,13.7912,274.23,1364.82,0.52,3.0619,10.5689,0.1919,4.5435,-2.489,-0.003,-0.4106,-0.5255,-0.3328,-0.0932,-0.3973,-0.0107,-0.057,0.078,1.2137,0.3185,0.4182,0.5818,0.0,27518400.0
234,0.62,1.1603,-0.0068,13.7742,272.59,1320.58,0.5706,3.1596,10.9551,0.1996,5.0166,-2.5575,-0.0031,-0.4243,-0.5791,-0.3383,-0.1097,-0.3345,-0.0112,-0.0585,0.0814,1.1968,0.3157,0.4251,0.5749,0.0,27636000.0
235,0.62,1.0548,-0.0042,13.7602,250.76,1183.7,0.4599,2.5264,9.2091,0.1597,4.0206,-2.0492,-0.0025,-0.3551,-0.4317,-0.2647,-0.0885,-0.2772,-0.009,-0.0482,0.0862,0.9017,0.2605,0.434,0.566,0.0,27753600.0
236,0.62,1.0361,-0.0078,13.7356,253.62,1297.24,0.4985,2.8548,9.0001,0.1773,4.4528,-2.3089,-0.0027,-0.3866,-0.5289,-0.3137,-0.1036,-0.3239,-0.0102,-0.0537,0.0893,1.2628,0.2927,0.4423,0.5577,0.0,27871200.0
237,0.62,0.8737,-0.0035,13.7173,225.81,1127.68,0.4736,2.6886,10.0124,0.1695,3.9264,-2.1867,-0.0031,-0.3922,-0.4936,-0.2956,-0.1018,-0.3549,-0.0097,-0.0526,0.0919,0.9344,0.2943,0.4483,0.5517,0.0,27988800.0
238,0.62,1.0685,-0.0096,13.6823,239.23,1182.26,0.509,3.0404,11.7873,0.1862,4.1571,-2.4778,-0.0029,-0.4178,-0.5893,-0.3393,-0.1172,-0.4731,-0.0109,-0.0576,0.0946,0.9995,0.3336,0.4532,0.5468,0.0,28106400.0
239,0.61,1.0312,-0.0082,13.6687,252.71,1238.73,0.4686,2.6151,9.4861,0.1576,3.8885,-2.1263,-0.0028,-0.3678,-0.4982,-0.2976,-0.103,-0.3363,-0.0095,-0.0512,0.0969,0.9837,0.2807,0.4579,0.5421,0.0,28224000.0
240,0.61,0.9584,-0.0079,13.637,264.5,1293.46,0.5239,2.8805,10.4311,0.1761,4.4832,-2.3309,-0.003,-0.4013,-0.508,-0.3207,-0.1161,-0.3213,-0.0104,-0.0563,0.1007,1.0519,0.2978,0.4626,0.5374,0.0,28341600.0
241,0.61,0.9962,-0.0067,13.5905,236.43,1152.48,0.438,2.3868,8.8682,0.1414,3.4702,-1.9339,-0.0028,-0.342,-0.4563,-0.2725,-0.0865,-0.3117,-0.0086,-0.046,0.1038,0.8679,0.2557,0.4691,0.5309,0.0,28459200.0
242,0.61,1.0174,-0.0051,13.5652,241.88,1197.75,0.4923,2.6521,8.8891,0.1592,4.1058,-2.1497,-0.0029,-0.3784,-0.5068,-0.2942,-0.0953,-0.3048,-0.0095,-0.051,0.1065,1.1215,0.2875,0.4739,0.5261,0.0,28576800.0
243,0.61,0.9458,-0.0096,13.5393,256.88,1270.62,0.5432,3.0386,10.4351,0.1895,4.7693,-2.4619,-0.0031,-0.4252,-0.4997,-0.3238,-0.1102,-0.341,-0.0109,-0.06,0.1092,1.2068,0.3133,0.4783,0.5217,0.0,28694400.0
244,0.61,0.9872,-0.0078,13.5141,231.88,1110.58,0.4238,2.3367,8.8236,0.1452,3.6008,-1.894,-0.0025,-0.3537,-0.3747,-0.2472,-0.0905,-0.2761,-0.0084,-0.0477,0.1139,0.7807,0.2473,0.4835,0.5165,0.0,28812000.0
245,0.61,0.9956,-0.0073,13.4936,233.91,1142.57,0.4433,2.471,8.5306,0.1469,3.8379,-2.0043,-0.0026,-0.345,-0.472,-0.2842,-0.1148,-0.2911,-0.0093,-0.0475,0.1169,0.9534,0.2655,0.4872,0.5128,0.0,28929600.0
246,0.61,1.0007,-0.0063,13.4686,247.51,1139.81,0.5044,2.7577,11.0466,0.1722,4.3123,-2.2263,-0.0028,-0.4036,-0.4928,-0.2911,-0.0891,-0.3241,-0.0097,-0.0537,0.1189,0.8643,0.2963,0.4915,0.5085,0.0,29047200.0
247,0.61,1.0637,-0.0084,13.4325,236.37,1090.72,0.3509,2.0127,7.7579,0.1214,2.878,-1.6248,-0.0021,-0.3041,-0.352,-0.225,-0.0893,-0.2882,-0.0075,-0.0406,0.1211,0.6787,0.2187,0.494,0.506,0.0,29164800.0
248,0.6,1.0703,-0.0075,13.3955,221.58,1069.9,0.4184,2.3656,8.3989,0.1444,3.5097,-1.9194,-0.0024,-0.348,-0.3987,-0.2603,-0.1123,-0.3141,-0.0087,-0.0486,0.1241,0.8944,0.2573,0.4966,0.5034,0.0,29282400.0
249,0.6,0.9605,-0.0081,13.3508,242.43,1195.17,0.4821,2.6559,9.4459,0.1594,4.0213,-2.1401,-0.0027,-0.3891,-0.4609,-0.2924,-0.0929,-0.3242,-0.0095,-0.0532,0.127,0.98,0.2865,0.5001,0.4999,0.0,29400000.0
250,0.6,1.2664,-0.0054,13.3308,218.94,1089.83,0.4444,2.5202,8.7032,0.1491,3.7129,-2.0433,-0.0026,-0.3738,-0.4418,-0.2765,-0.0941,-0.3483,-0.0091,-0.0501,0.1287,1.0107,0.2851,0.5021,0.4979,0.0,29517600.0
251,0.6,0.909,-0.0073,13.3047,222.35,1093.16,0.4047,2.2806,8.3671,0.1354,3.3518,-1.8402,-0.0024,-0.3409,-0.3656,-0.2473,-0.0816,-0.3068,-0.0081,-0.0466,0.1312,0.8367,0.2507,0.5058,0.4942,0.0,29635200.0
252,0.6,1.0263,-0.0045,13.2736,228.2,1092.19,0.428,2.4351,8.7434,0.1431,3.5349,-1.9696,-0.0025,-0.3701,-0.4077,-0.2696,-0.0885,-0.341,-0.0087,-0.0501,0.1335,0.8987,0.2718,0.5092,0.4908,0.0,29752800.0
253,0.6,0.9686,-0.0048,13.2749,256.03,1247.58,0.5316,2.9106,10.9834,0.1721,4.4525,-2.3546,-0.003,-0.4464,-0.5056,-0.3158,-0.1093,-0.3623,-0.0106,-0.0587,0.1356,0.9786,0.341,0.513,0.487,0.0,29870400.0
254,0.6,1.0705,-0.0055,13.2601,244.62,1237.77,0.4777,2.6622,9.0133,0.1524,3.9965,-2.1405,-0.003,-0.3903,-0.4636,-0.2929,-0.1122,-0.3308,-0.0097,-0.0534,0.1377,1.0773,0.2919,0.517,0.483,0.0,29988000.0
255,0.6,1.0096,-0.0077,13.2523,220.68,1146.55,0.4301,2.3024,7.9384,0.1324,3.5557,-1.8536,-0.0024,-0.3506,-0.4029,-0.2599,-0.0999,-0.2706,-0.0084,-0.0473,0.1391,0.9058,0.2593,0.5206,0.4794,0.0,30105600.0
256,0.6,1.0093,-0.0108,13.2208,236.41,1178.04,0.4711,2.4767,8.9034,0.1416,3.7912,-1.9956,-0.0027,-0.3805,-0.424,-0.2629,-0.063,-0.3008,-0.0086,-0.0496,0.1401,0.9165,0.2855,0.5224,0.4776,0.0,30223200.0
257,0.6,1.1901,-0.0085,13.1969,247.39,1209.17,0.4914,2.6645,9.4793,0.1554,4.0409,-2.1442,-0.0028,-0.398,-0.4832,-0.3049,-0.0994,-0.3262,-0.0096,-0.0541,0.1418,1.0112,0.3005,0.5264,0.4736,0.0,30340800.0
258,0.6,0.9952,-0.01,13.1774,227.22,1083.22,0.3769,2.2224,8.7651,0.1258,3.1176,-1.7954,-0.0022,-0.3341,-0.369,-0.2481,-0.1017,-0.3421,-0.0082,-0.046,0.1439,0.6907,0.2533,0.5307,0.4693,0.0,30458400.0
259,0.6,0.8966,-0.0074,13.1644,253.42,1215.53,0.4707,2.9083,11.6389,0.1646,3.8951,-2.3419,-0.0029,-0.4055,-0.4675,-0.3372,-0.1061,-0.4993,-0.0104,-0.0579,0.1475,0.9117,0.3196,0.5345,0.4655,0.0,30576000.0
260,0.59,1.0717,-0.0022,13.1454,227.34,1116.58,0.4151,2.2916,8.0786,0.1328,3.5281,-1.8448,-0.0024,-0.3509,-0.4077,-0.2663,-0.1044,-0.2852,-0.0085,-0.047,0.1504,0.9038,0.2612,0.5383,0.4617,0.0,30693600.0
261,0.59,0.9753,-0.0096,13.1217,232.11,1149.3,0.4632,2.6681,9.9206,0.1524,3.81,-2.1471,-0.0029,-0.3868,-0.4862,-0.2996,-0.1022,-0.3843,-0.0097,-0.0535,0.1523,0.9383,0.3003,0.5412,0.4588,0.0,30811200.0
262,0.59,0.9389,-0.0085,13.1063,285.73,1395.62,0.5194,2.9684,10.9566,0.1652,4.4152,-2.3845,-0.0029,-0.4324,-0.481,-0.3315,-0.1443,-0.4056,-0.0111,-0.0607,0.1553,1.0926,0.3396,0.545,0.455,0.0,30928800.0
263,0.59,1.0895,-0.0059,13.0827,270.13,1269.32,0.5155,2.7789,10.6738,0.1623,4.1663,-2.2373,-0.0032,-0.4327,-0.4458,-0.2969,-0.0977,-0.35,-0.01,-0.0575,0.1585,0.927,0.3281,0.5489,0.4511,0.0,31046400.0
264,0.59,0.9128,-0.0086,13.0637,272.06,1268.9,0.4942,2.7535,11.0704,0.1528,3.999,-2.2113,-0.0028,-0.41,-0.4582,-0.2934,-0.0877,-0.3997,-0.0098,-0.0561,0.1616,0.8519,0.3229,0.5528,0.4472,0.0,31164000.0
265,0.59,0.8968,-0.0076,13.0531,273.23,1303.63,0.5086,2.7975,10.2329,0.1623,4.2611,-2.2348,-0.003,-0.4334,-0.4237,-0.2923,-0.1041,-0.3572,-0.0101,-0.0586,0.165,1.0342,0.3152,0.5564,0.4436,0.0,31281600.0
266,0.59,0.8009,-0.0091,13.0422,260.91,1259.27,0.5217,2.7615,10.4175,0.1591,4.4152,-2.2105,-0.0029,-0.4449,-0.4303,-0.2901,-0.1039,-0.3064,-0.01,-0.0578,0.1677,0.9394,0.3261,0.5588,0.4412,0.0,31399200.0
267,0.59,0.9473,-0.0082,13.0153,277.09,1282.25,0.5344,2.8854,10.6004,0.1736,4.7124,-2.2959,-0.0029,-0.4312,-0.4405,-0.2855,-0.1057,-0.299,-0.0103,-0.0586,0.1715,1.0302,0.3154,0.5607,0.4393,0.0,31516800.0
268,0.59,0.887,-0.0091,13.0005,294.28,1369.16,0.5096,2.9706,10.7526,0.1672,4.3983,-2.3823,-0.0031,-0.4462,-0.4507,-0.3326,-0.1634,-0.3988,-0.0113,-0.0635,0.1752,1.1187,0.3397,0.5635,0.4365,0.0,31634400.0
269,0.59,0.8527,-0.0063,12.981,265.81,1305.45,0.5306,2.9694,10.6932,0.1721,4.2729,-2.3649,-0.0033,-0.4392,-0.469,-0.3162,-0.0936,-0.4217,-0.0104,-0.0596,0.1775,1.1234,0.3318,0.5665,0.4335,0.0,31752000.0
270,0.59,0.9686,-0.006,12.9829,290.09,1439.56,0.5141,3.0609,11.3038,0.1802,4.5157,-2.4475,-0.0031,-0.4642,-0.4713,-0.3105,-0.1258,-0.4193,-0.0112,-0.0635,0.1814,1.0827,0.3462,0.5695,0.4305,0.0,31869600.0
271,0.59,0.8489,-0.009,12.9285,308.19,1427.74,0.5232,3.0462,11.705,0.1772,4.5892,-2.4252,-0.003,-0.447,-0.4647,-0.3237,-0.1089,-0.3929,-0.0109,-0.0626,0.1852,0.9596,0.3321,0.5713,0.4287,0.0,31987200.0
272,0.59,0.9841,-0.0081,12.926,293.63,1380.29,0.5869,3.2101,11.7654,0.1863,5.0132,-2.5516,-0.0033,-0.4843,-0.4825,-0.3318,-0.1245,-0.3714,-0.0115,-0.0672,0.1902,1.1603,0.3587,0.5743,0.4257,0.0,32104800.0
273,0.59,0.9532,-0.0049,12.9076,291.77,1376.31,0.5692,3.3829,12.5414,0.2027,5.2365,-2.6938,-0.0034,-0.4886,-0.4983,-0.3471,-0.1536,-0.4199,-0.0124,-0.0706,0.1958,1.1965,0.3746,0.577,0.423,0.0,32222400.0
274,0.59,0.8886,-0.0079,12.8798,308.43,1393.19,0.5561,3.0918,12.9415,0.1832,4.7346,-2.4575,-0.0033,-0.4751,-0.4493,-0.3182,-0.1247,-0.3846,-0.0113,-0.0651,0.1998,0.8528,0.3505,0.5789,0.4211,0.0,32340000.0
275,0.58,0.9067,-0.0092,12.8621,285.86,1365.64,0.5501,3.0556,11.411,0.177,4.6932,-2.4377,-0.0031,-0.4716,-0.4493,-0.3222,-0.0981,-0.3763,-0.0108,-0.0641,0.2057,1.0816,0.358,0.5807,0.4193,0.0,32457600.0
276,0.58,1.0852,-0.0082,12.8472,312.5,1486.62,0.5816,3.3683,12.6175,0.1978,5.1401,-2.6721,-0.0033,-0.5004,-0.4787,-0.3577,-0.1553,-0.4352,-0.0125,-0.0709,0.2139,1.1973,0.38,0.5838,0.4162,0.0,32575200.0
277,0.58,0.9806,-0.0101,12.8392,325.93,1463.77,0.5952,3.3448,13.3764,0.2082,5.2529,-2.6436,-0.0033,-0.513,-0.4392,-0.3149,-0.1279,-0.3794,-0.0119,-0.0717,0.2234,1.0448,0.365,0.5857,0.4143,0.0,32692800.0
278,0.58,0.957,-0.0067,12.8298,309.77,1363.35,0.5265,3.0607,12.621,0.1822,4.5772,-2.4253,-0.003,-0.4738,-0.4117,-0.2944,-0.1041,-0.4055,-0.0108,-0.0644,0.2328,0.9175,0.3471,0.588,0.412,0.0,32810400.0
279,0.58,0.9438,-0.004,12.8093,316.34,1426.08,0.5322,3.0388,12.1622,0.179,4.5736,-2.4125,-0.0031,-0.4805,-0.4186,-0.3023,-0.1388,-0.3976,-0.0112,-0.0658,0.2423,0.9322,0.35,0.5902,0.4098,0.0,32928000.0
280,0.58,0.8605,-0.0088,12.7895,291.46,1384.62,0.483,3.0519,11.868,0.1789,4.2149,-2.4153,-0.0031,-0.4634,-0.4232,-0.3158,-0.1175,-0.4831,-0.011,-0.0645,0.2489,1.0076,0.3434,0.5917,0.4083,0.0,33045600.0
281,0.58,0.8495,-0.0092,12.7615,346.61,1589.43,0.6431,3.5237,13.4218,0.2098,5.5163,-2.7873,-0.0036,-0.5302,-0.4991,-0.3528,-0.1319,-0.4067,-0.0126,-0.0749,0.2568,1.2034,0.3919,0.5944,0.4056,0.0,33163200.0
282,0.58,0.8793,-0.0066,12.7597,317.31,1461.63,0.5526,3.1205,11.9568,0.191,4.9568,-2.4538,-0.0031,-0.4779,-0.4083,-0.2921,-0.1332,-0.3468,-0.0113,-0.0666,0.2678,1.005,0.3343,0.5964,0.4036,0.0,33280800.0
283,0.58,1.0166,-0.0087,12.7217,341.53,1537.72,0.567,3.3489,13.2418,0.2071,4.9541,-2.6326,-0.0033,-0.5139,-0.4561,-0.3048,-0.1056,-0.4416,-0.0117,-0.0699,0.2783,1.026,0.3604,0.5976,0.4024,0.0,33398400.0
284,0.58,1.1351,-0.0098,12.7065,334.91,1546.07,0.6114,3.4868,13.0293,0.2111,5.3567,-2.7463,-0.0035,-0.5361,-0.4665,-0.3297,-0.1236,-0.426,-0.0123,-0.0736,0.2895,1.2529,0.385,0.5997,0.4003,0.0,33516000.0
285,0.58,1.0211,-0.0087,12.6897,348.2,1590.5,0.6418,3.591,13.6343,0.2123,5.6534,-2.839,-0.0036,-0.5467,-0.4881,-0.3596,-0.1384,-0.4189,-0.0129,-0.0758,0.3016,1.2418,0.4078,0.6011,0.3989,0.0,33633600.0
286,0.58,0.8257,-0.005,12.6981,363.68,1633.63,0.6418,3.6636,14.3927,0.2243,5.7619,-2.8721,-0.0036,-0.5525,-0.4898,-0.3448,-0.1507,-0.4197,-0.0132,-0.0775,0.3165,1.1581,0.3939,0.6029,0.3971,0.0,33751200.0
287,0.58,0.88,-0.0102,12.6464,350.26,1580.78,0.6289,3.4668,13.8883,0.211,5.4973,-2.7274,-0.0036,-0.5299,-0.4645,-0.3381,-0.1414,-0.3821,-0.0125,-0.0748,0.3317,1.0534,0.3835,0.6049,0.3951,0.0,33868800.0
288,0.58,0.9121,-0.0091,12.6415,335.49,1540.62,0.5963,3.4298,12.8081,0.21,5.3586,-2.6819,-0.0034,-0.5269,-0.4434,-0.3207,-0.1203,-0.4003,-0.0122,-0.0722,0.3433,1.1803,0.3711,0.6064,0.3936,0.0,33986400.0
289,0.58,1.0242,-0.0075,12.6124,353.97,1613.31,0.673,3.669,14.366,0.2149,5.8689,-2.8849,-0.0037,-0.5522,-0.4848,-0.3604,-0.1505,-0.4027,-0.0133,-0.0778,0.3558,1.1584,0.4118,0.6074,0.3926,0.0,34104000.0
290,0.58,0.8366,-0.0087,12.6038,332.39,1566.39,0.6445,3.615,13.4351,0.219,5.4913,-2.8344,-0.0038,-0.5719,-0.4884,-0.3522,-0.1589,-0.4385,-0.0132,-0.0783,0.3702,1.2587,0.4008,0.6084,0.3916,0.0,34221600.0
291,0.57,1.045,-0.005,12.587,361.47,1611.62,0.6246,3.4637,13.8918,0.2099,5.2544,-2.7143,-0.0037,-0.5446,-0.452,-0.3196,-0.1548,-0.4205,-0.0127,-0.0755,0.3844,1.0556,0.3837,0.6115,0.3885,0.0,34339200.0
292,0.57,0.7883,-0.0074,12.5641,379.91,1702.79,0.6823,3.8302,14.7174,0.2342,6.0537,-2.9909,-0.0038,-0.5764,-0.4852,-0.3641,-0.1604,-0.4277,-0.0137,-0.0823,0.3985,1.2778,0.4116,0.6133,0.3867,0.0,34456800.0
293,0.57,0.9462,-0.0075,12.5579,362.4,1607.6,0.6346,3.5416,13.8816,0.2177,5.5127,-2.7547,-0.0036,-0.5533,-0.4537,-0.3197,-0.1403,-0.4022,-0.0126,-0.0764,0.4114,1.1168,0.3782,0.6152,0.3848,0.0,34574400.0
294,0.57,0.9223,-0.009,12.5386,355.73,1594.19,0.6477,3.5013,13.2428,0.2159,5.551,-2.7254,-0.0036,-0.5518,-0.445,-0.3151,-0.1327,-0.378,-0.0124,-0.0762,0.4248,1.1948,0.3748,0.6168,0.3832,0.0,34692000.0
295,0.57,0.8549,-0.0092,12.5328,347.45,1531.4,0.6285,3.4084,13.686,0.2029,5.4949,-2.6715,-0.0035,-0.5345,-0.4318,-0.3274,-0.1353,-0.3675,-0.0122,-0.0743,0.4377,1.0548,0.3819,0.6182,0.3818,0.0,34809600.0
296,0.57,0.8571,-0.0039,12.5181,362.73,1657.6,0.629,3.6035,14.3875,0.2155,5.4801,-2.8116,-0.0037,-0.5585,-0.4583,-0.3464,-0.1698,-0.4398,-0.0133,-0.0795,0.4531,1.1048,0.4013,0.6202,0.3798,0.0,34927200.0
297,0.57,0.8772,-0.0043,12.4883,366.77,1666.02,0.661,3.6235,13.6832,0.2172,5.686,-2.8126,-0.0037,-0.5568,-0.4617,-0.3218,-0.1337,-0.4002,-0.0129,-0.0779,0.4695,1.2087,0.3894,0.6235,0.3765,0.0,35044800.0
298,0.57,0.7446,-0.0093,12.4554,385.97,1741.59,0.715,3.9157,15.3921,0.2343,6.0413,-3.0513,-0.0042,-0.6106,-0.5085,-0.3633,-0.1752,-0.4471,-0.0144,-0.0863,0.4838,1.2502,0.4281,0.6272,0.3728,0.0,35162400.0
299,0.57,0.9092,-0.008,12.4436,361.37,1638.79,0.6533,3.6892,14.1323,0.2175,5.7111,-2.8828,-0.0038,-0.5641,-0.471,-0.3657,-0.1767,-0.4385,-0.0136,-0.0821,0.4973,1.2163,0.4071,0.63,0.37,0.0,35280000.0
300,0.57,0.7963,-0.0085,12.4263,340.89,1549.69,0.6357,3.5007,13.5122,0.2067,5.3302,-2.7277,-0.0038,-0.5527,-0.46,-0.3477,-0.1445,-0.4183,-0.0126,-0.0769,0.5093,1.1487,0.3902,0.6334,0.3666,0.0,35397600.0
301,0.57,0.8226,-0.0072,12.4188,362.46,1620.97,0.6239,3.4043,13.3556,0.2011,5.4551,-2.6427,-0.0035,-0.5278,-0.4273,-0.3134,-0.1167,-0.3593,-0.012,-0.0742,0.5229,1.0659,0.3703,0.6346,0.3654,0.0,35515200.0
302,0.57,0.7983,-0.0077,12.3899,349.12,1604.2,0.6383,3.5596,13.6268,0.2075,5.5361,-2.7754,-0.0036,-0.5479,-0.4533,-0.3477,-0.1407,-0.4123,-0.0127,-0.0782,0.5341,1.1853,0.3948,0.6369,0.3631,0.0,35632800.0
303,0.57,0.7792,-0.0086,12.3627,357.83,1570.47,0.5961,3.2476,13.6157,0.1895,5.0198,-2.5162,-0.0034,-0.5201,-0.4245,-0.3166,-0.1444,-0.3644,-0.0118,-0.0721,0.5454,0.9065,0.3581,0.6386,0.3614,0.0,35750400.0
304,0.57,0.7499,0.0015,12.3622,355.35,1583.07,0.6369,3.6108,14.6387,0.2031,5.383,-2.8191,-0.0038,-0.5573,-0.5103,-0.3785,-0.1608,-0.463,-0.0132,-0.0807,0.5556,1.075,0.4063,0.6405,0.3595,0.0,35868000.0
305,0.57,0.8406,-0.0067,12.3503,358.43,1625.07,0.6636,3.6545,13.4772,0.2075,5.607,-2.848,-0.0038,-0.5779,-0.495,-0.3606,-0.1265,-0.4284,-0.013,-0.0807,0.5663,1.3096,0.4134,0.6427,0.3573,0.0,35985600.0
306,0.56,0.7694,-0.0099,12.3252,345.24,1542.67,0.5976,3.3534,12.6125,0.1917,5.1602,-2.5906,-0.0035,-0.5129,-0.422,-0.335,-0.1358,-0.4006,-0.0121,-0.0737,0.5755,1.1322,0.3683,0.6455,0.3545,0.0,36103200.0
307,0.56,0.8088,-0.0053,12.3123,349.82,1584.18,0.6343,3.7198,14.7802,0.2079,5.5516,-2.8795,-0.0038,-0.5672,-0.4855,-0.3758,-0.1522,-0.4806,-0.0134,-0.0815,0.5849,1.1448,0.4134,0.6473,0.3527,0.0,36220800.0
308,0.56,0.8518,-0.0092,12.2912,348.9,1548.8,0.6014,3.3609,13.5761,0.1917,5.2161,-2.589,-0.0033,-0.5109,-0.4295,-0.3138,-0.0993,-0.402,-0.0116,-0.0719,0.5943,0.998,0.3627,0.6481,0.3519,0.0,36338400.0
309,0.56,0.7914,-0.0094,12.2766,338.65,1513.46,0.6404,3.5508,13.971,0.1899,5.5296,-2.7576,-0.0036,-0.5516,-0.4651,-0.3665,-0.1502,-0.4191,-0.013,-0.0789,0.6021,1.1077,0.4052,0.6487,0.3513,0.0,36456000.0
310,0.56,0.7616,-0.0064,12.2535,340.14,1525.35,0.6308,3.4157,13.6505,0.1861,5.3228,-2.655,-0.0037,-0.5425,-0.4438,-0.348,-0.1359,-0.3997,-0.0123,-0.0774,0.6117,1.0936,0.4019,0.651,0.349,0.0,36573600.0
311,0.56,0.856,-0.0093,12.2306,343.82,1492.21,0.5921,3.2534,13.5281,0.1799,5.0361,-2.5234,-0.0034,-0.5079,-0.4221,-0.3341,-0.1389,-0.3911,-0.0119,-0.0728,0.621,0.917,0.3707,0.6512,0.3488,0.0,36691200.0
312,0.56,0.9611,-0.0039,12.2203,336.14,1464.64,0.5721,2.9668,11.8508,0.1619,4.7667,-2.3031,-0.0031,-0.4763,-0.3922,-0.2992,-0.1114,-0.3151,-0.0106,-0.0667,0.6288,0.935,0.3447,0.6524,0.3476,0.0,36808800.0
313,0.56,0.8186,-0.0054,12.2104,345.35,1558.71,0.6296,3.3623,13.1604,0.1798,5.0427,-2.6014,-0.0039,-0.5627,-0.4495,-0.3339,-0.1342,-0.4094,-0.0122,-0.078,0.6382,1.1082,0.3959,0.653,0.347,0.0,36926400.0
314,0.56,0.7194,-0.0061,12.2019,365.55,1586.71,0.6753,3.6779,14.9695,0.1937,5.7364,-2.8643,-0.0039,-0.5806,-0.5109,-0.3959,-0.1847,-0.4329,-0.0138,-0.084,0.6467,1.1054,0.4436,0.6541,0.3459,0.0,37044000.0
315,0.56,0.7468,-0.0044,12.1895,358.52,1592.96,0.6169,3.1263,12.0469,0.1701,5.029,-2.4129,-0.0035,-0.5093,-0.4159,-0.312,-0.1247,-0.3193,-0.0113,-0.071,0.6562,1.034,0.3621,0.6554,0.3446,0.0,37161600.0
316,0.56,0.797,-0.009,12.1635,349.25,1542.75,0.6443,3.3519,13.2907,0.1799,5.2121,-2.5928,-0.0038,-0.5608,-0.4567,-0.3282,-0.134,-0.3708,-0.0121,-0.0768,0.6644,1.0484,0.3954,0.6571,0.3429,0.0,37279200.0
317,0.56,0.7626,-0.0072,12.1435,344.82,1503.39,0.6819,3.4633,13.7675,0.1905,5.5094,-2.6664,-0.0039,-0.5722,-0.4499,-0.3266,-0.1324,-0.3577,-0.0124,-0.0788,0.6726,1.1064,0.394,0.6584,0.3416,0.0,37396800.0
318,0.56,0.7107,-0.0094,12.1208,360.66,1634.37,0.6923,3.5761,14.0371,0.1964,5.6281,-2.7507,-0.0039,-0.5842,-0.4771,-0.3429,-0.1442,-0.3749,-0.0128,-0.0814,0.6828,1.1526,0.4033,0.6593,0.3407,0.0,37514400.0
319,0.56,0.9554,-0.0083,12.1233,365.29,1612.95,0.726,3.6249,14.2614,0.1954,5.9103,-2.79,-0.004,-0.5865,-0.4765,-0.3535,-0.1376,-0.3404,-0.013,-0.0828,0.693,1.1414,0.4109,0.6603,0.3397,0.0,37632000.0
320,0.56,0.973,-0.009,12.1146,313.74,1368.62,0.5668,2.8917,11.9612,0.1505,4.5812,-2.2306,-0.0032,-0.477,-0.3957,-0.2929,-0.098,-0.3074,-0.0103,-0.0655,0.7015,0.8129,0.3326,0.6604,0.3396,0.0,37749600.0
321,0.56,0.8359,-0.0092,12.1058,291.23,1302.22,0.5565,2.8244,11.2905,0.1467,4.3809,-2.1808,-0.0032,-0.4795,-0.3915,-0.2864,-0.0942,-0.3164,-0.01,-0.0661,0.7088,0.881,0.3357,0.6591,0.3409,0.0,37867200.0
322,0.56,0.9204,-0.0098,12.091,306.88,1378.05,0.6641,3.3737,12.8434,0.1671,5.3224,-2.6222,-0.0039,-0.5618,-0.4921,-0.3707,-0.1512,-0.3669,-0.0124,-0.0791,0.7154,1.1791,0.4119,0.6576,0.3424,0.0,37984800.0
323,0.56,0.9092,-0.0051,12.0779,295.45,1356.04,0.5529,2.7644,10.4629,0.1453,4.334,-2.1317,-0.0032,-0.4827,-0.3818,-0.2679,-0.0979,-0.2966,-0.0098,-0.0647,0.722,0.938,0.3346,0.6573,0.3427,0.0,38102400.0
324,0.56,0.8036,-0.0096,12.0584,313.23,1442.49,0.6228,3.3615,12.9559,0.1752,5.0422,-2.5883,-0.0038,-0.562,-0.4501,-0.34,-0.1315,-0.4097,-0.0121,-0.0782,0.7298,1.1282,0.4041,0.6568,0.3432,0.0,38220000.0
325,0.55,0.7705,-0.0095,12.0401,304.88,1408.01,0.5418,3.0335,12.636,0.1514,4.2957,-2.3464,-0.0034,-0.5106,-0.4281,-0.3229,-0.1469,-0.4295,-0.0114,-0.0718,0.7377,0.8859,0.3638,0.6573,0.3427,0.0,38337600.0
326,0.55,0.7608,0.0076,12.0241,310.08,1420.21,0.6222,3.2182,11.8126,0.1665,5.0909,-2.471,-0.0035,-0.5279,-0.4245,-0.3254,-0.1415,-0.3448,-0.0117,-0.0758,0.745,1.1707,0.3691,0.6576,0.3424,0.0,38455200.0
327,0.55,0.7716,-0.0032,12.0232,327.83,1487.28,0.65,3.2479,12.8704,0.1735,5.1797,-2.4847,-0.0037,-0.541,-0.4314,-0.3196,-0.1528,-0.3247,-0.012,-0.0764,0.7534,1.0268,0.3684,0.6577,0.3423,0.0,38572800.0
328,0.55,0.8045,-0.0096,12.0046,319.16,1409.68,0.679,3.3225,13.0804,0.1744,5.2544,-2.5419,-0.0039,-0.5731,-0.4717,-0.3295,-0.1408,-0.3377,-0.0122,-0.0777,0.7595,1.0895,0.3958,0.6584,0.3416,0.0,38690400.0
329,0.55,0.8416,-0.0092,11.9826,323.07,1440.66,0.6482,3.2686,12.6076,0.1702,5.1725,-2.4991,-0.0037,-0.5448,-0.4438,-0.3235,-0.12,-0.3435,-0.0117,-0.0763,0.7665,1.1037,0.3816,0.6591,0.3409,0.0,38808000.0
330,0.55,0.6971,-0.0085,11.9705,334.02,1480.63,0.7063,3.4614,13.9227,0.1784,5.4648,-2.6533,-0.0042,-0.5977,-0.4933,-0.3571,-0.1538,-0.3528,-0.0127,-0.0827,0.7743,1.0566,0.4161,0.6606,0.3394,0.0,38925600.0
331,0.55,0.8092,-0.0064,11.9486,352.11,1553.56,0.7289,3.6454,15.2544,0.1909,5.7113,-2.7808,-0.0042,-0.6284,-0.5075,-0.3485,-0.1822,-0.3823,-0.0136,-0.0868,0.7816,1.0141,0.4215,0.6618,0.3382,0.0,39043200.0
332,0.55,0.7412,-0.0073,11.9357,345.24,1477.5,0.6499,3.1423,13.3479,0.1589,4.8825,-2.4081,-0.0039,-0.5585,-0.4463,-0.3216,-0.1307,-0.3294,-0.0115,-0.0752,0.7896,0.8667,0.3851,0.6624,0.3376,0.0,39160800.0
333,0.55,0.9472,-0.0084,11.9192,309.66,1348.75,0.5475,2.9071,12.0857,0.1448,4.4536,-2.2192,-0.0031,-0.4843,-0.3901,-0.2864,-0.0994,-0.3442,-0.0103,-0.0667,0.7984,0.8309,0.3371,0.6643,0.3357,0.0,39278400.0
334,0.55,0.833,-0.0108,11.9046,323.26,1410.62,0.6093,3.234,13.5803,0.1628,5.0232,-2.4748,-0.0035,-0.5201,-0.4344,-0.3255,-0.1252,-0.3705,-0.0117,-0.0748,0.806,0.9058,0.3732,0.6666,0.3334,0.0,39396000.0
335,0.55,0.7606,-0.0088,11.8969,310.93,1351.07,0.6199,3.0568,11.282,0.1588,4.8853,-2.3373,-0.0035,-0.5123,-0.3946,-0.31,-0.1619,-0.3012,-0.0114,-0.0755,0.8137,1.1419,0.3488,0.6683,0.3317,0.0,39513600.0
336,0.55,0.7916,-0.0084,11.8902,307.78,1363.29,0.6439,3.2721,13.1246,0.1637,5.0708,-2.4912,-0.0038,-0.5594,-0.4448,-0.328,-0.1675,-0.3512,-0.0122,-0.0785,0.8192,0.9808,0.3712,0.6688,0.3312,0.0,39631200.0
337,0.55,0.6569,-0.0044,11.8793,334.0,1527.03,0.6327,3.3125,12.2616,0.1664,5.1728,-2.513,-0.0036,-0.5535,-0.4414,-0.3161,-0.1431,-0.3584,-0.0119,-0.0783,0.8267,1.1583,0.3708,0.6701,0.3299,0.0,39748800.0
338,0.55,0.7304,-0.0077,11.8592,298.62,1377.81,0.5847,3.0225,11.6488,0.1499,4.5515,-2.3062,-0.0034,-0.5121,-0.4151,-0.3078,-0.138,-0.3545,-0.011,-0.072,0.8339,1.0051,0.348,0.6711,0.3289,0.0,39866400.0
339,0.55,0.8088,-0.0082,11.8549,306.45,1370.47,0.6413,3.1459,12.6865,0.1613,4.958,-2.385,-0.0037,-0.544,-0.4398,-0.2988,-0.1334,-0.3127,-0.0113,-0.0755,0.8413,0.9299,0.352,0.6719,0.3281,0.0,39984000.0
340,0.55,0.8242,-0.0076,11.8448,337.7,1494.89,0.6925,3.3656,13.5198,0.1729,5.2105,-2.5504,-0.004,-0.5838,-0.4581,-0.2952,-0.1127,-0.3472,-0.0118,-0.0807,0.8508,0.9976,0.3804,0.6745,0.3255,0.0,40101600.0
341,0.55,0.8122,-0.0102,11.8423,348.0,1514.39,0.7031,3.4649,13.6182,0.1739,5.6567,-2.6252,-0.0039,-0.5732,-0.4732,-0.3432,-0.1458,-0.3186,-0.0126,-0.0822,0.8598,1.0945,0.3891,0.676,0.324,0.0,40219200.0
342,0.55,0.6993,-0.0093,11.807,326.91,1454.9,0.6054,2.9694,11.9319,0.1498,4.7391,-2.2505,-0.0034,-0.5074,-0.4032,-0.303,-0.1265,-0.293,-0.0108,-0.0709,0.8673,0.9174,0.3409,0.676,0.324,0.0,40336800.0
343,0.55,0.7152,-0.0092,11.7895,347.14,1487.94,0.6538,3.2365,13.3617,0.1576,5.162,-2.463,-0.0036,-0.5511,-0.4256,-0.3346,-0.1222,-0.3256,-0.0116,-0.0778,0.875,0.9613,0.3775,0.6765,0.3235,0.0,40454400.0
344,0.54,0.6208,-0.0082,11.7611,350.77,1500.79,0.7155,3.2815,13.749,0.1677,5.2917,-2.4852,-0.0041,-0.5926,-0.4702,-0.3058,-0.1349,-0.2982,-0.0119,-0.0802,0.8832,0.9303,0.3944,0.6777,0.3223,0.0,40572000.0
345,0.54,0.7139,-0.0069,11.7478,333.04,1479.21,0.6326,3.2532,13.0324,0.1604,4.8226,-2.4712,-0.0039,-0.5867,-0.4567,-0.3267,-0.1579,-0.3955,-0.012,-0.0807,0.8893,1.009,0.3891,0.6786,0.3214,0.0,40689600.0
346,0.54,0.6386,-0.0053,11.7263,347.32,1528.32,0.6986,3.3738,13.0783,0.1698,5.3816,-2.5544,-0.004,-0.5768,-0.4651,-0.3284,-0.128,-0.3266,-0.0121,-0.08,0.8971,1.1065,0.3826,0.6793,0.3207,0.0,40807200.0
347,0.54,0.7177,-0.0065,11.7021,334.37,1434.98,0.6358,3.0292,12.4234,0.1454,4.7981,-2.3004,-0.0037,-0.5368,-0.4319,-0.3081,-0.1229,-0.3024,-0.011,-0.0739,0.9031,0.907,0.3642,0.68,0.32,0.0,40924800.0
348,0.54,0.6438,-0.0082,11.6902,367.64,1585.94,0.7433,3.641,14.5324,0.1828,5.7534,-2.7496,-0.0042,-0.6208,-0.5011,-0.3436,-0.1491,-0.3623,-0.0132,-0.0867,0.913,1.1096,0.4161,0.6818,0.3182,0.0,41042400.0
349,0.54,0.6914,-0.0081,11.6696,371.65,1570.19,0.6301,3.1729,13.6766,0.152,4.8333,-2.3994,-0.0037,-0.5441,-0.4308,-0.3031,-0.1389,-0.3522,-0.0116,-0.0767,0.9216,0.8093,0.3617,0.6839,0.3161,0.0,41160000.0
350,0.54,0.7619,-0.0025,11.6638,349.23,1498.22,0.6214,3.1884,12.9967,0.1608,4.8019,-2.4078,-0.0036,-0.5528,-0.446,-0.2853,-0.1184,-0.367,-0.0113,-0.0763,0.9286,0.9523,0.3617,0.6847,0.3153,0.0,41277600.0
351,0.54,0.572,-0.0082,11.6482,331.83,1446.45,0.6097,2.9892,12.2619,0.1496,4.644,-2.2479,-0.0036,-0.5261,-0.4208,-0.2849,-0.1366,-0.3081,-0.011,-0.073,0.9353,0.8774,0.3401,0.6833,0.3167,0.0,41395200.0
352,0.54,0.7471,-0.0084,11.6006,368.37,1564.97,0.7158,3.4846,14.7206,0.1727,5.5352,-2.6229,-0.004,-0.5998,-0.5073,-0.3268,-0.162,-0.3348,-0.0127,-0.0852,0.9435,0.9583,0.391,0.6837,0.3163,0.0,41512800.0
353,0.54,0.6101,-0.0085,11.585,359.3,1559.81,0.7388,3.6398,14.6556,0.1795,5.8225,-2.7304,-0.004,-0.6066,-0.4961,-0.341,-0.1245,-0.3505,-0.0127,-0.0853,0.951,1.103,0.4026,0.6843,0.3157,0.0,41630400.0
354,0.54,0.6985,-0.0081,11.5643,370.38,1582.87,0.7515,3.6241,14.5533,0.1889,5.8613,-2.7118,-0.0041,-0.6205,-0.5045,-0.3141,-0.1197,-0.3272,-0.0127,-0.0854,0.9584,1.1181,0.3959,0.6857,0.3143,0.0,41748000.0
355,0.54,0.6618,-0.0076,11.5281,374.91,1608.63,0.722,3.532,14.3116,0.1742,5.5859,-2.6559,-0.0041,-0.6047,-0.4884,-0.331,-0.1739,-0.3437,-0.0131,-0.0864,0.9654,1.0203,0.3996,0.6855,0.3145,0.0,41865600.0
356,0.54,0.691,-0.0074,11.5048,372.44,1556.65,0.6902,3.3694,15.0175,0.1675,5.092,-2.5216,-0.0041,-0.6021,-0.4874,-0.3018,-0.1358,-0.3623,-0.0121,-0.0827,0.9744,0.788,0.3788,0.6857,0.3143,0.0,41983200.0
357,0.54,0.6145,-0.0066,11.4951,365.55,1609.48,0.807,3.9001,14.8653,0.1952,5.9356,-2.9151,-0.0048,-0.7039,-0.5643,-0.3377,-0.1529,-0.408,-0.0139,-0.095,0.9853,1.3068,0.4497,0.6859,0.3141,0.0,42100800.0
358,0.53,0.5891,-0.0082,11.4851,371.52,1625.64,0.6969,3.4184,13.9235,0.1706,5.3818,-2.5625,-0.004,-0.5937,-0.4749,-0.3056,-0.1328,-0.3471,-0.0122,-0.0828,0.9946,1.043,0.3872,0.6866,0.3134,0.0,42218400.0
359,0.53,0.7245,-0.0061,11.4751,391.68,1692.15,0.7939,3.729,14.7591,0.1894,6.0231,-2.7961,-0.0044,-0.6434,-0.5196,-0.3303,-0.1255,-0.3342,-0.013,-0.0899,1.0069,1.1858,0.4152,0.6877,0.3123,0.0,42336000.0
360,0.53,0.625,-0.0053,11.4705,389.96,1656.64,0.7898,3.707,15.5504,0.1955,5.8189,-2.7602,-0.0046,-0.6579,-0.5339,-0.3107,-0.158,-0.3435,-0.0133,-0.0909,1.0191,1.0176,0.3996,0.6892,0.3108,0.0,42453600.0
361,0.53,0.6604,-0.0038,11.4575,391.11,1654.07,0.7408,3.952,16.6867,0.1991,5.8424,-2.9433,-0.0045,-0.6612,-0.5399,-0.3442,-0.1431,-0.4623,-0.0139,-0.0942,1.0307,1.0351,0.4148,0.6901,0.3099,0.0,42571200.0
362,0.53,0.634,-0.0091,11.4271,389.98,1691.72,0.7895,3.9132,15.7981,0.1964,6.0174,-2.932,-0.0046,-0.6714,-0.5494,-0.3545,-0.1565,-0.412,-0.0139,-0.0961,1.0426,1.1605,0.4418,0.6922,0.3078,0.0,42688800.0
363,0.53,0.5421,-0.0066,11.4109,402.06,1772.59,0.8129,4.0501,16.231,0.2079,6.2981,-3.008,-0.0047,-0.6855,-0.5542,-0.3547,-0.2164,-0.4038,-0.015,-0.0996,1.0549,1.2392,0.4262,0.6947,0.3053,0.0,42806400.0
364,0.53,0.6047,-0.0071,11.3776,387.58,1671.99,0.8006,3.7862,15.9001,0.1903,5.8848,-2.8154,-0.0046,-0.6746,-0.5317,-0.3344,-0.1513,-0.3684,-0.0135,-0.0933,1.0651,1.0386,0.4181,0.6961,0.3039,0.0,42924000.0
365,0.53,0.4704,-0.0046,11.3581,404.07,1673.39,0.779,3.7114,16.3951,0.1862,5.9591,-2.7665,-0.0043,-0.6366,-0.523,-0.3319,-0.1573,-0.3331,-0.0133,-0.0911,1.0779,0.8743,0.4043,0.6975,0.3025,0.0,43041600.0
366,0.53,0.5621,-0.0061,11.3266,430.06,1746.83,0.7791,3.7103,15.4966,0.196,5.9362,-2.745,-0.0043,-0.6401,-0.5168,-0.3094,-0.1525,-0.3294,-0.0132,-0.0906,1.09,1.0164,0.3906,0.6989,0.3011,0.0,43159200.0
367,0.53,0.5114,-0.0028,11.3295,409.92,1741.76,0.8206,3.8984,16.2185,0.1982,6.1566,-2.8979,-0.0047,-0.6885,-0.5547,-0.3501,-0.1836,-0.3657,-0.0142,-0.0971,1.103,1.1105,0.4286,0.7004,0.2996,0.0,43276800.0
368,0.53,0.6517,-0.0089,11.2997,435.15,1817.05,0.8249,4.0911,17.4969,0.2053,6.3352,-3.0293,-0.0048,-0.7062,-0.5657,-0.3587,-0.1865,-0.4103,-0.0148,-0.1008,1.1186,1.0512,0.4366,0.7036,0.2964,0.0,43394400.0
369,0.53,0.5737,-0.0084,11.2597,438.6,1848.7,0.8388,4.1848,17.1345,0.2135,6.6166,-3.094,-0.0046,-0.6894,-0.5695,-0.3555,-0.1774,-0.3948,-0.0149,-0.102,1.1351,1.1973,0.424,0.7066,0.2934,0.0,43512000.0
370,0.53,0.517,-0.0075,11.2411,427.07,1797.83,0.8527,4.0555,17.166,0.2105,6.4855,-2.996,-0.0047,-0.6991,-0.5666,-0.3596,-0.1827,-0.3565,-0.0146,-0.1001,1.1526,1.0957,0.4261,0.7079,0.2921,0.0,43629600.0
371,0.53,0.5956,-0.0063,11.2236,425.89,1793.6,0.78,3.8485,15.9387,0.1962,5.87,-2.8332,-0.0046,-0.6679,-0.5273,-0.3384,-0.1846,-0.3926,-0.0141,-0.0951,1.1692,1.0429,0.4079,0.7098,0.2902,0.0,43747200.0
372,0.53,0.5255,-0.0073,11.2066,436.36,1867.14,0.8321,4.278,18.3247,0.2187,6.6705,-3.164,-0.0047,-0.6997,-0.5779,-0.3803,-0.1857,-0.4401,-0.0153,-0.1035,1.1837,1.0947,0.4493,0.7114,0.2886,0.0,43864800.0
373,0.52,0.614,-0.0016,11.1971,402.31,1721.71,0.8036,3.874,15.9655,0.1948,6.039,-2.8602,-0.0046,-0.6714,-0.5425,-0.3255,-0.1382,-0.373,-0.0135,-0.0945,1.2012,1.0784,0.4112,0.7141,0.2859,0.0,43982400.0
374,0.52,0.5644,-0.0025,11.1747,418.23,1760.54,0.8225,3.9234,16.4871,0.195,6.1191,-2.8931,-0.0047,-0.6877,-0.5587,-0.3369,-0.1653,-0.3712,-0.014,-0.0982,1.2173,1.0607,0.417,0.7151,0.2849,0.0,44100000.0
375,0.52,0.6233,-0.0058,11.1566,423.72,1801.27,0.8391,3.9842,16.264,0.1991,6.2063,-2.9401,-0.0048,-0.7025,-0.5562,-0.3611,-0.1573,-0.3848,-0.0142,-0.0994,1.2334,1.1323,0.4355,0.7168,0.2832,0.0,44217600.0
376,0.52,0.6236,-0.0087,11.1355,418.76,1713.0,0.7943,3.7892,16.2469,0.1913,6.0262,-2.7836,-0.0044,-0.6536,-0.5288,-0.3242,-0.1377,-0.3422,-0.0132,-0.0926,1.2479,0.9598,0.3963,0.7172,0.2828,0.0,44335200.0
377,0.52,0.4673,-0.0068,11.1225,428.08,1806.19,0.8691,4.2031,16.9999,0.2129,6.6335,-3.0915,-0.0049,-0.7208,-0.5797,-0.3561,-0.15,-0.397,-0.0147,-0.1022,1.264,1.2296,0.4518,0.7179,0.2821,0.0,44452800.0
378,0.52,0.5931,-0.009,11.0853,436.03,1828.98,0.8434,4.0379,16.6049,0.2069,6.3776,-2.9552,-0.0048,-0.6933,-0.5545,-0.3511,-0.1633,-0.3704,-0.0144,-0.0995,1.2805,1.1364,0.4213,0.72,0.28,0.0,44570400.0
379,0.52,0.5621,-0.0079,11.0466,441.56,1831.76,0.8515,4.1308,17.4198,0.2085,6.4784,-3.0303,-0.0048,-0.7194,-0.5749,-0.3603,-0.1511,-0.396,-0.0144,-0.102,1.2969,1.0671,0.4381,0.7219,0.2781,0.0,44688000.0
380,0.52,0.5187,-0.0064,11.0201,413.37,1719.65,0.778,3.7779,15.8316,0.186,5.9737,-2.7734,-0.0043,-0.6475,-0.5197,-0.3257,-0.1297,-0.3534,-0.013,-0.0927,1.3143,1.024,0.3921,0.723,0.277,0.0,44805600.0
381,0.52,0.5742,-0.0058,11.0024,427.53,1792.22,0.8509,4.0562,16.5555,0.2092,6.4736,-2.9648,-0.0047,-0.6944,-0.5647,-0.3364,-0.1427,-0.3559,-0.0141,-0.0991,1.329,1.1774,0.4124,0.7239,0.2761,0.0,44923200.0
382,0.52,0.5583,-0.0082,10.9666,427.22,1776.45,0.8169,3.9416,16.6192,0.1982,6.2247,-2.8908,-0.0046,-0.6769,-0.5422,-0.3356,-0.1604,-0.3658,-0.014,-0.0979,1.3438,1.0232,0.4105,0.7241,0.2759,0.0,45040800.0
383,0.52,0.6075,-0.0026,10.9577,427.93,1758.33,0.8264,4.0009,17.0156,0.1986,6.3918,-2.9403,-0.0046,-0.6787,-0.5511,-0.3584,-0.1669,-0.3654,-0.0142,-0.1,1.3587,1.0422,0.4219,0.7266,0.2734,0.0,45158400.0
384,0.52,0.5972,-0.0071,10.929,415.02,1771.12,0.8272,3.7948,15.2664,0.19,5.9978,-2.7675,-0.0047,-0.6824,-0.5375,-0.32,-0.1368,-0.3336,-0.0133,-0.0939,1.3727,1.1547,0.3996,0.728,0.272,0.0,45276000.0
385,0.51,0.5376,-0.0093,10.8981,399.86,1705.67,0.7494,3.6287,14.6846,0.1788,5.7804,-2.6542,-0.0042,-0.6214,-0.4922,-0.3368,-0.1801,-0.3304,-0.0132,-0.0919,1.3864,1.0485,0.3734,0.7306,0.2694,0.0,45393600.0
386,0.51,0.5871,-0.0071,10.8813,402.58,1721.38,0.7828,3.7536,15.2232,0.184,6.0009,-2.7418,-0.0043,-0.6463,-0.5202,-0.3344,-0.1697,-0.3379,-0.0135,-0.0932,1.3995,1.101,0.394,0.7318,0.2682,0.0,45511200.0
387,0.51,0.5051,-0.0074,10.8572,411.16,1716.53,0.7256,3.4091,14.4462,0.164,5.2741,-2.4927,-0.0043,-0.6201,-0.4928,-0.3103,-0.1451,-0.3348,-0.0123,-0.0869,1.4112,0.9011,0.3752,0.7329,0.2671,0.0,45628800.0
388,0.51,0.5633,-0.0069,10.8421,415.51,1729.42,0.849,3.9553,17.0115,0.1971,6.1671,-2.8858,-0.0049,-0.7026,-0.5628,-0.3423,-0.1728,-0.3677,-0.0141,-0.1004,1.4238,1.0086,0.4295,0.7347,0.2653,0.0,45746400.0
389,0.51,0.6019,-0.0074,10.8108,398.35,1685.05,0.8098,3.7034,15.1121,0.1794,5.8559,-2.6975,-0.0047,-0.6581,-0.5293,-0.3483,-0.153,-0.3273,-0.0132,-0.0936,1.434,1.086,0.3963,0.7353,0.2647,0.0,45864000.0
390,0.51,0.4122,-0.004,10.8015,412.32,1701.69,0.8239,3.9346,16.5227,0.1915,6.1859,-2.8508,-0.0046,-0.6746,-0.5475,-0.3504,-0.1515,-0.3582,-0.0138,-0.0978,1.4434,1.0607,0.3915,0.7358,0.2642,0.0,45981600.0
391,0.51,0.6329,-0.0058,10.7881,431.28,1807.56,0.8246,3.9821,16.4091,0.1961,6.1644,-2.8932,-0.0048,-0.6972,-0.5456,-0.3313,-0.1309,-0.3864,-0.0137,-0.0999,1.4543,1.1393,0.4114,0.7367,0.2633,0.0,46099200.0
392,0.51,0.5706,-0.0078,10.7648,392.48,1687.53,0.8453,3.9231,15.4552,0.1922,6.2966,-2.8508,-0.0047,-0.681,-0.5395,-0.3755,-0.2025,-0.3385,-0.0145,-0.1004,1.4656,1.2421,0.4239,0.7389,0.2611,0.0,46216800.0
393,0.51,0.7629,-0.0084,10.7424,375.93,1543.3,0.7371,3.5349,15.2034,0.1684,5.5522,-2.5728,-0.0042,-0.6049,-0.4901,-0.322,-0.1286,-0.3286,-0.0124,-0.0883,1.4741,0.865,0.3703,0.7393,0.2607,0.0,46334400.0
394,0.51,0.6471,-0.0072,10.7226,393.67,1642.95,0.8264,3.8146,15.3715,0.1838,6.045,-2.7659,-0.0046,-0.6712,-0.5391,-0.3482,-0.1636,-0.3319,-0.0136,-0.099,1.4853,1.1345,0.3999,0.7402,0.2598,0.0,46452000.0
395,0.51,0.458,-0.0082,10.6848,389.43,1656.56,0.7925,3.7893,15.8471,0.1788,5.8094,-2.7485,-0.0045,-0.6584,-0.5288,-0.3559,-0.1662,-0.3774,-0.0136,-0.0964,1.498,1.0292,0.3972,0.7417,0.2583,0.0,46569600.0
396,0.51,0.551,-0.0043,10.6717,424.61,1775.95,0.8692,4.0478,16.6737,0.1958,6.4259,-2.9259,-0.0049,-0.7086,-0.5525,-0.3614,-0.1627,-0.3573,-0.0143,-0.1016,1.509,1.1597,0.4215,0.7431,0.2569,0.0,46687200.0
397,0.51,0.6196,-0.0052,10.6289,438.18,1816.81,0.8478,4.0538,16.8665,0.1936,6.4026,-2.9377,-0.0048,-0.7032,-0.5543,-0.3741,-0.1635,-0.3747,-0.0143,-0.102,1.5208,1.1263,0.4354,0.744,0.256,0.0,46804800.0
398,0.5,0.5988,-0.0062,10.6037,416.93,1745.45,0.7423,3.5563,14.5388,0.1734,5.6308,-2.5563,-0.0041,-0.611,-0.4726,-0.325,-0.143,-0.3192,-0.0125,-0.0893,1.5321,1.0111,0.3582,0.7455,0.2545,0.0,46922400.0
399,0.5,0.5837,-0.0079,10.5788,388.25,1615.79,0.7891,3.7254,15.5417,0.1798,5.8389,-2.6766,-0.0044,-0.6478,-0.5016,-0.3326,-0.153,-0.3469,-0.0132,-0.0936,1.543,1.0303,0.3861,0.7453,0.2547,0.0,47040000.0
400,0.5,0.5339,-0.0047,10.5715,405.47,1687.97,0.7913,3.8259,15.6872,0.1854,5.8895,-2.7539,-0.0046,-0.6617,-0.5111,-0.3555,-0.2011,-0.3765,-0.0141,-0.0985,1.5532,1.0513,0.3983,0.7455,0.2545,0.0,47157600.0
401,0.5,0.6217,-0.0089,10.5579,402.59,1694.11,0.836,3.8859,16.0061,0.1862,6.0353,-2.8068,-0.0048,-0.6994,-0.5349,-0.3349,-0.1425,-0.3695,-0.0136,-0.099,1.5638,1.0767,0.4226,0.746,0.254,0.0,47275200.0
402,0.5,0.5926,-0.0077,10.5422,401.26,1661.33,0.7558,3.7084,15.8809,0.1725,5.7297,-2.6732,-0.0043,-0.6417,-0.5182,-0.3483,-0.1458,-0.3718,-0.0131,-0.0936,1.5749,0.9104,0.3969,0.7465,0.2535,0.0,47392800.0
403,0.5,0.5144,-0.009,10.5127,371.85,1601.54,0.7183,3.5307,14.2487,0.1688,5.6342,-2.5536,-0.0039,-0.5883,-0.4739,-0.3284,-0.1203,-0.3362,-0.0122,-0.0868,1.585,1.0539,0.374,0.7463,0.2537,0.0,47510400.0
404,0.5,0.5864,-0.0072,10.4947,412.49,1742.07,0.8302,3.9225,15.9749,0.1863,6.0897,-2.8242,-0.0046,-0.6862,-0.5173,-0.3532,-0.1403,-0.376,-0.0136,-0.0998,1.5962,1.1231,0.4127,0.7494,0.2506,0.0,47628000.0
405,0.5,0.5852,-0.0092,10.4701,393.86,1660.76,0.7928,3.7207,15.0334,0.1804,5.8713,-2.6549,-0.0044,-0.6487,-0.5015,-0.3435,-0.1676,-0.3289,-0.0134,-0.0951,1.6067,1.1291,0.3819,0.7524,0.2476,0.0,47745600.0
406,0.5,0.6346,-0.0059,10.4614,379.46,1609.76,0.7967,3.5751,14.7082,0.1678,5.5957,-2.5589,-0.0046,-0.6532,-0.4884,-0.3409,-0.1443,-0.3238,-0.0127,-0.0913,1.6157,1.0139,0.3917,0.7542,0.2458,0.0,47863200.0
407,0.5,0.5749,-0.0079,10.4395,394.66,1627.17,0.7947,3.6999,15.7259,0.1771,5.7786,-2.6438,-0.0045,-0.6555,-0.5043,-0.3374,-0.1437,-0.3417,-0.0129,-0.0953,1.6273,0.9833,0.3847,0.7558,0.2442,0.0,47980800.0
408,0.5,0.4858,-0.0082,10.4089,438.63,1782.22,0.8541,3.9252,16.4362,0.1893,6.228,-2.7967,-0.0048,-0.6836,-0.5373,-0.3425,-0.1275,-0.3412,-0.0135,-0.0989,1.6379,1.0817,0.4076,0.7572,0.2428,0.0,48098400.0
409,0.5,0.5805,-0.0076,10.3738,422.04,1768.05,0.8621,4.0396,16.3344,0.1898,6.4036,-2.8911,-0.0048,-0.697,-0.5311,-0.3601,-0.1524,-0.3642,-0.0141,-0.1027,1.6493,1.1908,0.4205,0.7611,0.2389,0.0,48216000.0
410,0.5,0.4761,-0.0042,10.3545,395.26,1684.93,0.7799,3.6313,14.8298,0.1729,5.7145,-2.5839,-0.0044,-0.6385,-0.4809,-0.3288,-0.1432,-0.3307,-0.0127,-0.0925,1.659,1.0648,0.3774,0.763,0.237,0.0,48333600.0
411,0.5,0.4821,-0.0099,10.3406,413.21,1724.56,0.7469,3.631,15.2198,0.1707,5.6776,-2.5914,-0.0042,-0.6128,-0.4769,-0.329,-0.118,-0.3528,-0.0126,-0.0898,1.6689,0.9591,0.3786,0.7652,0.2348,0.0,48451200.0
412,0.5,0.4952,-0.0013,10.3377,431.3,1755.18,0.8443,3.9925,16.8127,0.1913,6.4943,-2.8358,-0.0044,-0.6596,-0.4945,-0.3481,-0.1661,-0.3311,-0.0139,-0.1014,1.679,1.0352,0.3979,0.7663,0.2337,0.0,48568800.0
413,0.5,0.5624,-0.0062,10.3087,414.58,1684.94,0.7866,3.7125,16.0604,0.1792,5.8684,-2.6154,-0.0043,-0.6337,-0.4798,-0.3238,-0.1481,-0.3312,-0.0131,-0.0926,1.6882,0.9007,0.3711,0.7684,0.2316,0.0,48686400.0
414,0.49,0.4781,-0.0074,10.2993,384.46,1596.46,0.7023,3.3592,13.7582,0.1628,5.3533,-2.3895,-0.0039,-0.5527,-0.4286,-0.3116,-0.1295,-0.3081,-0.0117,-0.0837,1.6964,0.935,0.3399,0.7683,0.2317,0.0,48804000.0
415,0.49,0.5162,-0.0057,10.2707,409.86,1686.61,0.8278,3.8724,16.0719,0.1769,6.1894,-2.7668,-0.0046,-0.6691,-0.5204,-0.3762,-0.1482,-0.3492,-0.0137,-0.0983,1.7053,1.0832,0.426,0.7682,0.2318,0.0,48921600.0
416,0.49,0.546,-0.0047,10.2482,417.9,1707.51,0.7955,3.724,15.6489,0.1785,5.9393,-2.6416,-0.0044,-0.627,-0.5006,-0.3342,-0.1155,-0.3267,-0.0127,-0.0923,1.714,1.0093,0.3765,0.7693,0.2307,0.0,49039200.0
417,0.49,0.5303,-0.0012,10.2245,422.17,1697.12,0.8183,3.906,16.953,0.1801,6.2914,-2.7717,-0.0043,-0.655,-0.4875,-0.3728,-0.1801,-0.3461,-0.014,-0.0996,1.7242,0.9966,0.4056,0.7707,0.2293,0.0,49156800.0
418,0.49,0.5529,-0.0023,10.1921,413.62,1688.8,0.7325,3.6256,15.3711,0.1709,5.8157,-2.5887,-0.0039,-0.5897,-0.4467,-0.3545,-0.1327,-0.3445,-0.0125,-0.0896,1.734,0.9488,0.3792,0.7723,0.2277,0.0,49274400.0
419,0.49,0.5199,-0.0096,10.1683,387.95,1635.13,0.7203,3.4104,13.7748,0.1502,5.3351,-2.4217,-0.0039,-0.6005,-0.4389,-0.319,-0.1091,-0.3294,-0.0116,-0.0864,1.7409,1.0345,0.3591,0.7741,0.2259,0.0,49392000.0
420,0.49,0.5814,-0.0073,10.1337,364.99,1536.82,0.6818,3.3751,13.9104,0.1544,5.2643,-2.3844,-0.0037,-0.5748,-0.4375,-0.3188,-0.1184,-0.3357,-0.0117,-0.0842,1.7485,0.9511,0.347,0.7736,0.2264,0.0,49509600.0
421,0.49,0.5557,-0.0067,10.1216,352.31,1487.18,0.7459,3.5448,14.6544,0.1726,5.7165,-2.4927,-0.0041,-0.6037,-0.4334,-0.3452,-0.1725,-0.3079,-0.0129,-0.0888,1.7553,0.9614,0.3633,0.774,0.226,0.0,49627200.0
422,0.49,0.4998,-0.0049,10.1025,394.04,1660.11,0.7404,3.5062,14.5269,0.1662,5.6211,-2.4742,-0.004,-0.5955,-0.4561,-0.3303,-0.1756,-0.3115,-0.0126,-0.0894,1.7632,0.9552,0.3628,0.7763,0.2237,0.0,49744800.0
423,0.49,0.6066,-0.0068,10.0903,426.42,1728.7,0.8511,3.923,17.0771,0.1863,6.1597,-2.7513,-0.0048,-0.6855,-0.5054,-0.3454,-0.1407,-0.3504,-0.0135,-0.0993,1.7733,0.9684,0.4051,0.7778,0.2222,0.0,49862400.0
424,0.49,0.5342,-0.009,10.0807,441.09,1778.35,0.8539,3.8703,16.2571,0.1815,6.1825,-2.714,-0.0046,-0.6804,-0.501,-0.3432,-0.1404,-0.3258,-0.0134,-0.0981,1.7842,1.041,0.4063,0.779,0.221,0.0,49980000.0
425,0.49,0.5698,-0.0077,10.0487,415.81,1694.33,0.8484,3.9489,16.1925,0.1888,6.3117,-2.7705,-0.0045,-0.6689,-0.486,-0.346,-0.1538,-0.3376,-0.0137,-0.101,1.794,1.1458,0.3973,0.7804,0.2196,0.0,50097600.0
426,0.49,0.4189,-0.0038,10.0186,430.3,1719.77,0.8209,3.8433,16.6118,0.1827,6.176,-2.6741,-0.0044,-0.6464,-0.4619,-0.337,-0.1304,-0.3277,-0.0133,-0.0957,1.8028,0.9632,0.3817,0.7824,0.2176,0.0,50215200.0
427,0.48,0.5378,-0.0066,10.001,447.58,1787.7,0.8183,3.9508,17.0377,0.1775,6.283,-2.7712,-0.0044,-0.6587,-0.4904,-0.3923,-0.1627,-0.3641,-0.014,-0.0992,1.8125,0.9873,0.4026,0.7843,0.2157,0.0,50332800.0
428,0.48,0.4495,-0.0069,9.9631,420.75,1702.82,0.6506,3.1957,13.6063,0.1512,5.0621,-2.2301,-0.0034,-0.5283,-0.4022,-0.2796,-0.0992,-0.3098,-0.0107,-0.0779,1.8203,0.8524,0.3156,0.7859,0.2141,0.0,50450400.0
429,0.48,0.5902,-0.0064,9.9475,405.21,1656.19,0.7862,3.8699,16.4974,0.1893,6.1507,-2.6979,-0.0041,-0.6273,-0.4532,-0.3578,-0.1476,-0.362,-0.0133,-0.0945,1.8285,0.9773,0.3831,0.7873,0.2127,0.0,50568000.0
430,0.48,0.4501,-0.0015,9.9232,418.68,1697.14,0.7899,3.7477,16.0997,0.1826,6.0163,-2.6018,-0.0043,-0.6278,-0.4441,-0.3452,-0.1805,-0.3223,-0.0135,-0.0954,1.8364,0.9665,0.3775,0.7886,0.2114,0.0,50685600.0
431,0.48,0.5145,-0.0076,9.8989,450.45,1792.34,0.8724,4.1443,17.9638,0.2007,6.6739,-2.8788,-0.0046,-0.6852,-0.4939,-0.3662,-0.1626,-0.3495,-0.0144,-0.1033,1.8461,1.0645,0.4114,0.7905,0.2095,0.0,50803200.0
432,0.48,0.4628,-0.0092,9.8565,458.05,1810.86,0.8529,3.9853,16.8821,0.1927,6.4665,-2.7724,-0.0045,-0.6652,-0.481,-0.3465,-0.145,-0.332,-0.0136,-0.1005,1.8561,1.0738,0.4046,0.7928,0.2072,0.0,50920800.0
433,0.48,0.5011,-0.0067,9.8411,445.48,1772.28,0.79,3.7906,16.413,0.1869,6.0639,-2.6165,-0.0042,-0.6315,-0.4429,-0.3289,-0.1611,-0.3251,-0.0132,-0.0948,1.8645,0.9608,0.362,0.7945,0.2055,0.0,51038400.0
434,0.48,0.4704,-0.0071,9.8427,435.51,1757.24,0.809,3.9083,16.4991,0.1859,6.3065,-2.7078,-0.0042,-0.6444,-0.4661,-0.3365,-0.1292,-0.3361,-0.0133,-0.0969,1.8733,1.055,0.3801,0.7969,0.2031,0.0,51156000.0
435,0.48,0.5046,-0.0038,9.8218,430.36,1723.64,0.7809,3.7672,15.9086,0.181,6.0074,-2.5932,-0.0043,-0.6246,-0.4418,-0.3149,-0.1237,-0.3314,-0.0128,-0.0929,1.8824,0.9737,0.3574,0.7979,0.2021,0.0,51273600.0
436,0.48,0.5283,-0.0074,9.816,440.52,1768.02,0.8213,3.9729,16.5544,0.1875,6.3483,-2.749,-0.0044,-0.6504,-0.4563,-0.3653,-0.1703,-0.3551,-0.0139,-0.1007,1.8922,1.0617,0.3988,0.798,0.202,0.0,51391200.0
437,0.48,0.5798,-0.0067,9.7874,425.98,1727.67,0.802,3.7824,15.987,0.1786,6.0459,-2.6128,-0.0042,-0.6268,-0.4698,-0.3279,-0.1198,-0.3332,-0.0128,-0.093,1.9018,1.0131,0.3793,0.7991,0.2009,0.0,51508800.0
438,0.48,0.626,-0.0043,9.7728,413.18,1655.28,0.77,3.6749,16.0528,0.1677,6.0332,-2.5532,-0.0039,-0.5928,-0.4501,-0.3283,-0.1241,-0.3077,-0.0126,-0.0918,1.9109,0.9339,0.3802,0.799,0.201,0.0,51626400.0
439,0.48,0.4519,-0.009,9.7519,416.98,1684.39,0.8381,4.048,17.3553,0.1956,6.488,-2.7942,-0.0045,-0.6659,-0.4714,-0.3605,-0.1583,-0.357,-0.014,-0.1007,1.9214,0.972,0.4016,0.7991,0.2009,0.0,51744000.0
440,0.48,0.4396,-0.0064,9.722,436.53,1745.17,0.8025,3.9644,17.0711,0.1844,6.3084,-2.7335,-0.0043,-0.646,-0.4746,-0.3835,-0.1965,-0.3646,-0.0142,-0.1004,1.933,0.9986,0.3952,0.8009,0.1991,0.0,51861600.0
441,0.47,0.5371,-0.0063,9.6925,448.63,1771.57,0.891,4.2219,18.0338,0.2072,6.823,-2.893,-0.0047,-0.6909,-0.4959,-0.348,-0.1513,-0.3491,-0.0143,-0.1047,1.9418,1.084,0.4017,0.8021,0.1979,0.0,51979200.0
442,0.47,0.4928,-0.0079,9.6734,456.52,1816.63,0.8755,4.285,18.1929,0.2049,6.945,-2.942,-0.0046,-0.6886,-0.4951,-0.3911,-0.1708,-0.3738,-0.0149,-0.1058,1.9542,1.1137,0.4255,0.8038,0.1962,0.0,52096800.0
443,0.47,0.4563,-0.0062,9.6726,472.29,1878.02,0.8852,4.2413,18.1634,0.2102,6.7922,-2.8938,-0.0046,-0.6918,-0.4801,-0.3513,-0.1469,-0.3621,-0.0143,-0.1057,1.9683,1.0423,0.3985,0.806,0.194,0.0,52214400.0
444,0.47,0.4912,-0.0069,9.6461,466.1,1857.45,0.8546,4.0399,17.288,0.1978,6.4457,-2.7726,-0.0046,-0.6759,-0.4776,-0.3577,-0.1872,-0.347,-0.0143,-0.1025,1.9812,1.0594,0.4071,0.8075,0.1925,0.0,52332000.0
445,0.47,0.4329,-0.0072,9.6202,454.07,1813.03,0.7971,3.8828,16.1623,0.1896,6.3336,-2.6467,-0.0041,-0.6166,-0.4213,-0.3317,-0.155,-0.3214,-0.0133,-0.0958,1.9929,1.0333,0.3596,0.8081,0.1919,0.0,52449600.0
446,0.47,0.4283,-0.0063,9.6034,445.94,1809.18,0.895,4.278,17.3908,0.213,6.7187,-2.9057,-0.005,-0.7225,-0.5056,-0.3678,-0.2028,-0.3842,-0.015,-0.1095,2.0052,1.2222,0.4174,0.8089,0.1911,0.0,52567200.0
447,0.47,0.5473,-0.005,9.5859,446.99,1834.99,0.8399,4.0267,16.8267,0.1953,6.4574,-2.7331,-0.0044,-0.6554,-0.4591,-0.3414,-0.1645,-0.3395,-0.0139,-0.1007,2.0142,1.0818,0.3745,0.8092,0.1908,0.0,52684800.0
448,0.47,0.5421,-0.0072,9.5729,442.26,1828.31,0.8761,4.1178,16.2216,0.2038,6.494,-2.7791,-0.0048,-0.6908,-0.4697,-0.3325,-0.1361,-0.355,-0.0138,-0.1031,2.0272,1.2112,0.3896,0.8107,0.1893,0.0,52802400.0
449,0.47,0.4996,-0.002,9.5705,449.87,1832.3,0.8743,4.1379,17.4828,0.1997,6.696,-2.8118,-0.0046,-0.6819,-0.4821,-0.3766,-0.1808,-0.3412,-0.0145,-0.1052,2.0405,1.0843,0.4075,0.8113,0.1887,0.0,52920000.0
450,0.47,0.4024,-0.0076,9.5476,468.54,1881.95,0.9039,4.2708,17.8715,0.2192,6.8253,-2.8843,-0.0048,-0.7035,-0.4891,-0.3468,-0.1536,-0.3606,-0.0145,-0.1056,2.0528,1.1281,0.4076,0.8122,0.1878,0.0,53037600.0
451,0.47,0.4006,-0.0077,9.498,455.14,1846.11,0.8402,4.0877,16.6339,0.204,6.6309,-2.7653,-0.0043,-0.6453,-0.4388,-0.3475,-0.162,-0.3386,-0.014,-0.1013,2.0669,1.1576,0.3791,0.8133,0.1867,0.0,53155200.0
452,0.47,0.4685,-0.0065,9.4783,462.62,1877.36,0.9187,4.2446,18.0103,0.2042,6.7445,-2.8679,-0.0051,-0.7117,-0.5002,-0.3616,-0.1697,-0.3589,-0.0147,-0.1063,2.0828,1.1132,0.4198,0.8139,0.1861,0.0,53272800.0
453,0.47,0.5067,-0.0071,9.456,467.01,1891.37,0.8752,4.3142,17.9639,0.2129,6.9887,-2.9166,-0.0046,-0.6768,-0.4613,-0.3661,-0.1726,-0.3672,-0.0148,-0.1079,2.0996,1.1416,0.4052,0.815,0.185,0.0,53390400.0
454,0.47,0.511,-0.0067,9.458,478.19,1878.4,0.8743,4.1493,17.6498,0.2016,6.6624,-2.8003,-0.0045,-0.6748,-0.4572,-0.352,-0.1652,-0.3453,-0.0142,-0.1032,2.1159,1.0788,0.3929,0.8155,0.1845,0.0,53508000.0
455,0.47,0.4277,-0.0063,9.43,453.26,1781.33,0.819,3.9412,16.6043,0.1945,6.3189,-2.6496,-0.0043,-0.6409,-0.4562,-0.3349,-0.1574,-0.3421,-0.0136,-0.0985,2.1309,1.0493,0.3747,0.8163,0.1838,0.0,53625600.0
456,0.47,0.5555,-0.0049,9.4226,455.71,1814.7,0.8453,4.0299,17.008,0.1946,6.4338,-2.7101,-0.0046,-0.66,-0.4516,-0.3548,-0.1919,-0.3493,-0.0142,-0.1023,2.1468,1.0519,0.3945,0.8165,0.1835,0.0,53743200.0
457,0.47,0.4726,-0.0078,9.4094,460.29,1815.09,0.8839,4.1399,17.7682,0.2028,6.6254,-2.7689,-0.0047,-0.6845,-0.4576,-0.3454,-0.1461,-0.3406,-0.0141,-0.1029,2.1638,1.0436,0.3855,0.8173,0.1827,0.0,53860800.0
458,0.47,0.4593,-0.0062,9.4128,489.36,1916.76,0.8996,4.3562,18.6529,0.2126,7.0591,-2.9317,-0.0046,-0.6816,-0.4719,-0.3806,-0.1883,-0.3573,-0.015,-0.1097,2.1805,1.1039,0.4025,0.8197,0.1803,0.0,53978400.0
459,0.47,0.6133,-0.0071,9.3784,435.14,1767.64,0.8004,3.8011,15.6854,0.1853,6.091,-2.5504,-0.0042,-0.6117,-0.428,-0.3339,-0.1536,-0.3203,-0.0131,-0.0952,2.1959,1.0243,0.3635,0.8206,0.1794,0.0,54096000.0
460,0.47,0.5036,-0.0036,9.3891,465.09,1855.83,0.8901,4.272,18.0282,0.2124,6.9009,-2.853,-0.0046,-0.678,-0.4669,-0.3639,-0.1663,-0.3519,-0.0146,-0.1052,2.212,1.1038,0.4001,0.8209,0.1791,0.0,54213600.0
461,0.46,0.4675,-0.0082,9.3597,455.68,1811.01,0.8731,4.1086,17.3273,0.2046,6.6034,-2.745,-0.0046,-0.6686,-0.4548,-0.342,-0.1793,-0.3361,-0.0143,-0.104,2.2281,1.0659,0.3873,0.8205,0.1795,0.0,54331200.0
462,0.46,0.466,-0.0068,9.3415,483.17,1880.03,0.8991,4.2076,18.6738,0.206,6.6805,-2.8063,-0.0048,-0.6888,-0.4557,-0.3551,-0.1588,-0.353,-0.0143,-0.1056,2.2426,0.9571,0.3897,0.8206,0.1794,0.0,54448800.0
463,0.46,0.4658,-0.0083,9.3139,468.21,1821.7,0.8397,4.0214,17.3345,0.1997,6.4639,-2.6826,-0.0043,-0.6347,-0.4362,-0.3437,-0.1655,-0.3338,-0.0138,-0.1013,2.259,1.0131,0.3722,0.8209,0.1791,0.0,54566400.0
464,0.46,0.4156,-0.0061,9.2963,481.98,1898.17,0.8767,4.1489,17.5715,0.2065,6.6343,-2.7697,-0.0045,-0.6737,-0.4492,-0.354,-0.1673,-0.35,-0.0143,-0.1039,2.2746,1.0974,0.4002,0.822,0.178,0.0,54684000.0
465,0.46,0.4666,-0.0059,9.2832,485.61,1931.39,0.9188,4.3675,18.2359,0.2129,6.9522,-2.9128,-0.0051,-0.7099,-0.4798,-0.3823,-0.1986,-0.3723,-0.0153,-0.1111,2.2885,1.1376,0.4191,0.8229,0.1771,0.0,54801600.0
466,0.46,0.4584,-0.0065,9.2766,463.24,1851.1,0.8831,4.2369,17.8173,0.2067,6.8734,-2.8204,-0.0045,-0.6649,-0.4469,-0.3631,-0.1395,-0.3508,-0.0142,-0.1045,2.3045,1.1034,0.4041,0.8234,0.1766,0.0,54919200.0
467,0.46,0.4382,-0.0075,9.2557,487.57,1898.68,0.8743,4.3344,18.5643,0.213,7.0293,-2.8702,-0.0044,-0.6625,-0.4447,-0.3734,-0.1892,-0.3587,-0.015,-0.1079,2.3188,1.0534,0.3838,0.8246,0.1754,0.0,55036800.0
468,0.46,0.4389,-0.0068,9.2515,467.48,1843.65,0.9079,4.2414,17.6328,0.202,6.8122,-2.8269,-0.0049,-0.6881,-0.4604,-0.3869,-0.1765,-0.3548,-0.0146,-0.1078,2.3348,1.16,0.416,0.8261,0.1739,0.0,55154400.0
469,0.46,0.417,-0.0082,9.2229,477.04,1879.68,0.8886,4.3244,18.5854,0.2058,6.8798,-2.8852,-0.0047,-0.6838,-0.4638,-0.3817,-0.1704,-0.3859,-0.0148,-0.1084,2.3497,1.1219,0.4132,0.8277,0.1723,0.0,55272000.0
470,0.46,0.4621,-0.006,9.2135,469.89,1840.82,0.8416,4.0745,16.8509,0.197,6.5804,-2.7081,-0.0043,-0.6369,-0.4146,-0.3559,-0.1379,-0.3405,-0.0137,-0.102,2.3622,1.1076,0.3743,0.8286,0.1714,0.0,55389600.0
471,0.46,0.5084,-0.0076,9.1966,455.72,1809.89,0.8822,4.0866,17.3167,0.1954,6.4993,-2.7112,-0.0048,-0.6782,-0.4539,-0.3615,-0.1546,-0.3476,-0.014,-0.1031,2.3751,1.0394,0.4027,0.8295,0.1705,0.0,55507200.0
472,0.46,0.4198,-0.0087,9.1784,443.65,1765.52,0.8221,3.881,16.2685,0.1933,6.1872,-2.5616,-0.0044,-0.6189,-0.4254,-0.3115,-0.1157,-0.329,-0.0128,-0.096,2.3868,1.0124,0.3633,0.8297,0.1703,0.0,55624800.0
473,0.46,0.4404,-0.0052,9.1732,450.86,1767.03,0.9011,4.1799,18.0491,0.2043,6.6775,-2.7442,-0.0049,-0.6783,-0.4662,-0.3801,-0.171,-0.3394,-0.0145,-0.1045,2.3968,1.0709,0.4016,0.8302,0.1698,0.0,55742400.0
474,0.46,0.4611,-0.0078,9.1356,476.8,1850.47,0.9059,4.3,18.0169,0.2085,6.9613,-2.8373,-0.0047,-0.6784,-0.4414,-0.3867,-0.2165,-0.3449,-0.0151,-0.1102,2.4075,1.1459,0.3969,0.83,0.17,0.0,55860000.0
475,0.46,0.4246,-0.0054,9.1146,467.54,1839.82,0.8518,4.0362,16.3063,0.1976,6.5249,-2.6565,-0.0044,-0.6271,-0.3974,-0.3331,-0.1311,-0.3314,-0.0134,-0.1004,2.4185,1.1534,0.3731,0.8299,0.1701,0.0,55977600.0
476,0.45,0.4953,-0.0064,9.0764,450.9,1808.83,0.8481,4.1313,17.259,0.1975,6.6177,-2.7221,-0.0044,-0.6444,-0.4336,-0.3873,-0.1863,-0.3568,-0.0144,-0.1047,2.4295,1.1039,0.3854,0.8301,0.1699,0.0,56095200.0
477,0.45,0.4566,-0.0068,9.0544,445.71,1775.3,0.8483,4.0642,17.3843,0.1913,6.5214,-2.6842,-0.0044,-0.6406,-0.4262,-0.369,-0.1366,-0.3486,-0.0137,-0.1018,2.4409,1.0199,0.3843,0.831,0.169,0.0,56212800.0
478,0.45,0.4783,-0.0059,9.0426,459.1,1809.36,0.8976,4.2005,17.8063,0.1994,6.7128,-2.7693,-0.0048,-0.6738,-0.4473,-0.3747,-0.1537,-0.3556,-0.0142,-0.1066,2.4556,1.1211,0.4062,0.8324,0.1676,0.0,56330400.0
479,0.45,0.4435,-0.0071,9.0217,446.1,1738.42,0.8595,3.9719,16.8664,0.1967,6.2897,-2.5914,-0.0048,-0.6465,-0.43,-0.3454,-0.1683,-0.3355,-0.0138,-0.1,2.4652,1.039,0.3835,0.8321,0.1679,0.0,56448000.0
480,0.45,0.4624,-0.0068,9.0084,442.2,1756.57,0.8578,3.9905,16.3818,0.1938,6.3189,-2.6093,-0.0046,-0.6496,-0.4127,-0.3513,-0.1433,-0.3409,-0.0135,-0.1008,2.4753,1.0794,0.3763,0.8321,0.1679,0.0,56565600.0
481,0.45,0.5349,-0.0077,8.9719,443.3,1772.35,0.8205,3.915,16.4257,0.1828,6.3064,-2.5813,-0.0043,-0.6306,-0.4255,-0.3414,-0.1462,-0.3339,-0.0134,-0.0976,2.4859,1.0174,0.377,0.8321,0.1679,0.0,56683200.0
482,0.45,0.4792,-0.008,8.9583,426.59,1679.71,0.839,3.8735,16.5029,0.1949,6.1117,-2.5182,-0.0044,-0.6346,-0.4003,-0.3193,-0.1423,-0.3197,-0.013,-0.0972,2.4971,0.96,0.3478,0.8321,0.1679,0.0,56800800.0
483,0.45,0.4224,-0.0077,8.9371,434.14,1710.02,0.877,4.1743,17.3199,0.2022,6.677,-2.7114,-0.0046,-0.6558,-0.4172,-0.3613,-0.1564,-0.3465,-0.0141,-0.1037,2.5072,1.095,0.3723,0.8322,0.1678,0.0,56918400.0
484,0.45,0.5374,-0.0051,8.9302,448.36,1771.59,0.8618,4.0684,17.5828,0.1972,6.5094,-2.6619,-0.0046,-0.648,-0.4308,-0.387,-0.1959,-0.345,-0.0141,-0.1049,2.5177,0.9951,0.3889,0.8324,0.1676,0.0,57036000.0
485,0.45,0.5791,-0.0075,8.909,440.69,1716.14,0.807,3.8451,16.2902,0.1888,6.1393,-2.5031,-0.0042,-0.6048,-0.4022,-0.3523,-0.169,-0.3265,-0.0133,-0.0977,2.5309,1.0096,0.3597,0.8317,0.1683,0.0,57153600.0
486,0.45,0.6993,-0.0056,8.8936,443.17,1764.56,0.8177,3.8848,16.0054,0.1812,6.2532,-2.5428,-0.0042,-0.6099,-0.3982,-0.3604,-0.1699,-0.3247,-0.0135,-0.0992,2.544,1.0451,0.3677,0.8321,0.1679,0.0,57271200.0
487,0.45,0.4933,-0.0066,8.8652,422.41,1657.2,0.8187,3.8625,16.2417,0.1886,6.2036,-2.4997,-0.0042,-0.6034,-0.3878,-0.3458,-0.1539,-0.3163,-0.0132,-0.0972,2.5555,0.9789,0.3494,0.832,0.168,0.0,57388800.0
488,0.45,0.6384,0.0058,8.8512,436.05,1737.4,0.7938,3.893,16.5008,0.1822,6.2156,-2.5418,-0.0042,-0.6078,-0.3885,-0.346,-0.1389,-0.3445,-0.0131,-0.0985,2.5673,0.9984,0.3581,0.8321,0.1679,0.0,57506400.0
489,0.45,0.5361,-0.0068,8.8433,400.82,1619.16,0.721,3.3904,13.6948,0.1579,5.3902,-2.2058,-0.0038,-0.5499,-0.3517,-0.3186,-0.1257,-0.291,-0.0115,-0.0867,2.5765,0.9579,0.3208,0.8318,0.1682,0.0,57624000.0
490,0.45,0.5196,-0.007,8.822,430.8,1697.12,0.8473,4.0274,16.9515,0.189,6.4847,-2.6199,-0.0044,-0.6222,-0.4103,-0.3665,-0.1571,-0.3334,-0.0137,-0.1018,2.5893,1.0522,0.3754,0.8318,0.1682,0.0,57741600.0
491,0.45,0.6197,-0.0051,8.8204,464.39,1811.29,0.8498,4.2504,17.7673,0.205,6.8501,-2.7571,-0.0044,-0.6327,-0.4096,-0.3868,-0.1849,-0.363,-0.0146,-0.107,2.6016,1.0917,0.3734,0.8326,0.1674,0.0,57859200.0
492,0.45,0.5041,-0.0072,8.8098,447.75,1738.15,0.8056,3.7967,16.2825,0.1854,6.0878,-2.4578,-0.0042,-0.5955,-0.3791,-0.3323,-0.1503,-0.3159,-0.0129,-0.0959,2.6141,0.9752,0.3468,0.8332,0.1668,0.0,57976800.0
493,0.45,0.5611,0.0037,8.784,439.6,1704.72,0.8515,3.9795,17.3465,0.1963,6.3855,-2.5619,-0.0045,-0.6224,-0.3895,-0.3629,-0.1447,-0.3278,-0.0134,-0.0997,2.626,0.9986,0.3673,0.8336,0.1664,0.0,58094400.0
494,0.45,0.4673,-0.0085,8.7643,418.16,1626.26,0.7654,3.5043,14.9143,0.1616,5.5767,-2.2671,-0.0041,-0.5822,-0.3742,-0.3361,-0.175,-0.2945,-0.0124,-0.0914,2.6356,0.9165,0.3418,0.8326,0.1674,0.0,58212000.0
495,0.45,0.6441,-0.0067,8.7413,438.37,1702.94,0.864,4.0614,17.4271,0.1997,6.5545,-2.6201,-0.0045,-0.6218,-0.3877,-0.3555,-0.1616,-0.3291,-0.0138,-0.103,2.6448,1.0652,0.3721,0.8321,0.1679,0.0,58329600.0
496,0.44,0.6206,-0.0059,8.7232,455.98,1772.27,0.8324,3.8589,16.5026,0.1791,6.1642,-2.4911,-0.0043,-0.6173,-0.3819,-0.3539,-0.1432,-0.3187,-0.013,-0.0988,2.6541,0.9732,0.3507,0.8321,0.1679,0.0,58447200.0
497,0.44,0.4686,-0.0069,8.7032,445.98,1736.89,0.8422,4.08,17.6375,0.1909,6.6605,-2.6415,-0.0042,-0.6175,-0.4044,-0.3689,-0.1333,-0.3374,-0.0135,-0.1013,2.6646,0.9766,0.3709,0.8327,0.1673,0.0,58564800.0
498,0.44,0.5509,-0.005,8.6811,452.1,1752.51,0.893,4.1963,18.7839,0.2006,6.7221,-2.6867,-0.0048,-0.6629,-0.4236,-0.3727,-0.1649,-0.3465,-0.0144,-0.1053,2.675,0.9291,0.3885,0.8328,0.1672,0.0,58682400.0
499,0.44,0.6236,-0.0074,8.6499,461.26,1769.35,0.8234,3.9671,16.9277,0.1841,6.4365,-2.5601,-0.0042,-0.6051,-0.3841,-0.369,-0.1758,-0.329,-0.0136,-0.1023,2.6847,1.0094,0.3622,0.8331,0.1669,0.0,58800000.0
500,0.44,0.4457,-0.0047,8.6365,451.8,1757.7,0.8447,3.8972,16.1594,0.1785,6.2252,-2.5017,-0.0044,-0.6236,-0.3939,-0.3484,-0.1458,-0.3213,-0.0131,-0.0993,2.6952,1.0823,0.3652,0.8328,0.1672,0.0,58917600.0
501,0.44,0.5216,-0.0059,8.6021,452.66,1769.4,0.8595,4.0412,17.0946,0.1952,6.4488,-2.6037,-0.0046,-0.6257,-0.3796,-0.3621,-0.1619,-0.3401,-0.0136,-0.1038,2.7053,0.9895,0.3641,0.8338,0.1662,0.0,59035200.0
502,0.44,0.5004,-0.0085,8.5744,455.0,1790.48,0.8851,4.2599,18.6151,0.2148,6.7822,-2.7016,-0.0047,-0.6467,-0.4289,-0.3546,-0.129,-0.3577,-0.0138,-0.1038,2.7124,0.9891,0.3712,0.835,0.165,0.0,59152800.0
