rahulrajes/HRL_SunLabs/rigid_spine_log_analysis/outputs/data_RB.csv
iteration,action_noise_std,value_function_loss,surrogate_loss,entropy_loss,mean_reward,mean_episode_length,rew_air_time,rew_base_angular_vel,rew_base_linear_vel,rew_foot_clearance,rew_gait,rew_action_smoothness,rew_air_time_variance,rew_base_motion,rew_base_orientation,rew_foot_slip,rew_joint_acc,rew_joint_pos,rew_joint_torques,rew_joint_vel,terrain_level,error_vel_xy,error_vel_yaw,term_timeout,term_body_contact,term_out_of_bounds,total_timesteps
0,1.0,1.9878,0.1129,17.0352,2.2,13.58,0.0099,0.0298,0.0821,0.0001,0.0364,-0.0292,-0.0,-0.0128,-0.0013,-0.0002,-0.0034,-0.0029,-0.0001,-0.0018,4.3822,0.0122,0.001,0.0071,0.0,0.0,117600.0
1,1.0,2.3406,0.002,17.0403,5.12,33.18,0.0229,0.0824,0.2551,0.0024,0.0929,-0.0879,-0.0001,-0.0431,-0.0047,-0.0073,-0.007,-0.0095,-0.0004,-0.0036,4.3645,0.035,0.0076,0.0216,0.0046,0.0,235200.0
2,1.0,2.5685,-0.0019,17.0447,9.26,55.65,0.0321,0.1316,0.3732,0.0056,0.1991,-0.1446,-0.0001,-0.0493,-0.0081,-0.0176,-0.0099,-0.012,-0.0006,-0.0051,4.352,0.0661,0.0166,0.0342,0.0059,0.0,352800.0
3,1.0,2.685,-0.0022,17.0709,13.38,76.62,0.0343,0.1856,0.6015,0.009,0.2919,-0.2022,-0.0001,-0.0563,-0.0114,-0.0302,-0.0139,-0.019,-0.0009,-0.0065,4.3384,0.0781,0.0224,0.0476,0.0069,0.0,470400.0
4,1.01,2.6282,0.0025,17.0866,17.38,99.04,0.0393,0.2315,0.6093,0.0118,0.3936,-0.2573,-0.0001,-0.0644,-0.0131,-0.0396,-0.0131,-0.0215,-0.001,-0.0076,4.328,0.1349,0.0327,0.0592,0.0074,0.0,588000.0
5,1.01,2.4904,-0.0009,17.0919,21.9,121.14,0.0483,0.2879,0.9117,0.0147,0.5181,-0.3188,-0.0001,-0.0715,-0.0174,-0.0486,-0.0194,-0.0228,-0.0013,-0.0087,4.3174,0.1292,0.0385,0.0706,0.0077,0.0,705600.0
6,1.0,2.4032,0.0047,17.078,27.27,147.61,0.0432,0.3411,1.1387,0.0185,0.5443,-0.3747,-0.0001,-0.0776,-0.0205,-0.0615,-0.0221,-0.0377,-0.0016,-0.0102,4.3072,0.1463,0.0424,0.081,0.0082,0.0,823200.0
7,1.0,2.2486,0.0011,17.0698,32.3,173.92,0.0554,0.3945,1.2535,0.0213,0.7013,-0.4325,-0.0002,-0.087,-0.0224,-0.0721,-0.0252,-0.0339,-0.0018,-0.0117,4.2956,0.1759,0.0501,0.0936,0.0085,0.0,940800.0
8,1.0,2.1972,-0.0017,17.0332,35.89,193.16,0.0626,0.4421,1.2304,0.0242,0.8498,-0.4918,-0.0002,-0.094,-0.0264,-0.082,-0.0253,-0.0334,-0.002,-0.0129,4.285,0.2352,0.062,0.1051,0.0088,0.0,1058400.0
9,1.0,2.0807,0.0005,17.0171,42.38,220.09,0.0563,0.4955,1.8051,0.0271,0.8264,-0.5498,-0.0002,-0.0992,-0.0289,-0.0934,-0.0336,-0.0536,-0.0023,-0.0144,4.2754,0.1957,0.068,0.1165,0.0088,0.0,1176000.0
10,1.0,1.9775,-0.0022,16.9843,45.51,236.92,0.0671,0.5365,1.6155,0.0309,0.9795,-0.5877,-0.0002,-0.1034,-0.0303,-0.1041,-0.0397,-0.0454,-0.0025,-0.0156,4.2662,0.2521,0.0689,0.1269,0.0091,0.0,1293600.0
11,0.99,1.8937,0.0016,16.9481,49.53,260.95,0.077,0.6015,1.881,0.0322,1.1415,-0.6656,-0.0002,-0.1149,-0.0363,-0.1181,-0.0459,-0.0478,-0.0028,-0.0177,4.2563,0.2694,0.0801,0.1369,0.0096,0.0,1411200.0
12,0.99,1.9048,0.0072,16.8937,58.4,292.55,0.084,0.6578,2.0741,0.037,1.2906,-0.7215,-0.0002,-0.1179,-0.0379,-0.1264,-0.0449,-0.0457,-0.003,-0.0184,4.2455,0.2966,0.0833,0.1488,0.0099,0.0,1528800.0
13,0.99,1.7777,0.0012,16.8877,62.16,311.56,0.0717,0.6451,2.0444,0.0374,1.1255,-0.7081,-0.0002,-0.1172,-0.0367,-0.1252,-0.0456,-0.0631,-0.003,-0.0181,4.235,0.2932,0.0844,0.1606,0.0103,0.0,1646400.0
14,0.98,1.7104,-0.0024,16.8247,65.73,337.2,0.0775,0.7576,2.6809,0.0419,1.2502,-0.8358,-0.0002,-0.1337,-0.0442,-0.1458,-0.0519,-0.085,-0.0035,-0.021,4.2251,0.3044,0.1019,0.1723,0.0105,0.0,1764000.0
15,0.98,1.6195,-0.0011,16.7966,71.02,361.93,0.0967,0.804,2.4662,0.0469,1.5659,-0.8793,-0.0002,-0.1387,-0.0453,-0.1594,-0.0559,-0.0585,-0.0037,-0.0222,4.2134,0.3696,0.101,0.1848,0.0109,0.0,1881600.0
16,0.98,1.5764,-0.0002,16.7427,79.96,385.47,0.0867,0.8555,3.1937,0.0503,1.4393,-0.9377,-0.0002,-0.1477,-0.0483,-0.1691,-0.048,-0.091,-0.0038,-0.0235,4.1991,0.3152,0.1105,0.2001,0.0112,0.0,1999200.0
17,0.97,1.5263,0.0012,16.7156,81.97,398.44,0.1018,0.8998,2.8505,0.0533,1.7355,-0.9804,-0.0002,-0.151,-0.0491,-0.1774,-0.0655,-0.068,-0.0042,-0.0246,4.1887,0.4075,0.1134,0.2117,0.0116,0.0,2116800.0
18,0.97,1.4633,0.0005,16.6812,84.25,421.04,0.1101,0.9503,3.0611,0.0554,1.8705,-1.0408,-0.0002,-0.1612,-0.0514,-0.1862,-0.0515,-0.0688,-0.0041,-0.0258,4.1775,0.4457,0.1248,0.2226,0.0122,0.0,2234400.0
19,0.97,1.3715,-0.0011,16.6289,93.67,456.73,0.1118,1.0141,3.202,0.0587,1.902,-1.1078,-0.0003,-0.1673,-0.0577,-0.1937,-0.0609,-0.0856,-0.0045,-0.0273,4.1666,0.493,0.1346,0.2348,0.0123,0.0,2352000.0
20,0.96,1.3714,0.0056,16.5839,94.48,478.85,0.1124,1.0807,3.2056,0.0657,1.9962,-1.1717,-0.0003,-0.1757,-0.0586,-0.2148,-0.0836,-0.094,-0.005,-0.0306,4.1562,0.5225,0.1338,0.2465,0.0124,0.0,2469600.0
21,0.96,1.3134,-0.0003,16.547,97.81,508.72,0.1253,1.1339,3.556,0.0677,2.1628,-1.2262,-0.0003,-0.1835,-0.0639,-0.2214,-0.0614,-0.0881,-0.0049,-0.0301,4.1455,0.5038,0.1398,0.2589,0.0124,0.0,2587200.0
22,0.96,1.2987,-0.002,16.4593,102.15,531.4,0.1222,1.1833,3.6771,0.0718,2.1731,-1.2835,-0.0003,-0.1896,-0.0634,-0.235,-0.0751,-0.1043,-0.0053,-0.0317,4.1359,0.5559,0.1494,0.2701,0.0124,0.0,2704800.0
23,0.95,1.2382,-0.0016,16.4574,107.56,556.79,0.1119,1.236,4.1092,0.0741,2.0529,-1.3405,-0.0003,-0.1978,-0.0684,-0.2409,-0.086,-0.1333,-0.0056,-0.0336,4.1248,0.5364,0.1557,0.2832,0.0124,0.0,2822400.0
24,0.95,1.2082,0.0012,16.4257,114.93,571.49,0.1295,1.2618,4.5956,0.0728,2.2019,-1.3711,-0.0003,-0.2057,-0.0713,-0.2427,-0.0631,-0.1247,-0.0054,-0.0331,4.1154,0.5063,0.1697,0.2944,0.0125,0.0,2940000.0
25,0.95,1.1805,-0.0022,16.3789,126.39,592.27,0.1302,1.3337,4.9629,0.0795,2.3671,-1.4352,-0.0003,-0.2089,-0.0709,-0.264,-0.0717,-0.1282,-0.0057,-0.0349,4.1051,0.4745,0.1643,0.3058,0.0128,0.0,3057600.0
26,0.94,1.1231,-0.0001,16.3415,128.87,625.84,0.1467,1.3875,4.7815,0.0778,2.6399,-1.5044,-0.0003,-0.2179,-0.0785,-0.2666,-0.0784,-0.1135,-0.0061,-0.0364,4.0956,0.5918,0.1816,0.3165,0.0129,0.0,3175200.0
27,0.94,1.1017,-0.0026,16.2972,135.36,652.51,0.1549,1.4462,4.9086,0.086,2.8132,-1.5578,-0.0003,-0.2249,-0.0798,-0.2795,-0.1002,-0.109,-0.0065,-0.0388,4.0851,0.5833,0.1821,0.3286,0.0129,0.0,3292800.0
28,0.94,1.0743,-0.0007,16.2719,137.77,672.76,0.1646,1.4986,4.1559,0.0892,3.113,-1.613,-0.0004,-0.228,-0.0809,-0.2947,-0.1262,-0.0909,-0.007,-0.0407,4.0755,0.7338,0.1889,0.3389,0.0129,0.0,3410400.0
29,0.94,1.0587,0.0033,16.2289,135.41,697.22,0.1651,1.5478,4.4141,0.0916,3.0465,-1.6649,-0.0004,-0.238,-0.0857,-0.297,-0.0875,-0.1125,-0.0068,-0.0398,4.0653,0.7772,0.1989,0.3502,0.013,0.0,3528000.0
30,0.93,1.0273,-0.0011,16.203,141.9,715.06,0.16,1.5618,4.9966,0.0916,2.9269,-1.6818,-0.0004,-0.2425,-0.0846,-0.3047,-0.0991,-0.1303,-0.0069,-0.0416,4.0562,0.7179,0.2077,0.3601,0.0132,0.0,3645600.0
31,0.93,0.9659,-0.0031,16.1579,160.25,750.73,0.1716,1.6558,5.7395,0.0977,3.1903,-1.767,-0.0004,-0.2491,-0.0902,-0.3147,-0.0867,-0.128,-0.0071,-0.0422,4.0448,0.6461,0.2093,0.3727,0.0133,0.0,3763200.0
32,0.93,0.9543,0.0037,16.1192,163.08,768.88,0.1732,1.7124,5.3341,0.1055,3.2004,-1.8233,-0.0004,-0.2572,-0.0897,-0.3241,-0.0857,-0.142,-0.0073,-0.0441,4.0341,0.7778,0.2117,0.3845,0.0133,0.0,3880800.0
33,0.92,0.9233,0.0012,16.083,164.81,794.06,0.1634,1.7723,6.4563,0.1088,3.048,-1.8722,-0.0004,-0.2628,-0.092,-0.3475,-0.0986,-0.1758,-0.0076,-0.0456,4.0253,0.6721,0.211,0.395,0.0133,0.0,3998400.0
34,0.92,0.8954,-0.0053,15.9815,171.95,814.26,0.191,1.7868,5.7114,0.1021,3.5155,-1.9006,-0.0004,-0.2684,-0.0981,-0.3472,-0.0909,-0.1313,-0.0076,-0.0458,4.0142,0.7977,0.2287,0.4078,0.0134,0.0,4116000.0
35,0.91,0.8783,0.0021,15.9365,172.16,845.07,0.2049,1.8773,5.7581,0.1109,3.792,-1.9824,-0.0004,-0.2812,-0.1007,-0.3608,-0.09,-0.1218,-0.0078,-0.0481,4.0027,0.8874,0.225,0.4204,0.0135,0.0,4233600.0
36,0.9,0.8408,-0.0015,15.8869,180.25,869.01,0.1947,1.926,6.4068,0.1168,3.6715,-2.0308,-0.0004,-0.284,-0.1023,-0.3795,-0.1043,-0.1537,-0.0083,-0.0496,3.9917,0.8356,0.2353,0.4323,0.0135,0.0,4351200.0
37,0.9,0.8103,-0.0041,15.7639,196.17,895.55,0.1705,1.9705,7.6669,0.1149,3.1026,-2.0832,-0.0005,-0.2957,-0.1059,-0.3794,-0.0997,-0.2316,-0.0084,-0.0501,3.9818,0.6759,0.25,0.4452,0.0135,0.0,4468800.0
38,0.9,0.8617,0.0022,15.7504,195.32,911.37,0.2045,2.009,6.6086,0.1204,3.8319,-2.1232,-0.0005,-0.2986,-0.1078,-0.3935,-0.124,-0.1597,-0.0088,-0.0518,3.9682,0.8665,0.255,0.4605,0.0135,0.0,4586400.0
39,0.89,0.7641,-0.0006,15.7094,195.37,919.79,0.1909,2.0048,6.7266,0.1213,3.6871,-2.0956,-0.0005,-0.2895,-0.1048,-0.3842,-0.1368,-0.1709,-0.0089,-0.0516,3.9582,0.8353,0.2404,0.4718,0.0139,0.0,4704000.0
40,0.89,0.7386,0.0001,15.6286,197.13,952.38,0.2064,2.1288,6.7911,0.1266,3.87,-2.2398,-0.0005,-0.3156,-0.115,-0.4242,-0.1152,-0.1929,-0.009,-0.0543,3.9496,0.9947,0.2694,0.4825,0.0139,0.0,4821600.0
41,0.89,0.684,0.0053,15.643,205.68,987.64,0.2231,2.166,7.2885,0.1257,4.3101,-2.2704,-0.0005,-0.3137,-0.1158,-0.4195,-0.1516,-0.1504,-0.0097,-0.0563,3.9391,0.8805,0.2682,0.4942,0.014,0.0,4939200.0
42,0.89,0.7464,-0.0032,15.5268,213.11,994.53,0.1983,2.1734,8.1771,0.1293,3.8093,-2.27,-0.0005,-0.314,-0.1158,-0.4086,-0.1314,-0.2126,-0.0095,-0.0553,3.927,0.7997,0.2706,0.5069,0.0141,0.0,5056800.0
43,0.88,0.6803,0.0008,15.5269,218.93,1020.44,0.2261,2.2968,7.9856,0.1405,4.2979,-2.3866,-0.0005,-0.33,-0.1189,-0.4283,-0.1373,-0.188,-0.0099,-0.0584,3.9139,0.9181,0.2789,0.5207,0.0145,0.0,5174400.0
44,0.88,0.6391,-0.0044,15.4727,221.05,1056.08,0.2457,2.358,7.3277,0.1385,4.6297,-2.4372,-0.0005,-0.3359,-0.1238,-0.4553,-0.1272,-0.1656,-0.0099,-0.0592,3.9034,1.1113,0.2761,0.5336,0.0145,0.0,5292000.0
45,0.88,0.6173,0.0002,15.4485,222.5,1086.01,0.2309,2.3982,7.7531,0.1404,4.4346,-2.4947,-0.0005,-0.3466,-0.1258,-0.4673,-0.1618,-0.2042,-0.0105,-0.0616,3.8935,1.0816,0.2954,0.545,0.0145,0.0,5409600.0
46,0.87,0.6103,-0.0033,15.4039,228.98,1106.5,0.2345,2.4559,7.8805,0.1388,4.4727,-2.5484,-0.0005,-0.3489,-0.1322,-0.4757,-0.1544,-0.2185,-0.0107,-0.0618,3.8827,1.1438,0.2969,0.5578,0.0145,0.0,5527200.0
47,0.87,0.5898,-0.0017,15.3544,233.16,1128.0,0.2313,2.5115,8.4277,0.1493,4.3327,-2.5941,-0.0006,-0.3504,-0.1298,-0.4739,-0.1414,-0.2442,-0.0107,-0.0625,3.8738,1.0503,0.3003,0.5679,0.0145,0.0,5644800.0
48,0.87,0.5801,0.002,15.3223,233.92,1152.94,0.2542,2.5624,8.4038,0.1515,4.9455,-2.6391,-0.0006,-0.3608,-0.1345,-0.4979,-0.1925,-0.193,-0.0114,-0.0659,3.8648,1.0898,0.3089,0.5783,0.0145,0.0,5762400.0
49,0.86,0.5863,0.0002,15.2648,244.17,1178.41,0.2494,2.6228,9.2945,0.1606,4.7392,-2.695,-0.0006,-0.3712,-0.137,-0.4897,-0.1179,-0.235,-0.0107,-0.0645,3.8548,1.0533,0.3075,0.5894,0.0145,0.0,5880000.0
50,0.86,0.5771,0.0009,15.2339,248.81,1193.03,0.2692,2.6594,7.941,0.1568,5.1928,-2.7221,-0.0006,-0.3735,-0.1354,-0.506,-0.1481,-0.1897,-0.0111,-0.0669,3.8451,1.3167,0.3099,0.6001,0.0145,0.0,5997600.0
51,0.86,0.5492,-0.0023,15.1381,263.15,1218.51,0.276,2.7197,9.2468,0.1578,5.3315,-2.7931,-0.0006,-0.3786,-0.142,-0.5144,-0.1612,-0.1958,-0.0115,-0.0684,3.8324,1.1289,0.3292,0.6141,0.0147,0.0,6115200.0
52,0.85,0.655,-0.0014,15.1273,272.16,1241.15,0.2501,2.7652,10.0172,0.1668,4.9036,-2.8183,-0.0006,-0.3809,-0.1399,-0.5318,-0.1734,-0.2525,-0.0119,-0.068,3.8213,0.995,0.3222,0.627,0.0147,0.0,6232800.0
53,0.85,0.5946,-0.004,15.0819,267.15,1262.63,0.2869,2.8301,9.0159,0.1668,5.4696,-2.8822,-0.0006,-0.396,-0.1473,-0.5287,-0.1408,-0.208,-0.0117,-0.0683,3.8092,1.2262,0.3371,0.6393,0.0149,0.0,6350400.0
54,0.85,0.5214,-0.0042,14.987,270.84,1295.89,0.2807,2.8929,9.6906,0.1712,5.4819,-2.9294,-0.0006,-0.3893,-0.148,-0.5312,-0.1571,-0.2222,-0.0121,-0.0701,3.7997,1.1732,0.3338,0.6494,0.0149,0.0,6468000.0
55,0.84,0.4979,-0.0032,14.9729,276.14,1320.27,0.2925,2.9466,9.632,0.1773,5.7017,-2.9837,-0.0006,-0.4052,-0.151,-0.5758,-0.1801,-0.2195,-0.0126,-0.073,3.7903,1.2368,0.3388,0.6598,0.0149,0.0,6585600.0
56,0.84,0.5408,-0.0005,14.9313,291.76,1350.35,0.3017,2.9897,10.3604,0.1796,5.7884,-3.0271,-0.0007,-0.4104,-0.1537,-0.5697,-0.1561,-0.2206,-0.0124,-0.0735,3.7805,1.108,0.3555,0.6707,0.0149,0.0,6703200.0
57,0.84,0.5097,-0.0016,14.8614,288.9,1371.58,0.297,3.0464,9.8398,0.176,5.6953,-3.0814,-0.0007,-0.4076,-0.1593,-0.5572,-0.1766,-0.2455,-0.0129,-0.0728,3.7693,1.3563,0.3575,0.6839,0.0149,0.0,6820800.0
58,0.83,0.5052,-0.0026,14.8362,288.1,1397.72,0.2967,3.1075,10.5235,0.1824,5.8886,-3.1262,-0.0007,-0.4172,-0.1561,-0.5833,-0.1889,-0.2394,-0.0132,-0.0754,3.7573,1.2955,0.356,0.6977,0.0149,0.0,6938400.0
59,0.83,0.4586,-0.0012,14.8119,309.46,1420.42,0.3157,3.1601,9.9129,0.1792,6.2451,-3.171,-0.0007,-0.4214,-0.1622,-0.5925,-0.1855,-0.2164,-0.0134,-0.0758,3.746,1.4294,0.3625,0.7103,0.0149,0.0,7056000.0
60,0.83,0.4271,-0.001,14.7469,304.83,1442.23,0.3216,3.2042,10.2322,0.1932,6.0888,-3.221,-0.0007,-0.4414,-0.1614,-0.5964,-0.128,-0.2484,-0.0127,-0.0773,3.7365,1.4185,0.3772,0.7222,0.0149,0.0,7173600.0
61,0.82,0.4383,-0.0055,14.6724,305.09,1467.38,0.3163,3.2614,10.4331,0.1959,6.2253,-3.2709,-0.0007,-0.438,-0.1655,-0.6151,-0.1731,-0.2494,-0.0135,-0.0777,3.7266,1.484,0.3793,0.7339,0.0149,0.0,7291200.0
62,0.82,0.4562,-0.006,14.6449,316.85,1494.54,0.3322,3.313,10.7318,0.1924,6.4577,-3.3147,-0.0007,-0.4484,-0.1678,-0.6065,-0.1661,-0.2372,-0.0135,-0.0793,3.7153,1.426,0.3874,0.7467,0.0149,0.0,7408800.0
63,0.82,0.4117,-0.0057,14.6089,324.95,1518.48,0.3281,3.3718,10.5069,0.192,6.4722,-3.367,-0.0007,-0.4481,-0.1754,-0.6274,-0.2064,-0.2529,-0.0143,-0.081,3.7036,1.5803,0.3878,0.7602,0.0149,0.0,7526400.0
64,0.82,0.4058,-0.0032,14.5672,329.01,1544.64,0.3312,3.419,11.1538,0.2048,6.4109,-3.4098,-0.0007,-0.4623,-0.1711,-0.6333,-0.1657,-0.2716,-0.0138,-0.0819,3.6908,1.4749,0.3995,0.775,0.0149,0.0,7644000.0
65,0.81,0.3942,-0.005,14.5405,329.78,1560.03,0.3353,3.4805,10.9373,0.2107,6.7274,-3.4594,-0.0007,-0.4604,-0.1733,-0.6611,-0.2594,-0.2591,-0.0153,-0.086,3.6794,1.5282,0.3969,0.7878,0.0149,0.0,7761600.0
66,0.81,0.429,-0.0067,14.4887,342.88,1584.52,0.3444,3.5275,12.3801,0.2045,6.7179,-3.5043,-0.0007,-0.4652,-0.1783,-0.6607,-0.2176,-0.2744,-0.015,-0.0853,3.671,1.3239,0.4099,0.7975,0.0149,0.0,7879200.0
67,0.81,0.398,-0.0063,14.4791,346.44,1604.71,0.3434,3.5973,11.6941,0.2055,6.4279,-3.5459,-0.0008,-0.4739,-0.1807,-0.68,-0.1947,-0.3159,-0.0148,-0.0851,3.6631,1.6019,0.3995,0.8072,0.0149,0.0,7996800.0
68,0.81,0.4585,-0.0059,14.417,349.31,1630.49,0.3421,3.6311,12.604,0.209,6.5312,-3.5857,-0.0008,-0.4801,-0.1876,-0.6786,-0.188,-0.3226,-0.0149,-0.0854,3.6554,1.5195,0.4241,0.8168,0.0149,0.0,8114400.0
69,0.81,0.3867,-0.0045,14.4003,348.52,1656.79,0.3499,3.6997,12.0209,0.2178,6.8569,-3.6433,-0.0008,-0.4813,-0.1839,-0.6883,-0.2226,-0.3055,-0.0155,-0.0886,3.6474,1.5395,0.4151,0.8271,0.0149,0.0,8232000.0
70,0.8,0.3723,-0.0042,14.3802,362.66,1682.74,0.3594,3.7465,12.6075,0.2248,7.0148,-3.6832,-0.0008,-0.4921,-0.1876,-0.7,-0.197,-0.3018,-0.0153,-0.0891,3.6379,1.5531,0.4272,0.8375,0.0149,0.0,8349600.0
71,0.8,0.4104,-0.0052,14.3272,366.33,1707.85,0.3622,3.8028,11.8875,0.2273,6.9807,-3.728,-0.0008,-0.5015,-0.1893,-0.6916,-0.199,-0.3167,-0.0155,-0.0899,3.6273,1.7486,0.4299,0.8493,0.0149,0.0,8467200.0
72,0.79,0.3876,-0.003,14.2832,367.57,1733.21,0.3769,3.855,12.6798,0.2243,7.1996,-3.7712,-0.0008,-0.5047,-0.1952,-0.7025,-0.1809,-0.3072,-0.0154,-0.0895,3.6176,1.6741,0.4374,0.8603,0.0149,0.0,8584800.0
73,0.79,0.3792,-0.0084,14.1984,386.29,1758.75,0.3738,3.9063,14.3598,0.2321,7.2716,-3.8206,-0.0008,-0.5086,-0.1968,-0.7375,-0.2419,-0.3161,-0.0164,-0.0929,3.6066,1.4487,0.4452,0.8733,0.0149,0.0,8702400.0
74,0.79,0.3994,-0.0062,14.1668,381.9,1761.15,0.3707,3.8767,12.5492,0.2227,7.1584,-3.7811,-0.0008,-0.4976,-0.1954,-0.723,-0.2074,-0.3232,-0.0159,-0.0897,3.596,1.6628,0.4438,0.8857,0.0149,0.0,8820000.0
75,0.79,0.3623,-0.0052,14.1436,388.45,1783.61,0.3952,4.024,14.2661,0.2358,7.6974,-3.9085,-0.0009,-0.5133,-0.1976,-0.7449,-0.2716,-0.3004,-0.0171,-0.0959,3.5872,1.5636,0.4458,0.8957,0.0151,0.0,8937600.0
76,0.78,0.3888,-0.0028,14.1095,398.69,1825.91,0.3766,4.0752,13.9856,0.2476,7.1488,-3.9595,-0.0009,-0.5311,-0.1968,-0.7516,-0.2171,-0.3748,-0.0166,-0.0956,3.5786,1.6588,0.4542,0.9068,0.0151,0.0,9055200.0
77,0.78,0.4254,-0.0029,13.9954,403.13,1850.1,0.3809,4.1366,14.6317,0.2438,7.2232,-3.9999,-0.0009,-0.5297,-0.2011,-0.7759,-0.252,-0.3788,-0.0171,-0.0977,3.5703,1.5789,0.4522,0.9171,0.0151,0.0,9172800.0
78,0.77,0.3653,-0.0068,13.954,411.14,1873.79,0.3947,4.1715,14.6407,0.2389,7.6068,-4.0444,-0.0009,-0.5252,-0.211,-0.7599,-0.2862,-0.3528,-0.0178,-0.0982,3.5613,1.6221,0.4761,0.9286,0.0151,0.0,9290400.0
79,0.77,0.3448,-0.0049,13.8711,414.5,1895.35,0.4045,4.2464,14.4194,0.2509,7.8522,-4.0903,-0.0009,-0.5373,-0.2078,-0.7733,-0.2261,-0.347,-0.0173,-0.0983,3.5531,1.7288,0.4607,0.9389,0.0151,0.0,9408000.0
80,0.77,0.3387,-0.0088,13.8072,427.96,1923.18,0.4446,4.2884,14.4851,0.2455,8.1827,-4.1293,-0.001,-0.5546,-0.2194,-0.7815,-0.1831,-0.3207,-0.0168,-0.098,3.5433,1.7836,0.4781,0.9502,0.0151,0.0,9525600.0
81,0.76,0.3422,-0.0072,13.7762,430.81,1948.02,0.3973,4.3426,15.5285,0.2487,7.4748,-4.1675,-0.001,-0.5568,-0.2182,-0.778,-0.2204,-0.4128,-0.0174,-0.0986,3.5329,1.6611,0.4832,0.9627,0.0151,0.0,9643200.0
82,0.76,0.3374,-0.007,13.7361,427.58,1972.41,0.4054,4.3967,15.442,0.2528,7.8314,-4.2155,-0.0009,-0.5593,-0.2191,-0.8264,-0.2767,-0.3891,-0.0183,-0.1032,3.5233,1.7788,0.4881,0.9745,0.0151,0.0,9760800.0
83,0.76,0.3386,-0.0075,13.6826,434.92,1993.0,0.4304,4.4396,14.9045,0.2567,8.5112,-4.245,-0.001,-0.5523,-0.2181,-0.8043,-0.2731,-0.3264,-0.0183,-0.1018,3.5129,1.8453,0.4907,0.9845,0.0151,0.0,9878400.0
84,0.76,0.3463,-0.0056,13.6359,437.73,2000.0,0.4096,4.4461,15.9873,0.2532,7.6111,-4.2352,-0.001,-0.5602,-0.2219,-0.8043,-0.2372,-0.4305,-0.018,-0.1011,3.5013,1.6833,0.4869,0.9874,0.0126,0.0,9996000.0
85,0.75,0.3492,-0.0076,13.5949,453.95,2000.0,0.4186,4.4491,16.0562,0.2555,8.0026,-4.2212,-0.001,-0.5497,-0.2183,-0.8419,-0.3053,-0.3905,-0.0189,-0.1013,3.4901,1.6993,0.4845,0.9902,0.0098,0.0,10113600.0
86,0.75,0.3473,-0.0068,13.5518,455.13,2000.0,0.4489,4.4497,15.0403,0.2604,8.6422,-4.2064,-0.001,-0.5659,-0.2204,-0.8229,-0.2351,-0.3157,-0.0177,-0.1021,3.4795,1.7339,0.4836,0.9911,0.0089,0.0,10231200.0
87,0.75,0.3388,-0.0094,13.5095,461.81,2000.0,0.4354,4.4566,16.6886,0.2521,8.197,-4.1935,-0.001,-0.5576,-0.2176,-0.8346,-0.26,-0.3632,-0.0181,-0.102,3.4711,1.5017,0.477,0.9918,0.0082,0.0,10348800.0
88,0.74,0.3427,-0.0101,13.468,461.45,2000.0,0.4435,4.4562,15.5592,0.2615,8.6093,-4.1739,-0.001,-0.5506,-0.2129,-0.7869,-0.1988,-0.3159,-0.0173,-0.0987,3.4625,1.7091,0.4773,0.9922,0.0078,0.0,10466400.0
89,0.74,0.3412,-0.0103,13.4306,446.31,2000.0,0.4317,4.4518,14.3185,0.2604,8.4197,-4.1663,-0.001,-0.5495,-0.2184,-0.8096,-0.2621,-0.3388,-0.0182,-0.1002,3.4543,1.9423,0.4814,0.9926,0.0074,0.0,10584000.0
90,0.74,0.3458,-0.0098,13.4131,434.02,2000.0,0.4241,4.4682,14.8019,0.2589,8.3086,-4.1456,-0.001,-0.5456,-0.2148,-0.8058,-0.2803,-0.353,-0.0183,-0.1004,3.4449,1.8622,0.4657,0.9932,0.0068,0.0,10701600.0
91,0.74,0.3536,-0.01,13.3834,442.66,2000.0,0.4241,4.453,14.8683,0.2578,8.0522,-4.1223,-0.001,-0.5509,-0.2159,-0.7899,-0.2439,-0.3763,-0.0178,-0.099,3.4366,1.8394,0.4806,0.9937,0.0063,0.0,10819200.0
92,0.74,0.3544,-0.0112,13.3502,438.09,2000.0,0.4186,4.4812,15.1217,0.268,7.8471,-4.1093,-0.001,-0.5463,-0.209,-0.7897,-0.2071,-0.4002,-0.0173,-0.0984,3.4305,1.8585,0.4536,0.9937,0.0063,0.0,10936800.0
93,0.74,0.3597,-0.0106,13.3237,452.15,2000.0,0.4342,4.4491,15.3785,0.2538,8.23,-4.0953,-0.001,-0.5416,-0.2217,-0.8128,-0.2704,-0.3575,-0.0182,-0.0991,3.4228,1.7349,0.4848,0.9938,0.0062,0.0,11054400.0
94,0.73,0.3628,-0.011,13.29,456.81,2000.0,0.4461,4.4719,15.3698,0.2576,8.0708,-4.0904,-0.001,-0.5439,-0.2139,-0.7857,-0.2078,-0.3801,-0.0173,-0.0967,3.4141,1.7746,0.4623,0.9943,0.0057,0.0,11172000.0
95,0.73,0.3631,-0.0126,13.2718,445.12,2000.0,0.4372,4.4662,15.1713,0.2507,8.0749,-4.064,-0.001,-0.5408,-0.2164,-0.8041,-0.255,-0.3819,-0.0177,-0.0996,3.4048,1.8516,0.468,0.9947,0.0053,0.0,11289600.0
96,0.73,0.3658,-0.0113,13.2508,436.08,2000.0,0.4377,4.4582,15.0456,0.2592,8.2602,-4.0462,-0.001,-0.5349,-0.2125,-0.7819,-0.2274,-0.3543,-0.0175,-0.0973,3.3951,1.7285,0.4749,0.9951,0.0049,0.0,11407200.0
97,0.73,0.3629,-0.0108,13.2362,437.08,2000.0,0.4393,4.4654,14.2373,0.2535,8.1299,-4.0289,-0.001,-0.5335,-0.2161,-0.7856,-0.2127,-0.3714,-0.0172,-0.095,3.3859,1.9372,0.4683,0.9953,0.0047,0.0,11524800.0
98,0.73,0.3618,-0.0117,13.2135,434.19,2000.0,0.4456,4.4719,14.7923,0.2634,8.4094,-4.0221,-0.001,-0.5341,-0.2129,-0.7904,-0.24,-0.343,-0.0175,-0.0972,3.377,1.8574,0.4623,0.9957,0.0043,0.0,11642400.0
99,0.73,0.3638,-0.0125,13.187,455.57,2000.0,0.4179,4.4826,15.5465,0.2662,7.9322,-4.0088,-0.001,-0.5337,-0.2062,-0.8092,-0.2444,-0.3965,-0.0175,-0.0968,3.3665,1.722,0.452,0.996,0.004,0.0,11760000.0
100,0.73,0.3626,-0.0134,13.1524,458.14,2000.0,0.4713,4.4777,14.5194,0.2552,8.9475,-3.9923,-0.001,-0.5334,-0.2081,-0.8004,-0.2431,-0.2764,-0.0175,-0.0965,3.3568,1.8825,0.4569,0.9963,0.0037,0.0,11877600.0
101,0.73,0.368,-0.0117,13.131,447.93,2000.0,0.4585,4.4823,16.0442,0.2531,8.0595,-3.974,-0.0011,-0.5304,-0.2155,-0.7795,-0.2037,-0.3748,-0.017,-0.095,3.3481,1.6249,0.4525,0.997,0.003,0.0,11995200.0
102,0.72,0.3785,-0.0115,13.102,446.43,2000.0,0.4436,4.4904,15.0111,0.2595,8.2963,-3.9624,-0.001,-0.5277,-0.2131,-0.7837,-0.2461,-0.3539,-0.0174,-0.0966,3.3383,1.793,0.4446,0.9971,0.0029,0.0,12112800.0
103,0.72,0.3854,-0.0125,13.0797,440.08,2000.0,0.457,4.4871,14.1728,0.2554,8.4602,-3.9479,-0.001,-0.5263,-0.2093,-0.7758,-0.1919,-0.336,-0.0168,-0.094,3.3281,1.9485,0.4474,0.9973,0.0027,0.0,12230400.0
104,0.72,0.3782,-0.0132,13.0607,448.05,2000.0,0.475,4.4798,15.4771,0.244,8.4688,-3.9385,-0.0011,-0.5254,-0.2158,-0.7632,-0.2061,-0.3284,-0.0169,-0.0932,3.3193,1.7307,0.4547,0.9973,0.0027,0.0,12348000.0
105,0.72,0.3771,-0.0132,13.0355,458.25,2000.0,0.4265,4.4848,16.4096,0.2499,7.3732,-3.916,-0.0012,-0.5191,-0.2182,-0.8048,-0.2798,-0.4587,-0.0178,-0.0965,3.3096,1.6119,0.4501,0.9973,0.0027,0.0,12465600.0
106,0.72,0.3768,-0.0142,13.0254,448.47,2000.0,0.4562,4.4862,15.0048,0.2524,8.0428,-3.9057,-0.0011,-0.5216,-0.2123,-0.809,-0.2189,-0.3806,-0.017,-0.0945,3.3005,1.8304,0.4486,0.9973,0.0027,0.0,12583200.0
107,0.72,0.3796,-0.0137,12.9966,442.67,2000.0,0.4212,4.4922,15.6191,0.2626,7.7838,-3.8996,-0.001,-0.5194,-0.2067,-0.7719,-0.2278,-0.4191,-0.0171,-0.0941,3.2921,1.7439,0.4431,0.9973,0.0027,0.0,12700800.0
108,0.72,0.3808,-0.0132,12.9738,461.87,2000.0,0.4601,4.4952,16.1778,0.2592,8.4672,-3.8821,-0.0011,-0.5213,-0.2052,-0.7507,-0.2033,-0.3295,-0.0167,-0.094,3.2836,1.5906,0.4396,0.9976,0.0024,0.0,12818400.0
109,0.72,0.3874,-0.0148,12.9495,471.8,2000.0,0.4544,4.5017,16.4435,0.2545,8.3911,-3.8712,-0.0011,-0.5072,-0.2125,-0.7995,-0.237,-0.3461,-0.0173,-0.093,3.2757,1.5812,0.4338,0.9978,0.0022,0.0,12936000.0
110,0.71,0.3824,-0.0155,12.9354,473.43,2000.0,0.4702,4.4956,16.0474,0.2563,8.3402,-3.8532,-0.0011,-0.5251,-0.21,-0.7356,-0.168,-0.3379,-0.0163,-0.092,3.2684,1.6304,0.4394,0.9978,0.0022,0.0,13053600.0
111,0.71,0.3828,-0.0161,12.909,463.24,2000.0,0.4463,4.4944,16.0793,0.2597,8.1177,-3.8524,-0.0011,-0.5082,-0.2005,-0.7361,-0.1779,-0.3692,-0.0164,-0.0907,3.2602,1.6319,0.4406,0.9978,0.0022,0.0,13171200.0
112,0.71,0.3877,-0.0159,12.8779,456.68,2000.0,0.4592,4.492,16.0659,0.2421,7.8813,-3.8242,-0.0011,-0.5083,-0.2153,-0.7529,-0.1867,-0.4005,-0.0165,-0.0913,3.2537,1.5847,0.443,0.9978,0.0022,0.0,13288800.0
113,0.71,0.3815,-0.0149,12.855,458.04,2000.0,0.4866,4.4992,14.7466,0.2459,8.5861,-3.8245,-0.0013,-0.5065,-0.2098,-0.7404,-0.1837,-0.3094,-0.0164,-0.0902,3.2464,1.8397,0.4363,0.998,0.002,0.0,13406400.0
114,0.71,0.3857,-0.0143,12.8451,458.51,2000.0,0.4528,4.5017,15.8918,0.2614,8.1237,-3.8015,-0.0011,-0.5129,-0.2015,-0.7515,-0.2013,-0.3761,-0.0166,-0.0916,3.2391,1.6501,0.4334,0.9982,0.0018,0.0,13524000.0
115,0.71,0.3932,-0.0153,12.8266,463.81,2000.0,0.4738,4.5023,15.7245,0.2485,8.3483,-3.7971,-0.0011,-0.5112,-0.2142,-0.7679,-0.2014,-0.3521,-0.0167,-0.0912,3.2302,1.6624,0.4332,0.9982,0.0018,0.0,13641600.0
116,0.71,0.3926,-0.0154,12.7989,455.57,2000.0,0.4678,4.5118,14.4292,0.2425,8.2653,-3.7834,-0.0012,-0.4975,-0.212,-0.7942,-0.2499,-0.3543,-0.0173,-0.0917,3.2243,1.9323,0.4243,0.9982,0.0018,0.0,13759200.0
117,0.71,0.3944,-0.0144,12.7871,454.86,2000.0,0.4633,4.5125,15.3123,0.2607,8.1399,-3.7758,-0.0012,-0.5088,-0.2105,-0.756,-0.2143,-0.3779,-0.0167,-0.0925,3.2184,1.7835,0.4234,0.9982,0.0018,0.0,13876800.0
118,0.7,0.3982,-0.0159,12.7546,468.56,2000.0,0.4495,4.4984,16.8799,0.2527,7.9082,-3.7596,-0.0011,-0.5061,-0.2053,-0.7668,-0.2296,-0.4112,-0.0169,-0.0923,3.2115,1.4887,0.4372,0.9984,0.0016,0.0,13994400.0
119,0.7,0.3939,-0.0158,12.7427,470.12,2000.0,0.4136,4.5086,17.3156,0.2594,7.4764,-3.7521,-0.0011,-0.4922,-0.1978,-0.7787,-0.2555,-0.4529,-0.0172,-0.092,3.207,1.4803,0.4271,0.9984,0.0016,0.0,14112000.0
120,0.7,0.4003,-0.0156,12.7109,469.22,2000.0,0.4681,4.5186,15.9553,0.2457,7.7258,-3.7402,-0.0013,-0.499,-0.2156,-0.7657,-0.2355,-0.4235,-0.017,-0.0914,3.2005,1.6736,0.418,0.9984,0.0016,0.0,14229600.0
121,0.7,0.4014,-0.0156,12.6872,472.79,2000.0,0.4714,4.5103,16.2956,0.255,8.1482,-3.724,-0.0012,-0.4997,-0.2047,-0.736,-0.1733,-0.3687,-0.0162,-0.0891,3.1946,1.6148,0.4256,0.9984,0.0016,0.0,14347200.0
122,0.7,0.3936,-0.016,12.6713,458.14,2000.0,0.4777,4.5025,14.7497,0.2554,8.4488,-3.72,-0.0012,-0.5121,-0.2033,-0.774,-0.214,-0.3337,-0.0165,-0.0912,3.1888,1.9159,0.4331,0.9987,0.0013,0.0,14464800.0
123,0.7,0.401,-0.0148,12.6526,449.36,2000.0,0.4838,4.5043,15.1982,0.251,8.1209,-3.7064,-0.0013,-0.504,-0.2093,-0.7449,-0.1876,-0.3777,-0.0163,-0.09,3.1843,1.7622,0.4312,0.9988,0.0012,0.0,14582400.0
124,0.7,0.3936,-0.0158,12.6364,469.15,2000.0,0.4729,4.514,16.4225,0.2493,8.2361,-3.7052,-0.0012,-0.4997,-0.2072,-0.7574,-0.2106,-0.3553,-0.0166,-0.0906,3.1795,1.5636,0.4219,0.9989,0.0011,0.0,14700000.0
125,0.7,0.3912,-0.0161,12.6129,463.04,2000.0,0.4703,4.5222,15.0505,0.2576,8.5018,-3.6922,-0.0012,-0.4882,-0.2013,-0.749,-0.2298,-0.3352,-0.0168,-0.091,3.1749,1.8061,0.4144,0.999,0.001,0.0,14817600.0
126,0.7,0.3956,-0.0155,12.6047,451.13,2000.0,0.4779,4.5043,14.7407,0.2491,8.2476,-3.681,-0.0012,-0.4924,-0.2016,-0.7585,-0.2509,-0.3628,-0.017,-0.0906,3.1706,1.8455,0.4308,0.9993,0.0007,0.0,14935200.0
127,0.7,0.4038,-0.0163,12.5883,465.68,2000.0,0.4846,4.5116,16.4658,0.2591,8.3576,-3.6698,-0.0013,-0.5044,-0.1991,-0.7115,-0.1844,-0.3377,-0.0162,-0.0894,3.1674,1.5158,0.4243,0.9994,0.0006,0.0,15052800.0
128,0.7,0.4009,-0.0165,12.5647,468.14,2000.0,0.4759,4.5172,15.4479,0.2462,7.9126,-3.6668,-0.0013,-0.4963,-0.2062,-0.7512,-0.1978,-0.3981,-0.0162,-0.0899,3.1647,1.7128,0.419,0.9994,0.0006,0.0,15170400.0
129,0.7,0.3812,-0.0159,12.5594,461.16,2000.0,0.489,4.5203,14.7324,0.256,8.4759,-3.6566,-0.0014,-0.4981,-0.209,-0.7587,-0.219,-0.3352,-0.0166,-0.0914,3.1635,1.8423,0.4159,0.9994,0.0006,0.0,15288000.0
130,0.69,0.3886,-0.0167,12.5303,459.28,2000.0,0.474,4.5216,16.2315,0.2404,7.5383,-3.6511,-0.0013,-0.4853,-0.2115,-0.7799,-0.2258,-0.4633,-0.0168,-0.0893,3.1643,1.6298,0.415,0.9994,0.0006,0.0,15405600.0
131,0.69,0.4374,-0.0152,12.5191,473.99,1996.91,0.4879,4.4989,15.3072,0.2561,8.4664,-3.6269,-0.0013,-0.4925,-0.2036,-0.7442,-0.2038,-0.3309,-0.0163,-0.0902,3.1639,1.7571,0.4213,0.9993,0.0007,0.0,15523200.0
132,0.69,0.3995,-0.0174,12.504,465.18,1996.91,0.4725,4.5186,15.1868,0.253,8.0325,-3.6237,-0.0012,-0.4968,-0.2021,-0.7381,-0.1793,-0.3922,-0.0161,-0.0891,3.1638,1.78,0.4178,0.9992,0.0008,0.0,15640800.0
133,0.69,0.4172,-0.0166,12.4887,456.12,1986.25,0.4754,4.4676,15.68,0.2422,8.1748,-3.5912,-0.0012,-0.4871,-0.2032,-0.74,-0.199,-0.3578,-0.0161,-0.0891,3.1632,1.6404,0.4211,0.999,0.001,0.0,15758400.0
134,0.69,0.4268,-0.0158,12.4694,456.98,1997.22,0.5016,4.5011,15.0463,0.2453,8.3235,-3.6168,-0.0014,-0.4886,-0.2112,-0.7458,-0.2099,-0.3425,-0.0165,-0.089,3.1624,1.809,0.4276,0.9991,0.0009,0.0,15876000.0
135,0.69,0.4309,-0.015,12.4511,473.79,1993.55,0.496,4.5057,16.2212,0.246,8.1336,-3.6023,-0.0017,-0.4964,-0.2121,-0.7339,-0.2034,-0.3655,-0.0163,-0.091,3.1615,1.5765,0.421,0.999,0.001,0.0,15993600.0
136,0.69,0.4655,-0.0146,12.4135,472.41,1958.5,0.4928,4.3373,16.1596,0.2269,8.0299,-3.4679,-0.0015,-0.4696,-0.2097,-0.7136,-0.2253,-0.328,-0.0161,-0.0872,3.1623,1.4744,0.4044,0.9986,0.0014,0.0,16111200.0
137,0.69,0.4447,-0.0154,12.4096,461.29,1936.56,0.4851,4.4194,15.3759,0.2374,7.7389,-3.5185,-0.0015,-0.4842,-0.216,-0.7217,-0.1814,-0.4054,-0.0158,-0.0875,3.1626,1.6939,0.4161,0.9981,0.0019,0.0,16228800.0
138,0.69,0.4375,-0.0159,12.391,473.24,1979.67,0.5016,4.5148,16.7308,0.2464,8.2313,-3.5868,-0.0016,-0.4873,-0.2105,-0.7819,-0.1797,-0.3657,-0.016,-0.0897,3.1634,1.5053,0.4148,0.9974,0.0026,0.0,16346400.0
139,0.69,0.5245,-0.0131,12.3757,455.98,1919.13,0.487,4.2392,14.0515,0.2228,7.7804,-3.361,-0.0015,-0.4684,-0.2031,-0.6977,-0.1608,-0.3251,-0.0151,-0.0835,3.1647,1.6614,0.3943,0.9969,0.0031,0.0,16464000.0
140,0.69,0.4553,-0.015,12.3528,443.95,1935.57,0.4582,4.435,16.1938,0.2443,7.5076,-3.5132,-0.0013,-0.4872,-0.2084,-0.7243,-0.2274,-0.4425,-0.0164,-0.0898,3.1666,1.5663,0.4165,0.9963,0.0037,0.0,16581600.0
141,0.69,0.5372,-0.0145,12.3413,465.47,1914.41,0.4796,4.3987,16.6526,0.2453,8.0756,-3.4832,-0.0013,-0.4855,-0.201,-0.6994,-0.1859,-0.3536,-0.0157,-0.0883,3.1688,1.4254,0.4132,0.9951,0.0049,0.0,16699200.0
142,0.69,0.4976,-0.0145,12.3289,477.91,1947.91,0.495,4.3763,16.3526,0.232,7.6912,-3.4648,-0.0014,-0.482,-0.2096,-0.7315,-0.2226,-0.3965,-0.0162,-0.089,3.1723,1.4694,0.4162,0.9939,0.0061,0.0,16816800.0
143,0.69,0.5143,-0.0127,12.3187,451.77,1925.11,0.452,4.314,15.2871,0.2295,7.1523,-3.4115,-0.0014,-0.4752,-0.2041,-0.7383,-0.2291,-0.4324,-0.016,-0.0886,3.175,1.5971,0.4107,0.9931,0.0069,0.0,16934400.0
144,0.68,0.5262,-0.0132,12.3085,454.67,1886.85,0.493,4.3241,16.1346,0.2285,7.5146,-3.4196,-0.0017,-0.4762,-0.2092,-0.7208,-0.223,-0.3901,-0.0161,-0.0884,3.1759,1.4944,0.4161,0.9921,0.0079,0.0,17052000.0
145,0.68,0.4907,-0.0145,12.2971,462.7,1925.15,0.4962,4.3953,16.2617,0.2328,7.6463,-3.481,-0.0016,-0.4827,-0.218,-0.7359,-0.2159,-0.4036,-0.0161,-0.0904,3.1765,1.5056,0.4243,0.9912,0.0088,0.0,17169600.0
146,0.68,0.4521,-0.015,12.2722,488.55,1959.56,0.4745,4.4393,17.5863,0.2462,8.0209,-3.5063,-0.0014,-0.4895,-0.2054,-0.7474,-0.2177,-0.3856,-0.0163,-0.0914,3.1802,1.3453,0.4317,0.9904,0.0096,0.0,17287200.0
147,0.68,0.4526,-0.0146,12.2478,491.79,1948.39,0.5172,4.4127,16.4504,0.2318,8.1867,-3.4912,-0.0015,-0.4909,-0.219,-0.732,-0.2093,-0.3416,-0.0162,-0.0909,3.1839,1.5208,0.4331,0.9896,0.0104,0.0,17404800.0
148,0.68,0.449,-0.0161,12.226,480.43,1999.74,0.5144,4.4986,15.9611,0.2397,8.2662,-3.5377,-0.0015,-0.4971,-0.2146,-0.7649,-0.1958,-0.3629,-0.0163,-0.0918,3.1861,1.6666,0.4365,0.9893,0.0107,0.0,17522400.0
149,0.68,0.5957,-0.0142,12.1984,450.34,1910.15,0.497,4.081,14.0085,0.2087,7.32,-3.2089,-0.0019,-0.4545,-0.2135,-0.6973,-0.1852,-0.335,-0.0149,-0.0839,3.187,1.5247,0.3948,0.9882,0.0118,0.0,17640000.0
150,0.68,0.435,-0.0158,12.1678,461.52,1902.49,0.5139,4.4449,16.2582,0.2375,8.4558,-3.4996,-0.0015,-0.4911,-0.2169,-0.7447,-0.1602,-0.3171,-0.0156,-0.0908,3.1873,1.5629,0.4287,0.9871,0.0129,0.0,17757600.0
151,0.68,0.4206,-0.0163,12.1294,479.92,1958.96,0.5097,4.416,15.6819,0.2306,8.013,-3.4764,-0.0014,-0.4912,-0.2088,-0.7374,-0.2496,-0.3605,-0.0166,-0.0918,3.1879,1.6342,0.4376,0.9865,0.0135,0.0,17875200.0
152,0.67,0.441,-0.0153,12.1033,460.35,1947.49,0.4993,4.445,16.1275,0.2405,8.0098,-3.4901,-0.0015,-0.5027,-0.2096,-0.7473,-0.2462,-0.3842,-0.0166,-0.095,3.1879,1.5708,0.4257,0.986,0.014,0.0,17992800.0
153,0.67,0.4843,-0.0146,12.0556,452.66,1908.35,0.5168,4.2341,15.1263,0.216,7.6407,-3.3315,-0.0019,-0.4759,-0.2232,-0.708,-0.2297,-0.3485,-0.016,-0.0891,3.1893,1.5864,0.4387,0.9851,0.0149,0.0,18110400.0
154,0.67,0.4377,-0.0143,12.0272,455.35,1931.74,0.5283,4.416,15.2684,0.2302,8.0727,-3.4598,-0.0016,-0.4936,-0.2178,-0.7167,-0.1527,-0.3535,-0.0155,-0.0902,3.1923,1.7425,0.4265,0.984,0.016,0.0,18228000.0
155,0.67,0.4378,-0.0133,11.996,476.43,1955.62,0.5125,4.4265,16.6983,0.2393,7.7138,-3.4715,-0.0017,-0.4985,-0.2171,-0.7009,-0.1588,-0.4154,-0.0156,-0.0908,3.1941,1.5149,0.4272,0.9835,0.0165,0.0,18345600.0
156,0.67,0.3602,-0.0162,11.9571,475.47,1968.92,0.4959,4.4661,16.7084,0.236,7.7459,-3.5007,-0.0015,-0.4975,-0.2151,-0.7507,-0.196,-0.419,-0.0162,-0.0933,3.1981,1.5359,0.4308,0.983,0.017,0.0,18463200.0
157,0.66,0.4224,-0.0151,11.9274,459.01,1927.47,0.5238,4.3216,14.8218,0.2312,7.9565,-3.3869,-0.0017,-0.5044,-0.2157,-0.7074,-0.1597,-0.342,-0.0154,-0.0909,3.2025,1.6265,0.4259,0.9824,0.0176,0.0,18580800.0
158,0.66,0.3915,-0.0153,11.8975,463.55,1939.66,0.5374,4.4502,16.6747,0.2286,8.0561,-3.4899,-0.0017,-0.5036,-0.2329,-0.7371,-0.1743,-0.381,-0.016,-0.0928,3.2069,1.5159,0.4351,0.9819,0.0181,0.0,18698400.0
159,0.66,0.4058,-0.0142,11.8708,485.83,1980.25,0.5182,4.4366,16.4288,0.2347,8.3514,-3.4871,-0.0016,-0.5096,-0.2159,-0.7765,-0.2889,-0.3383,-0.0172,-0.0988,3.2122,1.5032,0.4511,0.9817,0.0183,0.0,18816000.0
160,0.66,0.3759,-0.0159,11.8328,497.41,1963.36,0.5102,4.4325,18.3205,0.2363,7.8065,-3.4718,-0.0017,-0.5134,-0.2244,-0.7602,-0.2743,-0.3901,-0.017,-0.0986,3.2171,1.2572,0.4399,0.9811,0.0189,0.0,18933600.0
161,0.66,0.3357,-0.0173,11.7969,487.18,1967.42,0.5116,4.457,17.0002,0.2341,7.6575,-3.4953,-0.0017,-0.5083,-0.2148,-0.7182,-0.1934,-0.4336,-0.0161,-0.0954,3.2225,1.4656,0.4358,0.9807,0.0193,0.0,19051200.0
162,0.66,0.3761,-0.0156,11.7614,477.96,1954.12,0.5465,4.3059,16.3895,0.2223,7.865,-3.3905,-0.0022,-0.5084,-0.2337,-0.7492,-0.246,-0.3468,-0.0165,-0.0969,3.2277,1.4804,0.459,0.9802,0.0198,0.0,19168800.0
163,0.65,0.3954,-0.0145,11.7368,473.13,1928.99,0.5245,4.3528,16.4988,0.2241,7.9634,-3.4265,-0.0016,-0.508,-0.2193,-0.737,-0.2003,-0.3629,-0.016,-0.096,3.2314,1.4987,0.4541,0.9795,0.0205,0.0,19286400.0
164,0.65,0.3113,-0.0158,11.6981,486.84,1963.71,0.528,4.4788,18.066,0.2332,7.8715,-3.5207,-0.0017,-0.5158,-0.2224,-0.7375,-0.2164,-0.4106,-0.0167,-0.0977,3.2368,1.3665,0.4567,0.9792,0.0208,0.0,19404000.0
165,0.65,0.3829,-0.0134,11.6804,496.3,1953.54,0.4996,4.2553,17.6935,0.2135,7.4596,-3.3445,-0.0017,-0.49,-0.2166,-0.7215,-0.2181,-0.3975,-0.0159,-0.0944,3.2439,1.163,0.4217,0.9786,0.0214,0.0,19521600.0
166,0.65,0.3587,-0.0144,11.6361,487.13,1976.81,0.5302,4.4406,17.4751,0.2242,7.4789,-3.4995,-0.0018,-0.5267,-0.2356,-0.7427,-0.2367,-0.4472,-0.0169,-0.0997,3.2491,1.3981,0.4653,0.9782,0.0218,0.0,19639200.0
167,0.65,0.4213,-0.0123,11.6157,478.7,1966.5,0.5167,4.4359,16.3646,0.2377,7.9931,-3.4813,-0.0016,-0.5134,-0.2184,-0.7396,-0.1899,-0.3759,-0.0161,-0.098,3.258,1.5437,0.4476,0.9778,0.0222,0.0,19756800.0
168,0.65,0.3734,-0.0147,11.5705,497.11,1977.77,0.5502,4.4113,17.4966,0.2185,8.0384,-3.4746,-0.0018,-0.5392,-0.2404,-0.7583,-0.2652,-0.3627,-0.017,-0.102,3.2723,1.3627,0.4799,0.9774,0.0226,0.0,19874400.0
169,0.64,0.4649,-0.0144,11.546,476.8,1941.52,0.5432,4.3384,16.0452,0.2132,7.9941,-3.4224,-0.0018,-0.5175,-0.2319,-0.759,-0.2363,-0.35,-0.0165,-0.0993,3.2831,1.5347,0.4628,0.9764,0.0236,0.0,19992000.0
170,0.64,0.3866,-0.0156,11.5139,478.27,1950.32,0.5464,4.3502,16.6503,0.2144,7.9782,-3.4236,-0.0018,-0.5292,-0.2358,-0.7399,-0.2243,-0.3536,-0.0164,-0.1002,3.2931,1.4012,0.4709,0.9754,0.0246,0.0,20109600.0
171,0.64,0.3306,-0.0154,11.4951,491.87,1933.93,0.5223,4.2665,16.4717,0.2175,8.0977,-3.36,-0.0016,-0.5091,-0.2132,-0.7212,-0.2247,-0.3168,-0.0161,-0.0992,3.3021,1.3723,0.4453,0.9746,0.0254,0.0,20227200.0
172,0.64,0.315,-0.0157,11.4825,491.98,1956.91,0.5155,4.3492,17.2888,0.2263,7.6913,-3.4302,-0.0016,-0.5273,-0.2185,-0.6995,-0.194,-0.3967,-0.016,-0.0994,3.3112,1.3348,0.4562,0.9742,0.0258,0.0,20344800.0
173,0.64,0.392,-0.0134,11.4505,508.83,1964.81,0.5325,4.3816,18.6075,0.2325,8.3069,-3.4469,-0.0017,-0.5269,-0.2236,-0.753,-0.25,-0.319,-0.0167,-0.1031,3.3223,1.1561,0.4563,0.9737,0.0263,0.0,20462400.0
174,0.64,0.3714,-0.0146,11.4343,509.85,1955.55,0.5396,4.2119,16.3732,0.2119,7.8936,-3.3309,-0.0018,-0.5258,-0.2232,-0.6857,-0.2255,-0.3218,-0.0161,-0.1,3.332,1.3716,0.4599,0.9732,0.0268,0.0,20580000.0
175,0.64,0.3511,-0.0155,11.4093,493.16,1956.67,0.5492,4.4089,16.872,0.2381,8.2884,-3.4604,-0.0019,-0.549,-0.2203,-0.7277,-0.2336,-0.3202,-0.0166,-0.1043,3.3394,1.4553,0.4612,0.9727,0.0273,0.0,20697600.0
176,0.64,0.3285,-0.0156,11.3803,494.75,1974.71,0.5286,4.3992,17.7174,0.2228,7.9233,-3.4629,-0.0018,-0.5346,-0.2287,-0.7564,-0.2457,-0.3849,-0.017,-0.1044,3.3482,1.3208,0.4725,0.9724,0.0276,0.0,20815200.0
177,0.63,0.3194,-0.0167,11.3555,491.73,1955.27,0.5563,4.4069,16.914,0.2262,8.1779,-3.4687,-0.0017,-0.5463,-0.228,-0.7282,-0.1878,-0.35,-0.0163,-0.1027,3.3573,1.432,0.4751,0.9718,0.0282,0.0,20932800.0
178,0.63,0.3312,-0.0146,11.3223,501.99,1962.51,0.5619,4.4083,18.0673,0.2229,8.0478,-3.4807,-0.002,-0.5613,-0.2432,-0.7536,-0.1999,-0.3649,-0.0164,-0.1053,3.3671,1.3113,0.48,0.9714,0.0286,0.0,21050400.0
179,0.63,0.3256,-0.0169,11.2925,507.06,1982.78,0.5516,4.4167,16.9699,0.2208,7.8522,-3.4988,-0.002,-0.5459,-0.2418,-0.7539,-0.2036,-0.399,-0.0165,-0.1051,3.3776,1.4393,0.4825,0.9712,0.0288,0.0,21168000.0
180,0.63,0.3747,-0.0158,11.2708,495.1,1980.34,0.563,4.3673,16.9341,0.219,7.777,-3.4646,-0.002,-0.5547,-0.2473,-0.7291,-0.2272,-0.3847,-0.0167,-0.1068,3.389,1.4148,0.4866,0.971,0.029,0.0,21285600.0
181,0.63,0.3264,-0.0157,11.2405,492.09,1951.81,0.5595,4.3415,17.4152,0.219,8.1464,-3.4381,-0.0018,-0.5401,-0.2281,-0.7433,-0.2188,-0.3348,-0.0163,-0.1047,3.4001,1.3234,0.4703,0.9703,0.0297,0.0,21403200.0
182,0.63,0.3812,-0.0144,11.2162,508.84,1991.27,0.5459,4.433,18.6469,0.2229,7.8398,-3.508,-0.002,-0.5478,-0.2409,-0.7604,-0.2448,-0.4072,-0.017,-0.1091,3.413,1.1802,0.479,0.97,0.03,0.0,21520800.0
183,0.63,0.3219,-0.0142,11.1893,519.92,1989.72,0.5706,4.4495,18.7619,0.226,8.5031,-3.5141,-0.0018,-0.5548,-0.2304,-0.7626,-0.2574,-0.3104,-0.0171,-0.11,3.4268,1.1982,0.4723,0.9697,0.0303,0.0,21638400.0
184,0.62,0.3476,-0.0133,11.1645,515.17,1970.24,0.5601,4.3611,18.1466,0.2167,8.0884,-3.4643,-0.0018,-0.5665,-0.2325,-0.7272,-0.2252,-0.3506,-0.0165,-0.1092,3.4376,1.2201,0.492,0.9695,0.0305,0.0,21756000.0
185,0.62,0.367,-0.0145,11.1209,493.33,1961.25,0.5755,4.3964,16.5929,0.2271,8.0549,-3.4736,-0.0019,-0.5757,-0.235,-0.7271,-0.1832,-0.3532,-0.0161,-0.1083,3.4504,1.523,0.4802,0.969,0.031,0.0,21873600.0
186,0.62,0.356,-0.0152,11.0849,488.95,1957.05,0.5656,4.2576,17.0435,0.2128,7.8606,-3.3927,-0.0019,-0.5709,-0.2378,-0.7323,-0.2126,-0.348,-0.0162,-0.1081,3.4631,1.3297,0.4995,0.9684,0.0316,0.0,21991200.0
187,0.62,0.349,-0.0144,11.0466,504.0,1953.57,0.5577,4.3864,18.2642,0.2174,8.1934,-3.4808,-0.0018,-0.5633,-0.237,-0.7157,-0.2244,-0.3361,-0.0165,-0.1096,3.4745,1.2339,0.4802,0.9677,0.0323,0.0,22108800.0
188,0.62,0.3167,-0.0153,10.9998,502.69,1968.81,0.5766,4.399,17.118,0.2253,8.1417,-3.4728,-0.002,-0.5779,-0.2413,-0.7484,-0.2313,-0.3412,-0.0169,-0.1109,3.487,1.4344,0.4864,0.9673,0.0327,0.0,22226400.0
189,0.61,0.3352,-0.0146,10.9796,505.12,1970.13,0.5636,4.4018,18.0955,0.2216,7.7826,-3.5072,-0.0019,-0.5727,-0.2398,-0.6947,-0.1712,-0.4075,-0.0161,-0.1096,3.4974,1.3065,0.4966,0.967,0.033,0.0,22344000.0
190,0.61,0.3639,-0.0135,10.9505,514.72,1976.26,0.574,4.3826,18.0806,0.2162,8.2407,-3.4737,-0.0018,-0.5801,-0.241,-0.7444,-0.2961,-0.3304,-0.0175,-0.1141,3.509,1.2332,0.4894,0.9669,0.0331,0.0,22461600.0
191,0.61,0.37,-0.0135,10.9325,515.52,1971.56,0.584,4.4115,18.5617,0.2177,8.1928,-3.509,-0.002,-0.5818,-0.2469,-0.735,-0.2448,-0.3605,-0.0171,-0.1127,3.5201,1.2427,0.5076,0.9666,0.0334,0.0,22579200.0
192,0.61,0.3769,-0.0136,10.8933,515.52,1972.13,0.5707,4.3157,18.3219,0.2031,7.9083,-3.4367,-0.002,-0.5637,-0.2472,-0.7579,-0.2663,-0.3648,-0.0171,-0.1127,3.5319,1.1804,0.4993,0.966,0.034,0.0,22696800.0
193,0.61,0.3078,-0.0154,10.8602,513.72,1976.83,0.5836,4.4506,18.1936,0.2229,8.4444,-3.5166,-0.0019,-0.5761,-0.2374,-0.7136,-0.1936,-0.3277,-0.0166,-0.1134,3.5424,1.2921,0.4843,0.9657,0.0343,0.0,22814400.0
194,0.61,0.3049,-0.0138,10.8367,515.26,2000.0,0.5933,4.4243,17.8377,0.2188,8.3202,-3.5336,-0.002,-0.5927,-0.2496,-0.7411,-0.2524,-0.3325,-0.0172,-0.1163,3.5543,1.3834,0.5105,0.9657,0.0343,0.0,22932000.0
195,0.6,0.3089,-0.0147,10.8031,518.47,2000.0,0.5748,4.4436,18.7516,0.2168,8.1993,-3.5305,-0.0018,-0.5714,-0.2379,-0.7505,-0.2212,-0.3587,-0.0168,-0.1155,3.5641,1.1923,0.4914,0.9657,0.0343,0.0,23049600.0
196,0.6,0.302,-0.0164,10.7689,521.77,2000.0,0.6026,4.4234,18.019,0.2174,8.294,-3.5277,-0.0021,-0.5958,-0.2497,-0.7581,-0.3131,-0.3328,-0.0179,-0.1191,3.5747,1.3665,0.5099,0.9657,0.0343,0.0,23167200.0
197,0.6,0.3552,-0.0147,10.7426,510.18,1982.28,0.5948,4.3308,17.9482,0.2162,8.2581,-3.4437,-0.002,-0.598,-0.2487,-0.6935,-0.1989,-0.3042,-0.0163,-0.114,3.5851,1.229,0.499,0.9655,0.0345,0.0,23284800.0
198,0.6,0.3041,-0.0154,10.7035,515.51,1982.28,0.5967,4.4306,18.5644,0.2165,8.3035,-3.5293,-0.002,-0.5951,-0.2495,-0.7189,-0.2258,-0.3395,-0.017,-0.1173,3.5986,1.267,0.5037,0.9653,0.0347,0.0,23402400.0
199,0.6,0.3884,-0.0119,10.664,517.31,1972.9,0.5862,4.2702,17.868,0.2148,8.1648,-3.4059,-0.0019,-0.595,-0.245,-0.7143,-0.2745,-0.3093,-0.0171,-0.1162,3.6078,1.2582,0.5114,0.9652,0.0348,0.0,23520000.0
200,0.6,0.3542,-0.0143,10.6383,512.05,1953.81,0.5844,4.4113,18.479,0.2211,8.2837,-3.5086,-0.0019,-0.5931,-0.2443,-0.7304,-0.2379,-0.3393,-0.017,-0.1171,3.6167,1.2398,0.4908,0.965,0.035,0.0,23637600.0
201,0.59,0.3568,-0.0141,10.6087,525.59,1977.5,0.5928,4.4348,18.8977,0.2174,8.2552,-3.5151,-0.002,-0.5953,-0.2458,-0.706,-0.2277,-0.3453,-0.017,-0.1184,3.6279,1.2691,0.4929,0.9649,0.0351,0.0,23755200.0
202,0.59,0.3334,-0.0136,10.5697,525.4,1984.58,0.5949,4.3681,18.2788,0.2142,8.2805,-3.4756,-0.0021,-0.6,-0.2476,-0.7474,-0.2729,-0.3155,-0.0173,-0.1202,3.639,1.3055,0.5043,0.9646,0.0354,0.0,23872800.0
203,0.59,0.3131,-0.0175,10.5397,534.22,1987.99,0.613,4.4268,19.0511,0.2281,8.6408,-3.5251,-0.0019,-0.615,-0.2429,-0.7227,-0.2561,-0.2878,-0.0172,-0.1225,3.6487,1.2361,0.5067,0.9645,0.0355,0.0,23990400.0
204,0.59,0.3374,-0.0141,10.5019,529.7,1990.72,0.5914,4.4105,18.385,0.2184,8.3151,-3.5055,-0.0019,-0.6057,-0.2482,-0.7093,-0.2194,-0.332,-0.0167,-0.1206,3.6617,1.239,0.4993,0.9643,0.0357,0.0,24108000.0
205,0.59,0.3808,-0.0132,10.4676,532.66,1983.05,0.5883,4.2815,18.5501,0.2122,8.0714,-3.3984,-0.002,-0.6062,-0.2449,-0.704,-0.23,-0.3147,-0.0165,-0.1178,3.6771,1.116,0.4949,0.9642,0.0358,0.0,24225600.0
206,0.59,0.3118,-0.0145,10.433,547.28,1983.05,0.6122,4.4217,18.9673,0.2197,8.4968,-3.511,-0.002,-0.6058,-0.2519,-0.7354,-0.2684,-0.3055,-0.0174,-0.1217,3.6876,1.184,0.5121,0.9639,0.0361,0.0,24343200.0
207,0.58,0.4464,-0.0131,10.4072,529.59,1970.14,0.5843,4.2059,17.4056,0.2085,8.0248,-3.3244,-0.0019,-0.5926,-0.2424,-0.6708,-0.1908,-0.2985,-0.0158,-0.1145,3.6974,1.2446,0.4814,0.9635,0.0365,0.0,24460800.0
208,0.58,0.4074,-0.0114,10.3728,518.76,1957.22,0.6038,4.3717,18.5191,0.2186,8.2639,-3.4709,-0.002,-0.6128,-0.238,-0.6812,-0.1972,-0.3183,-0.0165,-0.1195,3.7057,1.2383,0.5067,0.9629,0.0371,0.0,24578400.0
209,0.58,0.3762,-0.013,10.354,526.41,1971.47,0.5963,4.4077,18.3154,0.2173,8.3942,-3.4942,-0.0019,-0.6046,-0.2411,-0.7039,-0.21,-0.3208,-0.0167,-0.12,3.7171,1.2647,0.4955,0.9626,0.0374,0.0,24696000.0
210,0.58,0.3734,-0.0123,10.3214,535.07,1974.6,0.6245,4.3982,18.7199,0.214,8.4025,-3.4892,-0.0021,-0.6202,-0.2507,-0.691,-0.2214,-0.3051,-0.0169,-0.1222,3.7306,1.2037,0.5106,0.9621,0.0379,0.0,24813600.0
211,0.58,0.4144,-0.0127,10.2985,526.32,1974.06,0.6209,4.2931,16.8558,0.2058,8.1523,-3.4009,-0.002,-0.6168,-0.2528,-0.7134,-0.2239,-0.3048,-0.0166,-0.1192,3.7401,1.4164,0.4966,0.9618,0.0382,0.0,24931200.0
212,0.58,0.467,-0.0115,10.2676,512.13,1957.1,0.5919,4.3406,17.7063,0.2056,8.3315,-3.4431,-0.002,-0.5818,-0.2455,-0.7201,-0.2259,-0.3072,-0.0167,-0.1205,3.7486,1.2989,0.4892,0.9613,0.0387,0.0,25048800.0
213,0.58,0.3532,-0.0136,10.2307,515.49,1950.32,0.6123,4.3881,19.4042,0.2092,8.4075,-3.4751,-0.002,-0.6105,-0.2495,-0.7364,-0.2586,-0.3088,-0.0173,-0.1236,3.7561,1.0614,0.4998,0.9608,0.0392,0.0,25166400.0
214,0.57,0.3727,-0.0133,10.1817,525.06,1966.66,0.6333,4.3874,18.8179,0.2184,8.4449,-3.4525,-0.002,-0.6401,-0.2476,-0.7188,-0.2205,-0.2979,-0.0167,-0.1248,3.7618,1.1863,0.5062,0.9607,0.0393,0.0,25284000.0
215,0.57,0.4506,-0.0126,10.1598,520.88,1962.22,0.6235,4.3326,18.1631,0.2129,8.3126,-3.4105,-0.002,-0.6238,-0.2439,-0.7134,-0.2505,-0.294,-0.0169,-0.1236,3.7701,1.2447,0.4935,0.9606,0.0394,0.0,25401600.0
216,0.57,0.3377,-0.0151,10.1247,535.35,1977.73,0.6239,4.4244,19.1824,0.2158,8.5999,-3.4898,-0.002,-0.623,-0.2478,-0.7184,-0.2431,-0.2955,-0.0171,-0.1263,3.7782,1.2093,0.5097,0.9603,0.0397,0.0,25519200.0
217,0.57,0.3664,-0.0146,10.1051,536.42,1994.74,0.6186,4.409,19.5587,0.215,8.3872,-3.4717,-0.0021,-0.6182,-0.2455,-0.72,-0.2617,-0.3177,-0.0173,-0.1264,3.7886,1.0633,0.4985,0.9603,0.0397,0.0,25636800.0
218,0.57,0.336,-0.0148,10.0774,530.98,2000.0,0.5903,4.438,18.721,0.2169,8.3901,-3.4986,-0.0019,-0.6083,-0.2409,-0.6967,-0.2418,-0.3373,-0.0172,-0.1244,3.8002,1.2235,0.4972,0.9604,0.0396,0.0,25754400.0
219,0.57,0.4325,-0.0145,10.0479,519.45,1983.55,0.6189,4.331,18.6289,0.1974,7.9998,-3.413,-0.0022,-0.6336,-0.2567,-0.7256,-0.2544,-0.3531,-0.0172,-0.1243,3.8084,1.2069,0.5218,0.9607,0.0393,0.0,25872000.0
220,0.56,0.4994,-0.0119,10.0158,522.79,1942.75,0.6019,4.178,17.5875,0.2028,8.0371,-3.2716,-0.0019,-0.5962,-0.2372,-0.6678,-0.2459,-0.2801,-0.0164,-0.1198,3.8172,1.1112,0.4708,0.9605,0.0395,0.0,25989600.0
221,0.56,0.3662,-0.0132,9.9865,536.77,1948.6,0.6301,4.4009,19.4947,0.2096,8.4327,-3.4486,-0.0021,-0.6304,-0.2508,-0.7687,-0.2366,-0.3054,-0.0171,-0.127,3.8253,1.0948,0.5063,0.9606,0.0394,0.0,26107200.0
222,0.56,0.4344,-0.0135,9.9538,543.12,1967.8,0.6246,4.3662,19.1425,0.2084,8.2514,-3.4132,-0.0021,-0.6326,-0.2484,-0.716,-0.259,-0.3154,-0.0173,-0.1276,3.8336,1.1488,0.5001,0.9609,0.0391,0.0,26224800.0
223,0.56,0.4118,-0.0114,9.9416,522.06,1944.32,0.6445,4.3489,18.3157,0.2105,8.3052,-3.398,-0.0022,-0.6508,-0.2512,-0.7101,-0.2847,-0.2981,-0.0175,-0.1289,3.842,1.1969,0.5137,0.9615,0.0385,0.0,26342400.0
224,0.56,0.4198,-0.0136,9.9178,516.97,1928.4,0.6317,4.3185,18.4416,0.1995,8.2777,-3.3721,-0.0021,-0.6209,-0.2545,-0.7046,-0.2521,-0.295,-0.0171,-0.1251,3.8498,1.245,0.5051,0.9614,0.0386,0.0,26460000.0
225,0.56,0.339,-0.0151,9.8768,531.78,1998.55,0.6478,4.4241,18.6799,0.2109,8.4838,-3.4563,-0.0022,-0.6408,-0.2575,-0.7154,-0.2378,-0.2983,-0.0174,-0.1276,3.8617,1.2035,0.5102,0.9622,0.0378,0.0,26577600.0
226,0.56,0.3787,-0.0149,9.8504,532.94,1970.42,0.6168,4.388,18.6317,0.2123,8.4672,-3.4178,-0.002,-0.6151,-0.2463,-0.7128,-0.2199,-0.2993,-0.0167,-0.1251,3.8712,1.1799,0.488,0.963,0.037,0.0,26695200.0
227,0.56,0.4272,-0.0142,9.82,521.77,1948.47,0.6302,4.3366,18.7801,0.1956,8.2816,-3.3934,-0.0021,-0.6189,-0.2557,-0.7574,-0.2643,-0.3096,-0.0174,-0.1263,3.8796,1.1829,0.5093,0.9634,0.0366,0.0,26812800.0
228,0.55,0.3932,-0.015,9.7772,528.39,1968.62,0.6476,4.3823,19.2957,0.2124,8.3351,-3.4007,-0.0021,-0.6491,-0.2516,-0.6723,-0.2275,-0.3082,-0.0168,-0.1282,3.889,1.1365,0.5116,0.9636,0.0361,0.0003,26930400.0
229,0.55,0.3847,-0.0133,9.7494,540.27,1997.67,0.6246,4.4269,19.134,0.204,8.5159,-3.4512,-0.0021,-0.6186,-0.2517,-0.7408,-0.2737,-0.3065,-0.0175,-0.1295,3.8995,1.1553,0.5035,0.9641,0.0355,0.0004,27048000.0
230,0.55,0.3692,-0.0128,9.7166,530.21,1952.52,0.6286,4.1718,17.9362,0.2007,7.9324,-3.2209,-0.0021,-0.6274,-0.2429,-0.6611,-0.2633,-0.2879,-0.0166,-0.1237,3.909,1.1631,0.4908,0.9644,0.0352,0.0004,27165600.0
231,0.55,0.3319,-0.0153,9.6795,533.19,1986.07,0.6498,4.4183,19.2891,0.2059,8.4696,-3.4229,-0.0022,-0.6473,-0.262,-0.7219,-0.258,-0.3031,-0.0175,-0.1315,3.9201,1.1816,0.5164,0.9647,0.0349,0.0004,27283200.0
232,0.55,0.3308,-0.0155,9.6671,545.98,2000.0,0.6444,4.4387,18.9383,0.2069,8.5505,-3.4171,-0.002,-0.6373,-0.2466,-0.7343,-0.2442,-0.2984,-0.0172,-0.1297,3.9238,1.2683,0.4953,0.9653,0.0342,0.0004,27400800.0
233,0.55,0.3342,-0.0148,9.6489,541.56,2000.0,0.6354,4.4415,19.5068,0.2072,8.5425,-3.4287,-0.0021,-0.6325,-0.2524,-0.7542,-0.3139,-0.2997,-0.0181,-0.1321,3.9318,1.1366,0.4939,0.9668,0.0328,0.0004,27518400.0
234,0.55,0.3301,-0.0153,9.6175,543.84,2000.0,0.6131,4.4767,19.4528,0.2139,8.6833,-3.4446,-0.0018,-0.5957,-0.2319,-0.7006,-0.2177,-0.2933,-0.0167,-0.127,3.9391,1.1314,0.4591,0.9674,0.0322,0.0004,27636000.0
235,0.54,0.4018,-0.0124,9.5916,543.72,1972.43,0.6024,4.3873,18.9484,0.2091,8.4349,-3.3773,-0.0018,-0.5923,-0.2345,-0.6847,-0.1938,-0.3022,-0.0165,-0.1244,3.9482,1.189,0.4648,0.9675,0.032,0.0004,27753600.0
236,0.54,0.3372,-0.0146,9.5537,546.76,1972.43,0.6456,4.4501,19.3167,0.2154,8.4501,-3.4053,-0.0021,-0.64,-0.2419,-0.6655,-0.1801,-0.3084,-0.0163,-0.1263,3.9535,1.15,0.4846,0.9678,0.0318,0.0004,27871200.0
237,0.54,0.3612,-0.0131,9.5332,541.73,1983.36,0.6202,4.4254,18.7339,0.2136,8.5392,-3.3844,-0.0019,-0.6066,-0.2407,-0.691,-0.2304,-0.2934,-0.0168,-0.1278,3.9627,1.2135,0.4678,0.9688,0.0308,0.0004,27988800.0
238,0.54,0.3382,-0.0153,9.5236,537.68,2000.0,0.6471,4.4364,19.0994,0.2087,8.5303,-3.39,-0.0022,-0.6324,-0.2437,-0.7328,-0.2919,-0.297,-0.0178,-0.1321,3.9729,1.2193,0.4981,0.9694,0.0302,0.0004,28106400.0
239,0.54,0.3378,-0.0167,9.4887,555.08,2000.0,0.6463,4.4425,19.9518,0.2094,8.5348,-3.3985,-0.0021,-0.6378,-0.2452,-0.6804,-0.2273,-0.2989,-0.0169,-0.1302,3.9822,1.0848,0.4923,0.9699,0.0297,0.0004,28224000.0
240,0.54,0.3772,-0.0149,9.4508,560.69,1979.81,0.6504,4.3912,19.8902,0.2065,8.3293,-3.3277,-0.0021,-0.6326,-0.2472,-0.6923,-0.2382,-0.3001,-0.017,-0.1289,3.992,1.0825,0.477,0.97,0.0294,0.0005,28341600.0
241,0.54,0.4261,-0.0132,9.4229,544.5,1955.54,0.6439,4.363,19.3944,0.2041,8.3577,-3.312,-0.0021,-0.633,-0.2436,-0.7248,-0.2871,-0.289,-0.0174,-0.1303,4.0001,1.1705,0.4791,0.9704,0.029,0.0006,28459200.0
242,0.54,0.3229,-0.0149,9.3945,538.98,1963.96,0.6366,4.4086,18.6211,0.2113,8.4917,-3.3388,-0.002,-0.619,-0.256,-0.6755,-0.194,-0.2918,-0.0165,-0.1278,4.0068,1.2246,0.4778,0.9705,0.0289,0.0006,28576800.0
243,0.53,0.3247,-0.0165,9.3672,548.06,2000.0,0.6655,4.434,19.2441,0.2115,8.394,-3.3369,-0.0023,-0.6625,-0.2563,-0.7001,-0.2294,-0.3072,-0.0171,-0.131,4.0159,1.211,0.5006,0.971,0.0284,0.0006,28694400.0
244,0.53,0.3287,-0.0146,9.3291,560.04,2000.0,0.6519,4.4591,19.9152,0.2135,8.5557,-3.3677,-0.0021,-0.6318,-0.2436,-0.7055,-0.2558,-0.2926,-0.0173,-0.1313,4.0212,1.1164,0.4771,0.9716,0.0277,0.0006,28812000.0
245,0.53,0.3963,-0.0139,9.2957,548.89,1976.5,0.6389,4.3734,18.6665,0.2063,8.3583,-3.2833,-0.0021,-0.6211,-0.241,-0.6961,-0.2187,-0.2921,-0.0167,-0.1269,4.0293,1.1452,0.4644,0.9718,0.0276,0.0006,28929600.0
246,0.53,0.3739,-0.0135,9.273,538.06,1963.83,0.6402,4.2617,18.186,0.1994,8.1456,-3.1893,-0.0021,-0.6231,-0.2458,-0.6828,-0.2358,-0.285,-0.0166,-0.1251,4.0384,1.2041,0.4706,0.9719,0.0272,0.0009,29047200.0
247,0.53,0.3299,-0.0153,9.2399,547.59,1977.82,0.6881,4.4335,19.3194,0.2088,8.421,-3.3168,-0.0023,-0.6651,-0.2559,-0.6897,-0.2218,-0.2953,-0.017,-0.1303,4.0472,1.2001,0.4958,0.9719,0.0269,0.0012,29164800.0
248,0.53,0.3597,-0.0143,9.21,546.62,1983.99,0.6537,4.4312,19.1594,0.2114,8.4267,-3.3083,-0.0022,-0.6351,-0.2437,-0.6736,-0.2673,-0.2994,-0.0174,-0.1304,4.0527,1.1844,0.4754,0.9716,0.0268,0.0016,29282400.0
249,0.53,0.3221,-0.0158,9.1814,542.43,1986.38,0.6467,4.4549,19.1386,0.2078,8.4101,-3.3187,-0.0022,-0.6355,-0.2541,-0.6693,-0.195,-0.3128,-0.0169,-0.1292,4.0577,1.1876,0.4809,0.9721,0.0263,0.0016,29400000.0
250,0.52,0.3201,-0.0148,9.1467,555.24,1999.84,0.6613,4.4565,19.0739,0.2106,8.4896,-3.3142,-0.0022,-0.6441,-0.2486,-0.6993,-0.2442,-0.2985,-0.0172,-0.1319,4.0655,1.2135,0.4787,0.9724,0.0259,0.0017,29517600.0
251,0.52,0.3167,-0.0157,9.1124,551.61,2000.0,0.6791,4.441,20.0079,0.2106,8.4506,-3.2944,-0.0023,-0.6538,-0.257,-0.6987,-0.2088,-0.2975,-0.0168,-0.1303,4.0823,1.1442,0.4941,0.9729,0.0253,0.0018,29635200.0
252,0.52,0.3274,-0.0151,9.0829,557.49,2000.0,0.6691,4.4482,19.4983,0.2039,8.4778,-3.3105,-0.0022,-0.6482,-0.2609,-0.7194,-0.2755,-0.2973,-0.0176,-0.1321,4.0931,1.1295,0.4869,0.9736,0.0246,0.0018,29752800.0
253,0.52,0.3283,-0.0159,9.0435,552.7,2000.0,0.6475,4.4807,18.7963,0.2155,8.5946,-3.3101,-0.002,-0.6206,-0.2391,-0.668,-0.2119,-0.2906,-0.0167,-0.1298,4.1057,1.2275,0.4559,0.9747,0.0234,0.0018,29870400.0
254,0.52,0.3268,-0.0131,9.02,545.69,2000.0,0.6593,4.4717,19.5763,0.2132,8.5184,-3.2863,-0.0021,-0.6401,-0.2469,-0.6855,-0.2322,-0.2953,-0.0169,-0.1306,4.1183,1.1347,0.4643,0.9754,0.0227,0.0018,29988000.0
255,0.52,0.3325,-0.0133,8.9924,554.96,2000.0,0.6525,4.4666,19.5695,0.2068,8.5676,-3.3003,-0.0021,-0.628,-0.2493,-0.723,-0.2718,-0.2936,-0.0176,-0.1314,4.1294,1.1636,0.4684,0.9759,0.0222,0.0018,30105600.0
256,0.52,0.388,-0.0138,8.9639,544.66,1983.5,0.6396,4.3031,18.2351,0.1995,8.1971,-3.1601,-0.0022,-0.6204,-0.2465,-0.7008,-0.2319,-0.2914,-0.0166,-0.1269,4.1387,1.1864,0.4658,0.9761,0.0221,0.0018,30223200.0
257,0.52,0.3367,-0.014,8.9406,528.37,1984.07,0.647,4.4685,18.6056,0.2018,8.4689,-3.3012,-0.0021,-0.6242,-0.2451,-0.7162,-0.2888,-0.3113,-0.0177,-0.1325,4.1488,1.2715,0.4668,0.9764,0.0218,0.0018,30340800.0
258,0.51,0.3386,-0.0157,8.918,539.1,2000.0,0.6575,4.474,19.1577,0.2158,8.4925,-3.2622,-0.0022,-0.6353,-0.2425,-0.6703,-0.2487,-0.3013,-0.0173,-0.1319,4.1588,1.2003,0.4623,0.9769,0.0213,0.0018,30458400.0
259,0.51,0.4028,-0.0133,8.8922,550.24,1971.69,0.6742,4.3832,19.1935,0.2076,8.2935,-3.1869,-0.0022,-0.6389,-0.2512,-0.6762,-0.1907,-0.2898,-0.0162,-0.1268,4.1687,1.1804,0.4606,0.9767,0.0213,0.0019,30576000.0
260,0.51,0.3288,-0.0142,8.8764,553.72,1971.69,0.684,4.4447,19.613,0.2072,8.4442,-3.243,-0.0023,-0.6601,-0.2579,-0.6808,-0.208,-0.3,-0.0168,-0.129,4.1784,1.1732,0.49,0.977,0.0209,0.002,30693600.0
261,0.51,0.3369,-0.015,8.8598,557.5,2000.0,0.6572,4.4612,19.2764,0.2064,8.4373,-3.259,-0.0022,-0.637,-0.2534,-0.7218,-0.262,-0.3084,-0.0174,-0.1323,4.1879,1.2127,0.4752,0.9775,0.0205,0.002,30811200.0
262,0.51,0.3523,-0.0156,8.8364,549.91,1991.79,0.6451,4.4573,18.8399,0.212,8.532,-3.2503,-0.002,-0.6174,-0.2466,-0.6744,-0.2313,-0.2958,-0.0167,-0.1299,4.1983,1.2012,0.4507,0.9775,0.0204,0.002,30928800.0
263,0.51,0.3844,-0.0129,8.826,564.66,1985.39,0.6618,4.4121,19.6517,0.2119,8.3738,-3.2148,-0.0021,-0.627,-0.2475,-0.6485,-0.1859,-0.2958,-0.016,-0.1268,4.2076,1.1378,0.4586,0.9775,0.0205,0.002,31046400.0
264,0.51,0.3414,-0.0142,8.7818,565.01,1993.6,0.6541,4.4915,19.9154,0.2159,8.5547,-3.2327,-0.0021,-0.628,-0.2384,-0.6764,-0.2649,-0.2959,-0.0174,-0.131,4.2193,1.1027,0.4448,0.9781,0.0198,0.002,31164000.0
265,0.51,0.3473,-0.0144,8.7591,557.94,2000.0,0.6679,4.4728,19.4319,0.2145,8.5217,-3.2364,-0.0022,-0.6329,-0.2515,-0.6726,-0.2141,-0.2966,-0.0167,-0.1292,4.2313,1.2167,0.4642,0.9784,0.0195,0.002,31281600.0
266,0.51,0.3498,-0.0157,8.7209,559.2,1998.96,0.6654,4.4822,19.3545,0.2131,8.5294,-3.2146,-0.0021,-0.6288,-0.2424,-0.6815,-0.1999,-0.2948,-0.0166,-0.1287,4.2442,1.1533,0.4493,0.9788,0.0191,0.0021,31399200.0
267,0.5,0.3941,-0.0143,8.6892,569.39,1991.55,0.6435,4.4648,19.8836,0.2149,8.5491,-3.2009,-0.002,-0.5995,-0.2296,-0.6971,-0.2442,-0.2886,-0.0171,-0.1292,4.2544,1.1687,0.4341,0.9787,0.0191,0.0022,31516800.0
268,0.5,0.4001,-0.0131,8.67,566.13,1992.01,0.6793,4.4719,20.3992,0.218,8.5017,-3.1959,-0.0022,-0.6458,-0.2433,-0.6623,-0.1971,-0.2941,-0.0163,-0.1293,4.2647,1.0924,0.4627,0.9789,0.0189,0.0022,31634400.0
269,0.5,0.4468,-0.0133,8.6566,545.22,1971.19,0.6728,4.3831,18.7712,0.1999,8.3242,-3.1494,-0.0022,-0.637,-0.2538,-0.6666,-0.2216,-0.2937,-0.0167,-0.1283,4.2754,1.1867,0.4685,0.979,0.0187,0.0022,31752000.0
270,0.5,0.3558,-0.0143,8.6285,543.44,1991.6,0.6852,4.4626,18.3077,0.213,8.465,-3.1702,-0.0023,-0.6531,-0.2471,-0.6698,-0.2191,-0.2966,-0.0167,-0.13,4.2861,1.3003,0.4718,0.9794,0.0184,0.0023,31869600.0
271,0.5,0.4239,-0.0107,8.6189,552.54,1977.31,0.6636,4.4319,19.9582,0.215,8.4268,-3.1553,-0.0021,-0.6178,-0.2375,-0.6364,-0.1896,-0.2911,-0.0163,-0.127,4.2974,1.0887,0.4448,0.9795,0.018,0.0025,31987200.0
272,0.5,0.37,-0.0122,8.5924,556.7,1986.62,0.6754,4.43,18.4652,0.2192,8.362,-3.107,-0.0022,-0.6434,-0.2394,-0.6693,-0.2368,-0.293,-0.0168,-0.1285,4.3082,1.2855,0.4499,0.9793,0.0181,0.0027,32104800.0
273,0.5,0.3624,-0.0156,8.553,553.22,2000.0,0.666,4.488,18.7206,0.2143,8.5211,-3.2005,-0.0022,-0.6199,-0.2438,-0.6789,-0.2394,-0.2969,-0.017,-0.1308,4.32,1.2843,0.449,0.9794,0.018,0.0027,32222400.0
274,0.5,0.3572,-0.0142,8.552,551.34,2000.0,0.6653,4.4811,19.7297,0.2079,8.5114,-3.1877,-0.0022,-0.6268,-0.256,-0.6875,-0.2652,-0.3027,-0.0176,-0.1316,4.3288,1.1476,0.4551,0.9797,0.0176,0.0027,32340000.0
275,0.5,0.3673,-0.0146,8.5136,563.99,2000.0,0.6838,4.4856,20.8827,0.2144,8.4539,-3.1414,-0.0023,-0.6469,-0.2493,-0.6861,-0.2341,-0.2997,-0.0169,-0.1307,4.3399,1.0105,0.4509,0.9803,0.017,0.0027,32457600.0
276,0.5,0.4003,-0.0106,8.5229,561.36,1985.68,0.6406,4.3556,18.8472,0.2065,8.2187,-3.0601,-0.0021,-0.6047,-0.24,-0.6549,-0.2284,-0.2997,-0.0164,-0.1271,4.3484,1.113,0.4334,0.9807,0.0166,0.0027,32575200.0
277,0.5,0.375,-0.015,8.4776,557.03,1983.92,0.6605,4.498,20.0019,0.2167,8.5371,-3.1627,-0.0021,-0.6118,-0.2364,-0.6359,-0.225,-0.2961,-0.0168,-0.1299,4.3604,1.0817,0.4357,0.9805,0.0167,0.0028,32692800.0
278,0.49,0.3787,-0.0147,8.4656,558.91,1998.24,0.6858,4.4919,19.9936,0.2135,8.4715,-3.1489,-0.0023,-0.6336,-0.2518,-0.6678,-0.2284,-0.2969,-0.0167,-0.13,4.3702,1.092,0.4452,0.9804,0.0167,0.0029,32810400.0
279,0.49,0.4284,-0.0146,8.4541,559.93,1997.03,0.6514,4.4945,19.6043,0.2203,8.5288,-3.129,-0.0021,-0.6175,-0.2367,-0.6543,-0.2497,-0.3001,-0.0172,-0.1301,4.3789,1.1575,0.4352,0.9803,0.0168,0.0029,32928000.0
280,0.49,0.4337,-0.0133,8.43,547.21,1981.94,0.6782,4.4321,17.4783,0.2107,8.3355,-3.1009,-0.0023,-0.6381,-0.2487,-0.6722,-0.2218,-0.2989,-0.0166,-0.1283,4.3875,1.4008,0.4531,0.98,0.0169,0.0031,33045600.0
281,0.49,0.4483,-0.0148,8.393,551.38,1968.59,0.6385,4.3483,19.498,0.2101,8.2573,-3.0348,-0.002,-0.5917,-0.2338,-0.6261,-0.2024,-0.288,-0.0161,-0.1254,4.3968,1.0812,0.422,0.9802,0.0168,0.0031,33163200.0
282,0.49,0.4281,-0.0128,8.3769,548.14,1963.29,0.6431,4.2994,18.44,0.1997,8.1471,-3.0134,-0.0021,-0.5954,-0.2402,-0.6752,-0.2141,-0.2916,-0.0161,-0.124,4.405,1.1993,0.4326,0.9799,0.017,0.0031,33280800.0
283,0.49,0.4998,-0.0111,8.3573,518.32,1919.65,0.6092,4.1832,16.9776,0.1968,7.9698,-2.898,-0.0019,-0.5598,-0.2197,-0.6587,-0.2082,-0.2751,-0.0155,-0.1203,4.4102,1.1952,0.3934,0.9793,0.0172,0.0034,33398400.0
284,0.49,0.4021,-0.0137,8.335,537.21,1953.47,0.663,4.463,19.1899,0.2147,8.4591,-3.0953,-0.0022,-0.6072,-0.2402,-0.6522,-0.2096,-0.2916,-0.0165,-0.1274,4.417,1.1572,0.4283,0.9786,0.0175,0.0039,33516000.0
285,0.49,0.3981,-0.0127,8.3255,569.78,2000.0,0.672,4.5,19.5935,0.2143,8.5354,-3.1123,-0.0021,-0.6141,-0.2451,-0.6824,-0.2151,-0.2948,-0.0167,-0.1282,4.4278,1.1417,0.4374,0.9788,0.0173,0.0039,33633600.0
286,0.49,0.3959,-0.0136,8.3111,565.05,1999.01,0.6821,4.4914,18.8436,0.2143,8.4814,-3.089,-0.0022,-0.6359,-0.2455,-0.689,-0.2358,-0.2966,-0.0171,-0.1295,4.4383,1.2286,0.4433,0.9789,0.0171,0.0039,33751200.0
287,0.49,0.4393,-0.0121,8.2929,547.18,1982.56,0.6724,4.4536,18.3057,0.2119,8.3677,-3.0565,-0.0022,-0.6172,-0.2445,-0.6551,-0.2184,-0.2977,-0.0167,-0.1281,4.4467,1.2705,0.4335,0.9786,0.0172,0.0042,33868800.0
288,0.49,0.4189,-0.0152,8.2603,550.63,2000.0,0.6786,4.4823,19.4758,0.2061,8.4856,-3.0997,-0.0022,-0.6251,-0.2545,-0.7087,-0.2422,-0.3009,-0.017,-0.132,4.4577,1.1463,0.4536,0.9786,0.0171,0.0043,33986400.0
289,0.48,0.4147,-0.0146,8.2406,561.43,1998.94,0.6877,4.484,19.857,0.2082,8.4305,-3.0811,-0.0023,-0.625,-0.2568,-0.675,-0.2439,-0.3013,-0.0171,-0.1309,4.4675,1.1051,0.4481,0.9788,0.0168,0.0044,34104000.0
290,0.48,0.4148,-0.0151,8.2204,570.99,1998.64,0.657,4.5094,19.3592,0.2086,8.5887,-3.1014,-0.0021,-0.6007,-0.245,-0.7149,-0.3178,-0.2967,-0.018,-0.1331,4.4739,1.185,0.4272,0.9788,0.0165,0.0047,34221600.0
291,0.48,0.4558,-0.0129,8.1926,574.85,1984.78,0.6388,4.459,20.1388,0.2189,8.4887,-3.0451,-0.002,-0.5784,-0.2222,-0.6492,-0.2167,-0.2882,-0.0164,-0.1265,4.4819,1.0858,0.403,0.9792,0.016,0.0048,34339200.0
292,0.48,0.4377,-0.0126,8.1661,557.77,1975.63,0.6889,4.4601,19.0325,0.2103,8.3878,-3.0343,-0.0024,-0.631,-0.2441,-0.6543,-0.2532,-0.2974,-0.0171,-0.1318,4.4885,1.2297,0.443,0.9792,0.0159,0.0049,34456800.0
293,0.48,0.4755,-0.0109,8.1467,552.32,1982.44,0.6888,4.4527,19.1807,0.2113,8.3528,-3.0228,-0.0023,-0.625,-0.2421,-0.6462,-0.2025,-0.2973,-0.0165,-0.1281,4.4976,1.1716,0.4388,0.9794,0.0157,0.0049,34574400.0
294,0.48,0.4682,-0.0148,8.1096,551.75,1973.72,0.6767,4.4277,19.1016,0.2129,8.336,-2.9798,-0.0022,-0.6132,-0.2354,-0.6563,-0.1831,-0.2892,-0.0161,-0.1263,4.5059,1.2163,0.4202,0.9797,0.0154,0.0049,34692000.0
295,0.48,0.4651,-0.0109,8.0938,549.32,1992.44,0.6621,4.482,18.7966,0.2144,8.4723,-3.0321,-0.0022,-0.6051,-0.2391,-0.6761,-0.2693,-0.2955,-0.0173,-0.1302,4.5135,1.2013,0.4234,0.9798,0.015,0.0051,34809600.0
296,0.48,0.4353,-0.0122,8.0725,551.99,1990.31,0.6948,4.4771,20.323,0.2081,8.4307,-3.0372,-0.0024,-0.6272,-0.2497,-0.6828,-0.2191,-0.2982,-0.0167,-0.1298,4.5193,1.1238,0.4481,0.98,0.0146,0.0054,34927200.0
297,0.48,0.5795,-0.0105,8.0399,553.58,1963.12,0.6406,4.4057,18.9672,0.2125,8.3465,-2.9779,-0.002,-0.5695,-0.225,-0.6587,-0.2417,-0.2858,-0.0164,-0.1262,4.5254,1.1285,0.3916,0.9796,0.0147,0.0057,35044800.0
298,0.48,0.4824,-0.0138,8.0214,549.28,1950.73,0.6498,4.4192,18.7211,0.2121,8.3622,-2.9893,-0.0021,-0.5857,-0.2321,-0.6379,-0.2164,-0.2922,-0.0162,-0.1267,4.5328,1.2002,0.4111,0.9792,0.0149,0.0059,35162400.0
299,0.48,0.4382,-0.0132,7.9891,558.86,1984.29,0.7083,4.4874,19.3346,0.2144,8.3726,-3.0112,-0.0024,-0.6329,-0.2498,-0.6525,-0.2135,-0.3016,-0.0167,-0.1279,4.5408,1.2175,0.4487,0.9795,0.0145,0.0059,35280000.0
300,0.47,0.4897,-0.013,7.9778,561.62,1976.97,0.6536,4.3315,19.4,0.2064,8.1677,-2.93,-0.0021,-0.5819,-0.2272,-0.6165,-0.1763,-0.2873,-0.0157,-0.1229,4.5475,1.0828,0.4128,0.9794,0.0145,0.0061,35397600.0
301,0.47,0.4649,-0.0142,7.9641,550.87,1955.96,0.6814,4.4655,18.1972,0.2111,8.3814,-2.9907,-0.0022,-0.6068,-0.2391,-0.6337,-0.1819,-0.2963,-0.016,-0.1274,4.5573,1.3177,0.4232,0.979,0.0146,0.0065,35515200.0
302,0.47,0.4796,-0.0143,7.9274,541.0,1963.87,0.6648,4.4779,19.5416,0.2122,8.4651,-3.0115,-0.0022,-0.5968,-0.2406,-0.6727,-0.2461,-0.294,-0.017,-0.1292,4.5619,1.1038,0.4162,0.9784,0.0147,0.0069,35632800.0
303,0.47,0.4179,-0.014,7.9067,554.99,1986.16,0.6623,4.519,19.3334,0.2111,8.5622,-3.0316,-0.0021,-0.5864,-0.2392,-0.6844,-0.21,-0.2972,-0.0167,-0.1289,4.5678,1.1954,0.4162,0.9786,0.0144,0.007,35750400.0
304,0.47,0.4758,-0.0123,7.8902,555.0,1975.56,0.6897,4.4086,19.2569,0.204,8.2723,-2.9423,-0.0023,-0.6046,-0.2373,-0.6497,-0.1612,-0.2937,-0.0156,-0.1249,4.5734,1.166,0.432,0.9789,0.0137,0.0075,35868000.0
305,0.47,0.4291,-0.0145,7.8727,560.25,1973.08,0.655,4.4801,18.8184,0.2089,8.4752,-2.9969,-0.0021,-0.5868,-0.2297,-0.6648,-0.1997,-0.2954,-0.0163,-0.1276,4.5763,1.236,0.4116,0.9783,0.0139,0.0078,35985600.0
306,0.47,0.4589,-0.0107,7.8601,569.01,1992.18,0.6722,4.4911,19.9584,0.2123,8.5088,-3.0082,-0.0022,-0.5888,-0.2403,-0.6714,-0.1979,-0.2955,-0.0164,-0.1275,4.582,1.1377,0.4228,0.9785,0.0135,0.008,36103200.0
307,0.47,0.4657,-0.0106,7.8335,560.19,1988.05,0.6842,4.4878,18.6163,0.2053,8.4634,-2.9923,-0.0023,-0.6022,-0.2453,-0.6952,-0.2593,-0.2981,-0.0172,-0.1314,4.5885,1.2619,0.4338,0.9789,0.0131,0.008,36220800.0
308,0.47,0.4885,-0.0126,7.816,550.72,1970.79,0.6824,4.4171,18.7195,0.209,8.2758,-2.9241,-0.0023,-0.6,-0.2333,-0.6324,-0.211,-0.2903,-0.0162,-0.1251,4.5971,1.2174,0.4158,0.9789,0.0127,0.0083,36338400.0
309,0.47,0.4448,-0.013,7.7962,551.59,1968.95,0.682,4.4846,18.4958,0.2127,8.4178,-2.9716,-0.0023,-0.5973,-0.2376,-0.6514,-0.2086,-0.301,-0.0166,-0.1279,4.6007,1.2512,0.4164,0.9783,0.0129,0.0088,36456000.0
310,0.47,0.402,-0.0126,7.7693,556.64,1963.17,0.6771,4.4377,19.7288,0.2025,8.335,-2.9521,-0.0023,-0.6019,-0.2416,-0.7037,-0.2756,-0.2985,-0.0173,-0.1304,4.6026,1.1611,0.4268,0.9781,0.0127,0.0092,36573600.0
311,0.47,0.3909,-0.0126,7.7354,550.85,1997.78,0.6644,4.535,18.462,0.2145,8.556,-2.9934,-0.0021,-0.5795,-0.234,-0.658,-0.1864,-0.2975,-0.0163,-0.1276,4.61,1.272,0.3999,0.9787,0.0122,0.0091,36691200.0
312,0.46,0.3942,-0.0115,7.7309,555.52,1993.81,0.6654,4.5255,19.1754,0.2166,8.5622,-2.9862,-0.0021,-0.5766,-0.2286,-0.6568,-0.2351,-0.2928,-0.0168,-0.1296,4.6198,1.2183,0.4012,0.9789,0.012,0.0091,36808800.0
313,0.46,0.395,-0.013,7.6979,552.09,1996.03,0.6986,4.4969,18.5442,0.2109,8.4127,-2.9732,-0.0025,-0.6167,-0.2506,-0.6922,-0.2859,-0.3031,-0.0177,-0.1326,4.6258,1.2516,0.4411,0.979,0.0116,0.0094,36926400.0
314,0.46,0.394,-0.0156,7.6796,558.92,1994.04,0.7081,4.481,19.5776,0.2042,8.3746,-2.9448,-0.0024,-0.6122,-0.242,-0.6428,-0.1959,-0.2988,-0.0164,-0.1286,4.6366,1.1804,0.437,0.979,0.0112,0.0097,37044000.0
315,0.46,0.3943,-0.0137,7.6643,572.13,1996.46,0.6775,4.5243,19.9493,0.2069,8.5376,-2.9887,-0.0022,-0.5894,-0.2363,-0.7166,-0.2397,-0.2988,-0.0169,-0.1305,4.6464,1.1035,0.4142,0.9786,0.0112,0.0102,37161600.0
316,0.46,0.3922,-0.0144,7.6445,568.18,2000.0,0.6963,4.5155,19.257,0.2086,8.4704,-2.9603,-0.0023,-0.6081,-0.2488,-0.6999,-0.2541,-0.2991,-0.0171,-0.1299,4.6528,1.2149,0.4227,0.9786,0.0112,0.0102,37279200.0
317,0.46,0.4281,-0.0135,7.6238,557.27,1991.78,0.7081,4.4725,19.1507,0.2138,8.3449,-2.9084,-0.0024,-0.6169,-0.2371,-0.6529,-0.2198,-0.2987,-0.0165,-0.1281,4.6571,1.2586,0.4341,0.9779,0.0113,0.0108,37396800.0
318,0.46,0.4428,-0.0124,7.6014,564.22,1972.68,0.6976,4.4672,20.3354,0.2115,8.3589,-2.9048,-0.0024,-0.5991,-0.2364,-0.6391,-0.1944,-0.2933,-0.0164,-0.1265,4.6592,1.1243,0.4211,0.9778,0.0114,0.0108,37514400.0
319,0.46,0.3996,-0.0163,7.5666,565.29,1976.17,0.6752,4.5283,19.4811,0.2188,8.5345,-2.9513,-0.0022,-0.5807,-0.2326,-0.6516,-0.2148,-0.294,-0.0166,-0.1288,4.6624,1.207,0.3986,0.9776,0.0112,0.0112,37632000.0
320,0.46,0.4051,-0.0134,7.5486,575.46,1998.07,0.676,4.5272,19.858,0.2149,8.5118,-2.9631,-0.0022,-0.5775,-0.2261,-0.66,-0.2322,-0.2959,-0.0167,-0.1285,4.6698,1.1597,0.4018,0.9775,0.0111,0.0114,37749600.0
321,0.46,0.4001,-0.0144,7.5279,560.63,1996.02,0.6613,4.528,18.74,0.2138,8.5436,-2.9607,-0.002,-0.5659,-0.2203,-0.6485,-0.1862,-0.297,-0.0162,-0.128,4.677,1.2609,0.3951,0.9774,0.011,0.0116,37867200.0
322,0.46,0.3988,-0.0133,7.504,553.54,1996.02,0.6897,4.5231,18.6289,0.2176,8.4488,-2.932,-0.0024,-0.5967,-0.2297,-0.6382,-0.2124,-0.3017,-0.0164,-0.1289,4.68,1.2795,0.4155,0.9769,0.011,0.012,37984800.0
323,0.45,0.5045,-0.0121,7.4751,572.85,1958.94,0.6705,4.3674,20.2298,0.2072,8.1944,-2.8411,-0.0022,-0.5717,-0.221,-0.6219,-0.1807,-0.286,-0.0156,-0.1226,4.6873,1.003,0.4001,0.9769,0.0111,0.012,38102400.0
324,0.45,0.3919,-0.0135,7.4543,572.9,1965.26,0.6891,4.537,20.3139,0.2173,8.5042,-2.9304,-0.0023,-0.5804,-0.2311,-0.6649,-0.2254,-0.2954,-0.0168,-0.129,4.6957,1.1529,0.4027,0.9769,0.0112,0.0118,38220000.0
325,0.45,0.4751,-0.0113,7.412,558.31,1982.35,0.6748,4.4388,18.2263,0.2142,8.3322,-2.8645,-0.0022,-0.5694,-0.2229,-0.6407,-0.1869,-0.2897,-0.0158,-0.1248,4.7021,1.2373,0.3993,0.9769,0.0111,0.012,38337600.0
326,0.45,0.3869,-0.0135,7.3878,564.64,1982.35,0.6713,4.5431,20.6741,0.2176,8.532,-2.9241,-0.0022,-0.5752,-0.2267,-0.653,-0.2297,-0.2997,-0.0169,-0.1297,4.7066,1.0558,0.3968,0.9767,0.0112,0.012,38455200.0
327,0.45,0.4054,-0.0136,7.3507,576.17,1979.0,0.6533,4.4529,18.9778,0.2185,8.3599,-2.8647,-0.0021,-0.561,-0.2168,-0.6316,-0.2402,-0.2922,-0.0166,-0.127,4.7043,1.2449,0.3839,0.9761,0.0114,0.0124,38572800.0
328,0.45,0.4738,-0.0127,7.3448,561.61,1972.94,0.653,4.4666,17.3971,0.2139,8.417,-2.8829,-0.0021,-0.5537,-0.2263,-0.6442,-0.2288,-0.2916,-0.0164,-0.1275,4.7085,1.3285,0.3878,0.9755,0.0115,0.013,38690400.0
329,0.45,0.3837,-0.0135,7.3163,556.78,1975.44,0.6829,4.4982,19.6043,0.2003,8.4673,-2.9274,-0.0023,-0.5853,-0.2407,-0.714,-0.2492,-0.3003,-0.017,-0.1312,4.7147,1.1667,0.4211,0.975,0.0116,0.0133,38808000.0
330,0.45,0.3846,-0.0126,7.3031,559.96,1996.85,0.7154,4.5039,19.3414,0.2134,8.3749,-2.8769,-0.0025,-0.6103,-0.2383,-0.6451,-0.1845,-0.3049,-0.0164,-0.128,4.7167,1.1619,0.4334,0.9754,0.0114,0.0132,38925600.0
331,0.45,0.381,-0.0104,7.2867,563.58,1997.28,0.6693,4.5443,20.0352,0.2203,8.5646,-2.913,-0.0021,-0.5579,-0.2188,-0.6555,-0.2155,-0.2923,-0.0164,-0.128,4.7228,1.1382,0.3862,0.9757,0.0114,0.013,39043200.0
332,0.45,0.4466,-0.0124,7.2507,563.93,1964.14,0.6713,4.4315,19.6863,0.2049,8.3255,-2.8537,-0.0022,-0.5621,-0.2267,-0.67,-0.2323,-0.2909,-0.0166,-0.1277,4.7279,1.1218,0.4036,0.9751,0.0114,0.0135,39160800.0
333,0.45,0.4389,-0.0118,7.2299,562.61,1966.65,0.6552,4.5145,19.6144,0.2165,8.5288,-2.9064,-0.002,-0.5409,-0.2209,-0.6322,-0.1901,-0.288,-0.0161,-0.1249,4.7379,1.1305,0.3697,0.9745,0.0116,0.0139,39278400.0
334,0.44,0.4409,-0.0119,7.2036,566.15,1992.65,0.6913,4.5163,19.6475,0.2133,8.4482,-2.8896,-0.0023,-0.5746,-0.2268,-0.6628,-0.2153,-0.2963,-0.0164,-0.1278,4.7453,1.164,0.4021,0.9741,0.0119,0.014,39396000.0
335,0.44,0.4242,-0.0138,7.1944,558.73,1961.62,0.6723,4.414,19.1925,0.2119,8.2768,-2.8091,-0.0023,-0.5632,-0.2227,-0.6628,-0.2335,-0.2884,-0.0164,-0.1258,4.7485,1.138,0.393,0.9727,0.0124,0.015,39513600.0
336,0.44,0.3752,-0.0141,7.1726,574.67,1993.46,0.6956,4.5194,19.4481,0.2213,8.4439,-2.8644,-0.0023,-0.5822,-0.2286,-0.6549,-0.2237,-0.294,-0.0164,-0.1283,4.7485,1.2326,0.4006,0.972,0.0124,0.0155,39631200.0
337,0.44,0.4176,-0.011,7.154,563.59,1952.18,0.6614,4.3036,19.2975,0.2087,8.0166,-2.7162,-0.0022,-0.5494,-0.2138,-0.6336,-0.2219,-0.2837,-0.016,-0.1226,4.754,1.06,0.3774,0.9709,0.0127,0.0164,39748800.0
338,0.44,0.369,-0.0137,7.1344,559.08,1950.8,0.7192,4.5075,19.7475,0.221,8.35,-2.8297,-0.0025,-0.5834,-0.2247,-0.6407,-0.203,-0.2923,-0.0163,-0.1262,4.7623,1.185,0.4065,0.9701,0.0129,0.017,39866400.0
339,0.44,0.4784,-0.0129,7.1158,559.61,1971.63,0.6899,4.4955,19.6558,0.2214,8.3889,-2.839,-0.0023,-0.5632,-0.2181,-0.6393,-0.218,-0.2924,-0.0164,-0.1261,4.7696,1.1647,0.3924,0.9695,0.0128,0.0177,39984000.0
340,0.44,0.4041,-0.0113,7.0856,560.91,1973.41,0.6664,4.5455,20.0453,0.2133,8.5489,-2.8993,-0.0021,-0.5475,-0.2212,-0.6661,-0.2321,-0.2957,-0.0166,-0.1285,4.7766,1.1194,0.3806,0.9689,0.0131,0.018,40101600.0
341,0.44,0.438,-0.0129,7.0617,571.57,1974.44,0.6779,4.494,19.685,0.2236,8.4201,-2.8277,-0.0022,-0.5538,-0.2118,-0.6429,-0.2169,-0.2875,-0.0163,-0.1254,4.7827,1.1385,0.3818,0.968,0.0136,0.0184,40219200.0
342,0.44,0.3751,-0.0145,7.0411,564.19,1993.14,0.6951,4.5369,18.8492,0.2157,8.4707,-2.8599,-0.0023,-0.5733,-0.2245,-0.6655,-0.242,-0.2991,-0.0168,-0.1292,4.7842,1.2951,0.402,0.9676,0.0136,0.0188,40336800.0
343,0.44,0.4235,-0.0137,7.0102,563.88,1989.79,0.6822,4.5031,19.7195,0.2161,8.4163,-2.8303,-0.0023,-0.5626,-0.2221,-0.6558,-0.225,-0.2952,-0.0165,-0.127,4.7868,1.0896,0.3927,0.9677,0.0135,0.0187,40454400.0
344,0.44,0.4175,-0.0119,6.9857,566.17,1965.0,0.6936,4.4874,19.2803,0.2185,8.3564,-2.799,-0.0023,-0.5615,-0.2229,-0.6478,-0.173,-0.2924,-0.0158,-0.1242,4.7872,1.211,0.389,0.9668,0.0139,0.0193,40572000.0
345,0.44,0.4271,-0.0126,6.9683,561.32,1983.57,0.7207,4.4716,18.932,0.2086,8.3097,-2.7978,-0.0026,-0.5864,-0.2305,-0.6978,-0.221,-0.2958,-0.0165,-0.1269,4.7931,1.224,0.4239,0.9664,0.0139,0.0197,40689600.0
346,0.44,0.374,-0.0134,6.9603,548.97,1965.27,0.6623,4.3604,18.4901,0.2147,8.1198,-2.7115,-0.0022,-0.5433,-0.2079,-0.6605,-0.2547,-0.2827,-0.0164,-0.1241,4.7996,1.133,0.3676,0.9657,0.014,0.0202,40807200.0
347,0.43,0.3723,-0.0154,6.9368,571.89,1995.87,0.6787,4.5341,19.3954,0.221,8.4833,-2.8331,-0.0023,-0.5489,-0.2153,-0.6325,-0.1969,-0.295,-0.0162,-0.1251,4.8032,1.226,0.3859,0.9655,0.0139,0.0206,40924800.0
348,0.43,0.3578,-0.0146,6.9182,578.04,1997.8,0.6814,4.5516,20.2331,0.2219,8.5406,-2.8589,-0.0022,-0.5519,-0.2176,-0.6847,-0.229,-0.2957,-0.0165,-0.1272,4.8078,1.1509,0.3889,0.9653,0.0139,0.0208,41042400.0
349,0.43,0.3711,-0.0122,6.8897,566.15,1978.45,0.7087,4.4947,19.5395,0.205,8.358,-2.8026,-0.0025,-0.5765,-0.2305,-0.6946,-0.2334,-0.3001,-0.0168,-0.1285,4.8126,1.1642,0.4121,0.9652,0.014,0.0208,41160000.0
350,0.43,0.3544,-0.0155,6.8589,559.17,1992.87,0.6698,4.5595,19.1133,0.2234,8.5672,-2.8446,-0.0022,-0.5408,-0.212,-0.6835,-0.2283,-0.291,-0.0165,-0.1276,4.8131,1.2211,0.3736,0.9649,0.014,0.0211,41277600.0
351,0.43,0.3466,-0.0134,6.8423,570.62,1995.16,0.7043,4.5384,20.2457,0.2189,8.4594,-2.8121,-0.0024,-0.5674,-0.224,-0.6658,-0.2004,-0.2964,-0.0162,-0.1262,4.8166,1.1001,0.4006,0.9649,0.0139,0.0212,41395200.0
352,0.43,0.391,-0.0139,6.805,577.81,1978.64,0.6899,4.5072,20.4763,0.2135,8.4389,-2.8051,-0.0023,-0.5564,-0.2198,-0.6556,-0.1927,-0.2948,-0.0162,-0.1253,4.826,1.0659,0.3937,0.9652,0.0136,0.0212,41512800.0
353,0.43,0.3626,-0.0129,6.7852,571.85,1976.93,0.6834,4.5481,19.4177,0.2241,8.488,-2.8172,-0.0023,-0.551,-0.2166,-0.6649,-0.2076,-0.2982,-0.0162,-0.1262,4.8308,1.1941,0.3883,0.965,0.0135,0.0215,41630400.0
354,0.43,0.3469,-0.0151,6.7504,562.88,1990.02,0.6916,4.5312,18.4831,0.2202,8.4524,-2.804,-0.0023,-0.5505,-0.2153,-0.6361,-0.1875,-0.2917,-0.0159,-0.1249,4.8398,1.2653,0.3848,0.9644,0.0136,0.0221,41748000.0
355,0.43,0.3537,-0.0146,6.7373,546.88,1992.8,0.6846,4.535,17.5754,0.2214,8.4656,-2.7947,-0.0024,-0.5468,-0.2202,-0.6837,-0.2447,-0.2938,-0.0168,-0.1268,4.8477,1.3655,0.387,0.9645,0.0132,0.0223,41865600.0
356,0.43,0.4095,-0.0141,6.7182,548.9,1979.98,0.6898,4.4807,19.7297,0.2177,8.3597,-2.7521,-0.0023,-0.5447,-0.2089,-0.6602,-0.2117,-0.2907,-0.0162,-0.1253,4.8522,1.1813,0.3845,0.9643,0.0131,0.0226,41983200.0
357,0.43,0.3483,-0.0147,6.6902,568.15,1978.34,0.6999,4.5248,20.092,0.2203,8.43,-2.7779,-0.0024,-0.5514,-0.2139,-0.6588,-0.2051,-0.2942,-0.0163,-0.1263,4.8571,1.1433,0.3917,0.9639,0.0133,0.0229,42100800.0
358,0.42,0.3427,-0.0148,6.6742,564.62,1993.06,0.6822,4.558,19.6738,0.2311,8.5317,-2.7865,-0.0022,-0.5398,-0.2008,-0.6205,-0.1842,-0.2874,-0.0159,-0.1241,4.8583,1.1155,0.3733,0.9634,0.0133,0.0233,42218400.0
359,0.42,0.348,-0.0141,6.6518,579.68,1998.47,0.6984,4.5477,20.4005,0.2132,8.5008,-2.8054,-0.0023,-0.5452,-0.2201,-0.6902,-0.199,-0.294,-0.0164,-0.125,4.8643,1.0856,0.3895,0.9633,0.0132,0.0235,42336000.0
360,0.42,0.3474,-0.0131,6.6282,581.38,1998.91,0.6644,4.5835,19.6977,0.228,8.621,-2.8114,-0.0021,-0.5212,-0.2021,-0.6594,-0.212,-0.2872,-0.0163,-0.1253,4.8703,1.1609,0.3565,0.9632,0.0131,0.0237,42453600.0
361,0.42,0.4119,-0.0111,6.6069,554.08,1985.84,0.6831,4.521,17.9781,0.2163,8.4502,-2.7781,-0.0024,-0.5497,-0.2244,-0.7037,-0.2599,-0.2934,-0.0168,-0.1276,4.8764,1.2884,0.3849,0.963,0.0131,0.0239,42571200.0
362,0.42,0.4306,-0.0116,6.5814,543.08,1933.51,0.6887,4.4432,20.0119,0.2119,8.2997,-2.7323,-0.0023,-0.536,-0.2142,-0.6567,-0.2172,-0.2877,-0.0162,-0.123,4.8796,1.0373,0.3874,0.9623,0.0136,0.0241,42688800.0
363,0.42,0.3715,-0.0136,6.5452,567.19,1943.62,0.7117,4.5403,20.1411,0.2247,8.4245,-2.7581,-0.0025,-0.5611,-0.2122,-0.654,-0.2005,-0.2942,-0.016,-0.1258,4.8843,1.119,0.3914,0.9622,0.0137,0.0241,42806400.0
364,0.42,0.396,-0.0121,6.5466,582.17,1980.18,0.7056,4.504,19.7546,0.2221,8.3373,-2.72,-0.0025,-0.5546,-0.2134,-0.6363,-0.2013,-0.2922,-0.0161,-0.1236,4.8888,1.1048,0.3861,0.962,0.0136,0.0244,42924000.0
365,0.42,0.4385,-0.0132,6.5287,557.38,1955.23,0.6919,4.4651,18.6774,0.2217,8.2895,-2.6946,-0.0023,-0.5411,-0.2064,-0.6233,-0.1472,-0.2881,-0.0152,-0.1216,4.8923,1.2316,0.3713,0.9614,0.0137,0.0248,43041600.0
366,0.42,0.3975,-0.0128,6.5055,557.6,1969.72,0.6665,4.5584,19.9217,0.221,8.5489,-2.7796,-0.0021,-0.5157,-0.2111,-0.6691,-0.1959,-0.2916,-0.0162,-0.1243,4.8948,1.1568,0.3552,0.9616,0.0134,0.0249,43159200.0
367,0.42,0.4028,-0.0118,6.4832,576.34,1981.97,0.7005,4.5051,19.8161,0.2204,8.3572,-2.7217,-0.0024,-0.5507,-0.2193,-0.6534,-0.2143,-0.2934,-0.0162,-0.1247,4.8998,1.1168,0.3862,0.9622,0.0128,0.0249,43276800.0
368,0.42,0.4062,-0.0102,6.4766,569.58,1983.83,0.7051,4.5493,19.0382,0.2288,8.434,-2.7406,-0.0024,-0.544,-0.2099,-0.6514,-0.1955,-0.2933,-0.0159,-0.1245,4.9072,1.2651,0.3845,0.9622,0.0129,0.0249,43394400.0
369,0.42,0.4763,-0.0101,6.4514,574.66,1982.91,0.6812,4.5402,20.3812,0.2237,8.4819,-2.7425,-0.0023,-0.5221,-0.2047,-0.6625,-0.1874,-0.2893,-0.0159,-0.1231,4.9113,1.1115,0.3662,0.9616,0.0129,0.0254,43512000.0
370,0.42,0.4723,-0.0103,6.4326,581.18,1965.94,0.6964,4.4587,19.5509,0.2159,8.2866,-2.6708,-0.0024,-0.5431,-0.2104,-0.6641,-0.1834,-0.2887,-0.0157,-0.1223,4.9163,1.0977,0.3791,0.9611,0.0132,0.0257,43629600.0
371,0.42,0.4258,-0.0129,6.4143,595.81,2000.0,0.677,4.5787,20.5574,0.2226,8.5621,-2.766,-0.0022,-0.5255,-0.2091,-0.6453,-0.2136,-0.2925,-0.0163,-0.1254,4.9243,1.0774,0.364,0.9612,0.0133,0.0255,43747200.0
372,0.42,0.4738,-0.0093,6.4068,571.31,1985.13,0.6785,4.5309,19.0667,0.2168,8.4645,-2.7345,-0.0022,-0.521,-0.2091,-0.656,-0.204,-0.2897,-0.0161,-0.1249,4.9281,1.2014,0.3605,0.9612,0.0133,0.0254,43864800.0
373,0.41,0.4382,-0.0131,6.3772,556.61,1967.57,0.7368,4.4883,19.2696,0.2311,8.2399,-2.6559,-0.0026,-0.5624,-0.2051,-0.5981,-0.1634,-0.2878,-0.0155,-0.1205,4.9276,1.1848,0.3911,0.9606,0.0136,0.0257,43982400.0
374,0.41,0.4348,-0.0124,6.3511,564.5,1985.72,0.7056,4.5003,19.4393,0.225,8.3313,-2.6868,-0.0025,-0.5452,-0.2074,-0.6402,-0.2194,-0.2923,-0.0162,-0.123,4.9315,1.1431,0.3811,0.9599,0.0139,0.0263,44100000.0
375,0.41,0.4524,-0.0124,6.3226,553.57,1973.21,0.7097,4.4773,19.5705,0.2203,8.2625,-2.6612,-0.0025,-0.543,-0.2052,-0.6185,-0.1616,-0.2898,-0.0154,-0.1197,4.9362,1.0912,0.3789,0.9594,0.0137,0.0269,44217600.0
376,0.41,0.4402,-0.0103,6.3094,573.05,1989.25,0.6908,4.5221,19.1934,0.2197,8.4003,-2.7085,-0.0024,-0.5332,-0.2081,-0.6408,-0.224,-0.292,-0.0163,-0.125,4.9456,1.1872,0.3708,0.9588,0.0138,0.0274,44335200.0
377,0.41,0.4948,-0.0097,6.2738,565.54,1975.6,0.6687,4.5082,19.2152,0.2179,8.426,-2.7121,-0.0022,-0.5099,-0.205,-0.6626,-0.2335,-0.2867,-0.0164,-0.1241,4.9517,1.1982,0.3582,0.9581,0.0138,0.0281,44452800.0
378,0.41,0.48,-0.0114,6.2595,566.59,1965.45,0.687,4.5365,19.155,0.2171,8.4384,-2.7169,-0.0024,-0.534,-0.2168,-0.6645,-0.2203,-0.2947,-0.0164,-0.1251,4.9531,1.2216,0.374,0.9577,0.014,0.0283,44570400.0
379,0.41,0.459,-0.0108,6.245,564.2,1994.05,0.6953,4.5608,18.7583,0.2213,8.4942,-2.7113,-0.0023,-0.5282,-0.2103,-0.648,-0.1789,-0.29,-0.0157,-0.1238,4.9529,1.2409,0.3647,0.9575,0.0141,0.0284,44688000.0
380,0.41,0.4708,-0.0097,6.2316,557.91,1982.99,0.6908,4.5036,19.217,0.218,8.3588,-2.6766,-0.0023,-0.5275,-0.2129,-0.6337,-0.1751,-0.2931,-0.0157,-0.1227,4.9608,1.2185,0.3676,0.9576,0.0142,0.0282,44805600.0
381,0.41,0.4455,-0.013,6.1952,577.03,1980.47,0.7118,4.5497,20.6689,0.2302,8.4358,-2.6771,-0.0024,-0.5359,-0.2102,-0.6204,-0.1729,-0.2885,-0.0157,-0.1218,4.9667,1.0726,0.3706,0.9579,0.0137,0.0284,44923200.0
382,0.41,0.508,-0.0066,6.2198,584.1,1983.53,0.7087,4.5289,19.8992,0.2234,8.3811,-2.6744,-0.0024,-0.5391,-0.2066,-0.6325,-0.1794,-0.2903,-0.0157,-0.1221,4.973,1.1594,0.3726,0.9576,0.0135,0.029,45040800.0
383,0.41,0.469,-0.0113,6.192,566.93,1969.35,0.6551,4.4177,18.7784,0.2146,8.2397,-2.6536,-0.0021,-0.4899,-0.1949,-0.6299,-0.1889,-0.2837,-0.0155,-0.119,4.9751,1.1164,0.3403,0.9566,0.0139,0.0295,45158400.0
384,0.41,0.4845,-0.012,6.171,564.81,1993.51,0.6936,4.5583,18.3608,0.2189,8.4675,-2.7086,-0.0023,-0.5267,-0.2127,-0.6372,-0.146,-0.296,-0.0154,-0.1216,4.9793,1.2968,0.3704,0.957,0.0138,0.0292,45276000.0
385,0.41,0.5431,-0.0103,6.1621,557.42,1967.54,0.6681,4.3626,17.4553,0.2103,8.0902,-2.573,-0.0023,-0.506,-0.1966,-0.6304,-0.2311,-0.2789,-0.016,-0.1202,4.9847,1.2845,0.3515,0.9575,0.0139,0.0286,45393600.0
386,0.41,0.4609,-0.0087,6.1304,576.75,1980.71,0.6809,4.5665,19.2918,0.221,8.5145,-2.7111,-0.0021,-0.5084,-0.2015,-0.6201,-0.1768,-0.2901,-0.0157,-0.1217,4.9897,1.1948,0.3532,0.9576,0.0139,0.0285,45511200.0
387,0.41,0.5041,-0.0119,6.1231,578.19,1991.03,0.7263,4.5323,19.8516,0.2225,8.3544,-2.6513,-0.0026,-0.5457,-0.2143,-0.6222,-0.2155,-0.2905,-0.0161,-0.1234,4.9923,1.1568,0.3832,0.9577,0.014,0.0284,45628800.0
388,0.41,0.4986,-0.0126,6.1173,572.99,1978.27,0.6987,4.5253,19.6764,0.2148,8.3725,-2.6591,-0.0024,-0.5307,-0.2112,-0.6734,-0.2225,-0.2975,-0.0165,-0.1245,4.9937,1.1155,0.3748,0.958,0.0139,0.028,45746400.0
389,0.4,0.5225,-0.0107,6.1014,551.52,1931.11,0.7138,4.3411,17.7165,0.2141,7.9125,-2.5081,-0.0026,-0.5432,-0.2076,-0.6115,-0.225,-0.2844,-0.0159,-0.1189,4.9972,1.2322,0.3723,0.958,0.0143,0.0278,45864000.0
390,0.4,0.4821,-0.0125,6.0845,560.74,1975.29,0.7267,4.5335,18.3217,0.2223,8.3115,-2.637,-0.0025,-0.5423,-0.2072,-0.6119,-0.1675,-0.2965,-0.0156,-0.122,5.0017,1.3417,0.3756,0.9573,0.0143,0.0284,45981600.0
391,0.4,0.5454,-0.0082,6.0717,565.64,1987.72,0.717,4.535,19.031,0.221,8.3788,-2.6395,-0.0025,-0.5327,-0.205,-0.6228,-0.1913,-0.2913,-0.0159,-0.1222,5.0086,1.2092,0.3743,0.9575,0.0141,0.0284,46099200.0
392,0.4,0.5099,-0.0104,6.0485,548.3,1940.53,0.6689,4.4836,18.7438,0.2198,8.3534,-2.6276,-0.0021,-0.4921,-0.1926,-0.6323,-0.2073,-0.2833,-0.0158,-0.1205,5.0132,1.1597,0.3378,0.9574,0.0141,0.0285,46216800.0
393,0.4,0.5161,-0.0046,6.0388,561.03,1983.28,0.6733,4.5283,18.6721,0.218,8.4297,-2.6526,-0.0023,-0.5053,-0.2061,-0.6605,-0.2466,-0.2909,-0.0165,-0.1248,5.0222,1.2598,0.3527,0.9574,0.0141,0.0284,46334400.0
394,0.4,0.4887,-0.0131,5.9989,578.05,2000.0,0.7177,4.5737,19.9222,0.221,8.4468,-2.6547,-0.0025,-0.5253,-0.2079,-0.6796,-0.1846,-0.2938,-0.0161,-0.123,5.0242,1.17,0.3678,0.9576,0.0141,0.0284,46452000.0
395,0.4,0.4913,-0.013,5.9987,583.6,1995.48,0.7084,4.5626,19.8351,0.2181,8.4421,-2.6651,-0.0023,-0.5211,-0.2107,-0.6591,-0.1744,-0.2917,-0.0159,-0.1224,5.0283,1.1004,0.3598,0.9576,0.0141,0.0283,46569600.0
396,0.4,0.5432,-0.0113,5.9746,587.83,1999.6,0.6975,4.5742,19.7386,0.2199,8.4907,-2.6691,-0.0024,-0.5186,-0.2063,-0.6535,-0.2173,-0.2947,-0.0164,-0.1246,5.0354,1.1202,0.366,0.9577,0.0141,0.0282,46687200.0
397,0.4,0.541,-0.0078,5.9785,576.15,1987.83,0.7211,4.5365,19.5775,0.2228,8.3489,-2.6146,-0.0025,-0.5309,-0.2062,-0.6526,-0.2009,-0.2924,-0.0161,-0.1226,5.0428,1.2025,0.3762,0.9572,0.0144,0.0284,46804800.0
398,0.4,0.4924,-0.0126,5.9569,575.59,1976.63,0.7202,4.4909,19.1556,0.2192,8.2251,-2.5634,-0.0026,-0.5314,-0.2015,-0.6228,-0.1697,-0.2895,-0.0155,-0.1195,5.0437,1.2174,0.3657,0.957,0.0147,0.0283,46922400.0
399,0.4,0.53,-0.0113,5.9429,567.88,1964.29,0.6722,4.4,18.5082,0.2127,8.1421,-2.5489,-0.0023,-0.5006,-0.198,-0.6374,-0.2314,-0.2843,-0.0159,-0.1205,5.0433,1.1503,0.3426,0.9563,0.0147,0.029,47040000.0
400,0.4,0.5599,-0.011,5.9146,564.25,1948.42,0.6648,4.3655,18.9877,0.2066,8.0856,-2.5252,-0.0022,-0.494,-0.201,-0.64,-0.2048,-0.2819,-0.0156,-0.1186,5.0471,1.0682,0.3425,0.9564,0.0148,0.0288,47157600.0
401,0.4,0.5999,-0.0117,5.9046,559.41,1937.68,0.6953,4.3591,17.5669,0.2187,7.9689,-2.4782,-0.0025,-0.5061,-0.1948,-0.6219,-0.2265,-0.2795,-0.0159,-0.1188,5.0466,1.2373,0.3399,0.9559,0.0153,0.0288,47275200.0
402,0.4,0.5066,-0.0111,5.8877,565.44,1942.3,0.6927,4.4942,19.2291,0.2182,8.3049,-2.604,-0.0023,-0.5099,-0.2023,-0.6185,-0.1901,-0.2889,-0.0157,-0.1207,5.0467,1.168,0.359,0.9555,0.0155,0.0291,47392800.0
403,0.4,0.5332,-0.0113,5.8827,578.4,1973.18,0.719,4.5643,19.4045,0.2262,8.393,-2.6075,-0.0025,-0.5274,-0.2065,-0.6306,-0.1757,-0.2937,-0.0158,-0.1226,5.0517,1.2924,0.362,0.9554,0.0155,0.029,47510400.0
404,0.4,0.5822,-0.0094,5.8802,563.56,1969.94,0.7094,4.4048,18.5085,0.2069,8.0514,-2.5109,-0.0026,-0.5269,-0.2142,-0.6496,-0.2088,-0.2912,-0.0159,-0.1211,5.0547,1.1892,0.3655,0.9548,0.0158,0.0294,47628000.0
405,0.4,0.485,-0.0099,5.8562,555.3,1974.64,0.7143,4.5786,19.3991,0.2203,8.4468,-2.6324,-0.0025,-0.5125,-0.2041,-0.6754,-0.1909,-0.2937,-0.0162,-0.1223,5.0564,1.2234,0.3635,0.9549,0.0161,0.029,47745600.0
406,0.4,0.4899,-0.0125,5.846,552.82,1999.08,0.7567,4.5586,18.1632,0.223,8.2532,-2.5741,-0.0028,-0.5532,-0.2104,-0.6599,-0.2373,-0.302,-0.0167,-0.1244,5.0599,1.2949,0.3788,0.9548,0.016,0.0292,47863200.0
407,0.4,0.4829,-0.0122,5.8239,568.0,1994.29,0.7147,4.557,19.4272,0.2267,8.3597,-2.58,-0.0026,-0.5229,-0.1989,-0.6419,-0.2203,-0.2938,-0.0163,-0.124,5.0683,1.2264,0.3568,0.9548,0.0156,0.0296,47980800.0
408,0.39,0.5332,-0.0084,5.7999,560.42,1978.71,0.7281,4.5145,18.5083,0.2238,8.2085,-2.5476,-0.0027,-0.5355,-0.2027,-0.6199,-0.2008,-0.2958,-0.016,-0.1219,5.0736,1.3072,0.367,0.9539,0.0155,0.0306,48098400.0
409,0.39,0.4914,-0.0108,5.7713,560.67,1971.47,0.6848,4.4272,18.6526,0.2151,8.1643,-2.5212,-0.0024,-0.4924,-0.1922,-0.6483,-0.202,-0.284,-0.0157,-0.12,5.0784,1.1609,0.3422,0.9537,0.0155,0.0308,48216000.0
410,0.39,0.4745,-0.0123,5.7533,562.02,1993.13,0.7265,4.5562,18.0159,0.2252,8.3539,-2.5741,-0.0026,-0.5222,-0.2017,-0.6511,-0.1899,-0.2919,-0.0159,-0.1223,5.0817,1.3037,0.3647,0.9537,0.0154,0.0309,48333600.0
411,0.39,0.4721,-0.013,5.7522,567.81,1990.57,0.7272,4.5625,19.1068,0.2283,8.3365,-2.5528,-0.0026,-0.5242,-0.1965,-0.6622,-0.218,-0.2902,-0.0162,-0.1227,5.0873,1.2814,0.3491,0.9541,0.0152,0.0307,48451200.0
412,0.39,0.5586,-0.01,5.7398,566.27,1975.25,0.7173,4.5235,18.7466,0.2274,8.2734,-2.5418,-0.0026,-0.5135,-0.1967,-0.6042,-0.1826,-0.2906,-0.0156,-0.1208,5.0905,1.2005,0.3531,0.9543,0.015,0.0307,48568800.0
413,0.39,0.4651,-0.011,5.7203,570.87,1977.91,0.7452,4.5622,19.2178,0.2194,8.3229,-2.5772,-0.0027,-0.5354,-0.2134,-0.6374,-0.1903,-0.2971,-0.016,-0.1235,5.0918,1.2425,0.3721,0.9541,0.0151,0.0308,48686400.0
414,0.39,0.5469,-0.0093,5.7204,583.18,1988.03,0.7244,4.5493,19.7391,0.2278,8.3278,-2.5523,-0.0025,-0.5138,-0.1936,-0.5883,-0.1592,-0.2904,-0.0155,-0.1204,5.0901,1.1707,0.3544,0.9536,0.0154,0.0311,48804000.0
415,0.39,0.5197,-0.011,5.7104,586.66,1987.19,0.7342,4.5545,19.8342,0.2289,8.2823,-2.5445,-0.0026,-0.5226,-0.193,-0.6133,-0.1953,-0.293,-0.0158,-0.1212,5.0949,1.1403,0.3528,0.9536,0.0156,0.0308,48921600.0
416,0.39,0.5021,-0.0105,5.6853,569.69,1976.18,0.7043,4.5556,18.8081,0.2285,8.3495,-2.5571,-0.0024,-0.493,-0.1915,-0.5866,-0.1684,-0.2899,-0.0156,-0.1197,5.1029,1.2532,0.3314,0.9542,0.0154,0.0304,49039200.0
417,0.39,0.5035,-0.0132,5.6666,575.08,1986.52,0.721,4.532,19.5875,0.2212,8.3101,-2.5438,-0.0026,-0.5155,-0.2007,-0.6649,-0.2175,-0.2916,-0.0163,-0.1225,5.1124,1.1417,0.358,0.9541,0.0156,0.0303,49156800.0
418,0.39,0.5044,-0.0099,5.6734,599.05,1989.65,0.6959,4.5804,20.3927,0.2228,8.4805,-2.5951,-0.0023,-0.4944,-0.2,-0.6462,-0.1806,-0.2903,-0.0159,-0.1227,5.1254,1.0996,0.3421,0.955,0.0154,0.0296,49274400.0
419,0.39,0.4469,-0.011,5.6448,595.94,1995.69,0.7519,4.5682,20.444,0.2232,8.302,-2.533,-0.0028,-0.536,-0.2144,-0.669,-0.2003,-0.2984,-0.0162,-0.1241,5.1348,1.1135,0.3731,0.9555,0.0153,0.0291,49392000.0
420,0.39,0.4936,-0.0115,5.6213,591.27,1979.01,0.7093,4.5654,20.2725,0.2282,8.3809,-2.5473,-0.0024,-0.4974,-0.1919,-0.6209,-0.1714,-0.2901,-0.0157,-0.1212,5.1407,1.0885,0.3366,0.9558,0.0152,0.029,49509600.0
421,0.39,0.4412,-0.0108,5.6112,583.43,1976.86,0.7278,4.5842,19.5344,0.2194,8.4109,-2.5674,-0.0025,-0.511,-0.2028,-0.6399,-0.1438,-0.2934,-0.0155,-0.1211,5.1432,1.2142,0.353,0.956,0.0151,0.0289,49627200.0
422,0.39,0.5087,-0.007,5.5992,558.6,1973.87,0.7374,4.5294,18.0582,0.2187,8.2381,-2.5303,-0.0027,-0.5317,-0.2077,-0.6187,-0.1704,-0.298,-0.0156,-0.1214,5.1453,1.361,0.3683,0.9566,0.015,0.0284,49744800.0
423,0.39,0.4609,-0.0105,5.5677,574.87,1977.69,0.7303,4.572,20.2374,0.2223,8.3873,-2.5611,-0.0026,-0.5118,-0.2012,-0.6291,-0.1704,-0.2926,-0.0157,-0.1218,5.148,1.1228,0.3574,0.9567,0.0147,0.0286,49862400.0
424,0.39,0.4655,-0.0119,5.5691,579.71,1992.05,0.7314,4.5722,19.4528,0.2227,8.3459,-2.5376,-0.0026,-0.5168,-0.2,-0.6527,-0.2124,-0.2939,-0.0163,-0.123,5.1506,1.1937,0.357,0.9572,0.0143,0.0285,49980000.0
425,0.39,0.4674,-0.0106,5.5559,574.51,1995.12,0.7159,4.5992,19.2749,0.2276,8.4427,-2.5596,-0.0025,-0.5094,-0.1941,-0.6477,-0.1909,-0.294,-0.016,-0.1224,5.1566,1.214,0.3447,0.9575,0.0141,0.0284,50097600.0
426,0.39,0.5399,-0.0113,5.5492,566.22,1968.04,0.7016,4.5157,19.1759,0.2235,8.3151,-2.5159,-0.0024,-0.4887,-0.1866,-0.6408,-0.2188,-0.2874,-0.016,-0.1228,5.1613,1.1995,0.3361,0.9576,0.0141,0.0283,50215200.0
427,0.39,0.453,-0.0107,5.5386,556.77,1968.04,0.7075,4.6075,18.7481,0.2293,8.4745,-2.5634,-0.0024,-0.49,-0.1922,-0.6423,-0.2,-0.2905,-0.0161,-0.1233,5.1654,1.3297,0.3349,0.958,0.014,0.028,50332800.0
428,0.39,0.4523,-0.0109,5.533,576.11,1996.72,0.7178,4.586,19.0721,0.2248,8.4045,-2.5476,-0.0025,-0.4977,-0.2022,-0.6468,-0.2063,-0.2932,-0.0162,-0.1232,5.1675,1.2251,0.3431,0.9581,0.0137,0.0282,50450400.0
429,0.39,0.4565,-0.0107,5.5138,569.11,1999.64,0.7449,4.5667,18.6644,0.2126,8.3389,-2.5431,-0.0027,-0.5297,-0.2204,-0.6634,-0.1822,-0.3032,-0.016,-0.1248,5.1695,1.3215,0.3769,0.9587,0.0134,0.0279,50568000.0
430,0.38,0.4847,-0.0122,5.4972,555.48,1972.39,0.698,4.5,18.4099,0.2206,8.2718,-2.4932,-0.0023,-0.4791,-0.1867,-0.5895,-0.1626,-0.2809,-0.0151,-0.1186,5.1721,1.2511,0.3164,0.9587,0.0133,0.028,50685600.0
431,0.38,0.4358,-0.0121,5.4528,581.05,1960.7,0.7344,4.527,20.4227,0.2224,8.231,-2.4919,-0.0026,-0.5139,-0.1993,-0.646,-0.2259,-0.2938,-0.0162,-0.1235,5.1773,1.0828,0.35,0.9577,0.0137,0.0286,50803200.0
432,0.38,0.4155,-0.0103,5.4393,591.49,2000.0,0.7268,4.5889,20.1367,0.2194,8.3999,-2.5539,-0.0025,-0.5052,-0.2084,-0.6629,-0.1979,-0.2992,-0.0162,-0.124,5.181,1.1372,0.354,0.9576,0.0136,0.0288,50920800.0
433,0.38,0.4603,-0.012,5.3798,585.65,1990.4,0.7073,4.5615,20.4797,0.2247,8.3948,-2.5141,-0.0024,-0.4877,-0.1995,-0.6251,-0.173,-0.2872,-0.0157,-0.121,5.189,1.055,0.3344,0.9578,0.0136,0.0286,51038400.0
434,0.38,0.4171,-0.0107,5.3772,581.46,1988.15,0.7586,4.5686,19.8829,0.2219,8.2748,-2.5094,-0.0028,-0.5233,-0.2067,-0.6399,-0.1708,-0.299,-0.0159,-0.1222,5.195,1.1408,0.3695,0.9579,0.0137,0.0285,51156000.0
435,0.38,0.4752,-0.0107,5.357,573.75,1981.0,0.727,4.5354,18.8647,0.2277,8.2398,-2.4712,-0.0026,-0.4998,-0.1886,-0.6317,-0.1628,-0.2952,-0.0155,-0.1204,5.1947,1.2325,0.3428,0.9576,0.0138,0.0287,51273600.0
436,0.38,0.4286,-0.0121,5.3386,587.2,1981.44,0.7476,4.5906,19.6117,0.2249,8.329,-2.4951,-0.0027,-0.5109,-0.1983,-0.6575,-0.179,-0.2997,-0.016,-0.123,5.1979,1.1747,0.3498,0.9571,0.0139,0.0291,51391200.0
437,0.38,0.4806,-0.0103,5.33,575.14,1972.3,0.7252,4.5322,18.3808,0.2277,8.2296,-2.4557,-0.0026,-0.4952,-0.1898,-0.5952,-0.1779,-0.29,-0.0156,-0.1215,5.2041,1.2685,0.3302,0.9575,0.0137,0.0288,51508800.0
438,0.38,0.4256,-0.0104,5.3001,558.94,1970.74,0.743,4.5849,18.6776,0.224,8.3085,-2.5058,-0.0027,-0.5146,-0.2006,-0.6518,-0.221,-0.2999,-0.0165,-0.1242,5.2057,1.3002,0.3512,0.9573,0.0139,0.0288,51626400.0
439,0.38,0.4207,-0.0129,5.2865,567.84,1985.95,0.7369,4.558,18.8678,0.2166,8.2939,-2.4944,-0.0026,-0.5069,-0.2053,-0.6444,-0.1808,-0.2965,-0.0158,-0.1225,5.207,1.2261,0.3463,0.957,0.0139,0.0292,51744000.0
440,0.38,0.4224,-0.0116,5.2621,576.32,1990.52,0.7054,4.6005,18.897,0.228,8.4447,-2.5307,-0.0024,-0.4828,-0.1891,-0.6286,-0.1923,-0.2934,-0.016,-0.1232,5.2087,1.2975,0.3265,0.9569,0.0137,0.0294,51861600.0
441,0.38,0.4737,-0.0101,5.2464,576.24,1976.78,0.7467,4.5443,19.6864,0.2306,8.2009,-2.444,-0.0027,-0.5018,-0.1844,-0.6252,-0.1985,-0.2897,-0.0158,-0.1212,5.212,1.1343,0.3308,0.9567,0.0137,0.0296,51979200.0
442,0.38,0.4174,-0.0134,5.2192,573.95,1981.94,0.7439,4.5866,18.9304,0.2263,8.3103,-2.4947,-0.0027,-0.5054,-0.1955,-0.6144,-0.1647,-0.2974,-0.0156,-0.1212,5.2179,1.2858,0.3429,0.9561,0.0139,0.03,52096800.0
443,0.37,0.4153,-0.0093,5.2105,576.28,1996.9,0.7205,4.6087,19.8294,0.2225,8.4535,-2.5288,-0.0024,-0.4921,-0.201,-0.6464,-0.1769,-0.2917,-0.0157,-0.123,5.2223,1.1989,0.3359,0.956,0.0139,0.0301,52214400.0
444,0.37,0.4134,-0.0113,5.1815,581.54,1960.64,0.7361,4.4864,19.6106,0.22,8.1182,-2.4335,-0.0027,-0.5035,-0.1907,-0.5966,-0.1623,-0.289,-0.0152,-0.1196,5.2221,1.1605,0.3405,0.9556,0.0143,0.0301,52332000.0
445,0.37,0.4039,-0.0132,5.1749,569.24,1991.23,0.7105,4.6149,17.6943,0.2277,8.459,-2.5183,-0.0024,-0.4795,-0.1917,-0.6326,-0.1857,-0.295,-0.0159,-0.1231,5.219,1.3763,0.3259,0.9558,0.0139,0.0303,52449600.0
446,0.37,0.4037,-0.0125,5.1647,561.21,1996.5,0.7448,4.5892,18.6713,0.2271,8.3109,-2.4702,-0.0027,-0.5059,-0.1951,-0.6163,-0.1744,-0.2954,-0.0158,-0.1225,5.2251,1.2487,0.3389,0.9561,0.0135,0.0305,52567200.0
447,0.37,0.4036,-0.0112,5.1431,570.76,1994.86,0.707,4.6086,18.8919,0.231,8.4501,-2.5084,-0.0024,-0.4764,-0.1885,-0.5993,-0.1811,-0.2918,-0.0158,-0.1224,5.2283,1.2664,0.3203,0.9559,0.0134,0.0306,52684800.0
448,0.37,0.4888,-0.0111,5.1176,578.31,1975.56,0.732,4.5218,20.3698,0.2225,8.218,-2.4442,-0.0026,-0.5021,-0.2012,-0.6027,-0.1552,-0.2954,-0.0152,-0.1211,5.2375,1.0534,0.3414,0.9562,0.0133,0.0305,52802400.0
449,0.37,0.447,-0.0099,5.0892,572.8,1945.69,0.722,4.5188,19.1912,0.2187,8.2361,-2.4667,-0.0025,-0.4846,-0.1995,-0.6402,-0.1874,-0.2938,-0.0158,-0.1217,5.2394,1.1436,0.3349,0.9559,0.0135,0.0306,52920000.0
450,0.37,0.5048,-0.0097,5.074,556.5,1936.51,0.7178,4.5328,18.7142,0.2314,8.249,-2.4342,-0.0025,-0.4782,-0.1864,-0.582,-0.1598,-0.2885,-0.0152,-0.12,5.24,1.239,0.3216,0.9553,0.0136,0.031,53037600.0
451,0.37,0.4962,-0.0103,5.0597,544.51,1927.57,0.7204,4.4631,17.0541,0.219,8.1207,-2.4069,-0.0025,-0.4839,-0.1898,-0.5999,-0.1775,-0.2898,-0.0154,-0.1194,5.2462,1.3203,0.3348,0.9546,0.0139,0.0316,53155200.0
452,0.37,0.4893,-0.0113,5.0373,571.18,1940.72,0.7326,4.4702,20.7515,0.2168,8.1032,-2.4155,-0.0025,-0.4946,-0.1952,-0.5989,-0.1747,-0.2923,-0.0152,-0.1198,5.2537,0.9877,0.337,0.9541,0.0142,0.0317,53272800.0
453,0.37,0.5685,-0.0084,5.0388,554.75,1909.57,0.6995,4.4589,18.4936,0.2103,8.1781,-2.4298,-0.0023,-0.4719,-0.1918,-0.6343,-0.1653,-0.289,-0.0152,-0.1196,5.2585,1.1837,0.3258,0.954,0.0144,0.0316,53390400.0
454,0.37,0.4083,-0.009,5.0139,555.09,1944.25,0.7532,4.5796,19.5778,0.2222,8.3075,-2.4655,-0.0027,-0.5023,-0.2039,-0.6454,-0.1738,-0.2992,-0.0157,-0.1229,5.2597,1.2359,0.3535,0.9537,0.0145,0.0318,53508000.0
455,0.37,0.5071,-0.0099,5.0078,582.02,1979.43,0.7242,4.556,19.8454,0.2192,8.3033,-2.4746,-0.0025,-0.4847,-0.1962,-0.6073,-0.1545,-0.2965,-0.0154,-0.1212,5.2649,1.1407,0.3336,0.9532,0.0146,0.0322,53625600.0
456,0.37,0.42,-0.012,4.984,589.34,1974.29,0.7456,4.5719,21.0278,0.2217,8.305,-2.4612,-0.0027,-0.4987,-0.197,-0.6362,-0.1997,-0.2975,-0.016,-0.1234,5.265,1.128,0.3463,0.9529,0.0148,0.0323,53743200.0
457,0.37,0.4004,-0.0129,4.9701,586.03,1990.59,0.7381,4.5938,19.4151,0.2275,8.3477,-2.4685,-0.0026,-0.4932,-0.1929,-0.6169,-0.1972,-0.3005,-0.0161,-0.1226,5.2683,1.2231,0.3438,0.9532,0.0148,0.032,53860800.0
458,0.37,0.3955,-0.01,4.9619,575.83,1998.72,0.728,4.604,18.855,0.2223,8.4238,-2.492,-0.0025,-0.4878,-0.201,-0.6367,-0.2092,-0.298,-0.0162,-0.1244,5.2731,1.2599,0.3413,0.9541,0.0146,0.0313,53978400.0
459,0.37,0.3939,-0.0134,4.9391,566.35,1999.37,0.7444,4.6105,17.6549,0.2278,8.3603,-2.4595,-0.0026,-0.4948,-0.1932,-0.6098,-0.1873,-0.2969,-0.0158,-0.1233,5.2743,1.3774,0.3331,0.9546,0.0144,0.031,54096000.0
460,0.37,0.3986,-0.0101,4.9343,559.87,1995.32,0.7599,4.5784,18.3521,0.2183,8.2718,-2.4511,-0.0027,-0.5113,-0.2077,-0.6178,-0.1662,-0.3011,-0.0155,-0.1221,5.2835,1.3212,0.355,0.9552,0.0142,0.0306,54213600.0
461,0.37,0.4059,-0.0132,4.9181,568.01,1979.73,0.7005,4.5645,19.4295,0.2241,8.3782,-2.4683,-0.0022,-0.4602,-0.1893,-0.5817,-0.152,-0.289,-0.0151,-0.1197,5.2854,1.1836,0.3102,0.9551,0.0138,0.031,54331200.0
462,0.37,0.4514,-0.0083,4.9106,586.32,1982.26,0.7352,4.5832,20.037,0.222,8.3515,-2.4483,-0.0025,-0.4872,-0.1999,-0.6235,-0.1939,-0.2958,-0.0159,-0.1229,5.2861,1.1748,0.3379,0.9546,0.0137,0.0318,54448800.0
463,0.37,0.4227,-0.0089,4.9035,576.45,1984.98,0.7476,4.566,20.1479,0.2264,8.2731,-2.4274,-0.0027,-0.4897,-0.193,-0.6104,-0.1657,-0.2976,-0.0156,-0.1205,5.2881,1.1332,0.343,0.9546,0.0136,0.0319,54566400.0
464,0.37,0.4225,-0.0069,4.8954,580.15,1985.12,0.7809,4.5507,20.2714,0.2111,8.1665,-2.4212,-0.003,-0.5266,-0.2155,-0.6515,-0.2162,-0.3062,-0.0164,-0.1235,5.2895,1.128,0.3656,0.9538,0.0135,0.0328,54684000.0
465,0.36,0.5274,-0.0079,4.8693,559.71,1962.05,0.7422,4.5266,18.7326,0.2168,8.1731,-2.4163,-0.0027,-0.4946,-0.1979,-0.6234,-0.1949,-0.3002,-0.0158,-0.1215,5.2918,1.2517,0.3399,0.9535,0.0136,0.0329,54801600.0
466,0.36,0.4255,-0.0101,4.8514,565.07,1963.81,0.7073,4.5845,20.3038,0.2268,8.4078,-2.4568,-0.0024,-0.4654,-0.1865,-0.6183,-0.176,-0.2929,-0.0157,-0.1217,5.2947,1.143,0.3206,0.9536,0.0136,0.0328,54919200.0
467,0.36,0.4516,-0.0098,4.846,593.92,1990.95,0.7373,4.5783,20.0941,0.231,8.3027,-2.4216,-0.0026,-0.4846,-0.1859,-0.6203,-0.1904,-0.2943,-0.0158,-0.1212,5.2981,1.1557,0.3323,0.9533,0.0136,0.0331,55036800.0
468,0.36,0.4147,-0.009,4.8288,585.17,1990.15,0.7326,4.5903,19.8263,0.2294,8.3528,-2.4377,-0.0026,-0.4833,-0.1899,-0.6209,-0.1865,-0.2964,-0.0159,-0.1222,5.3001,1.1879,0.3299,0.953,0.0135,0.0335,55154400.0
469,0.36,0.4337,-0.0108,4.8085,581.16,1984.76,0.7396,4.5784,19.4659,0.2249,8.2789,-2.4142,-0.0027,-0.4891,-0.1936,-0.6277,-0.2195,-0.2992,-0.0162,-0.1235,5.3009,1.2028,0.3268,0.9526,0.0134,0.0339,55272000.0
470,0.36,0.4257,-0.0121,4.8139,569.78,1989.39,0.7302,4.5852,18.2142,0.23,8.3015,-2.4229,-0.0026,-0.4744,-0.1881,-0.5826,-0.1736,-0.2984,-0.0156,-0.1204,5.2997,1.3033,0.3221,0.9523,0.0136,0.0341,55389600.0
471,0.36,0.4044,-0.0126,4.7932,563.93,1991.14,0.7695,4.609,18.7519,0.2324,8.276,-2.3994,-0.0028,-0.5002,-0.1906,-0.631,-0.1534,-0.2996,-0.0154,-0.1205,5.3005,1.2999,0.3347,0.952,0.0134,0.0346,55507200.0
472,0.36,0.4059,-0.0123,4.7869,590.88,1991.43,0.7318,4.6067,21.0661,0.2292,8.4159,-2.4366,-0.0025,-0.4753,-0.1901,-0.6033,-0.1805,-0.2945,-0.0158,-0.1211,5.3009,1.045,0.3243,0.9522,0.013,0.0348,55624800.0
473,0.36,0.4639,-0.0113,4.7783,582.15,1973.8,0.7256,4.5407,18.5375,0.23,8.2362,-2.3726,-0.0025,-0.4648,-0.178,-0.5853,-0.1657,-0.289,-0.0154,-0.1186,5.3035,1.2342,0.3114,0.952,0.0128,0.0352,55742400.0
474,0.36,0.4408,-0.0098,4.7635,566.46,1965.15,0.7375,4.5779,18.5188,0.2262,8.325,-2.4223,-0.0025,-0.4789,-0.1912,-0.5929,-0.1687,-0.2939,-0.0154,-0.1209,5.3057,1.3035,0.327,0.9519,0.013,0.0351,55860000.0
475,0.36,0.4576,-0.0095,4.7492,561.96,1993.1,0.7518,4.6093,17.7902,0.2353,8.3081,-2.3903,-0.0027,-0.4903,-0.1892,-0.6146,-0.2044,-0.299,-0.016,-0.1225,5.3071,1.3664,0.3255,0.9521,0.0128,0.0351,55977600.0
476,0.36,0.4443,-0.0081,4.7426,567.02,1974.79,0.6954,4.4312,18.0976,0.224,8.0812,-2.3336,-0.0023,-0.4467,-0.1777,-0.5452,-0.1501,-0.2821,-0.0147,-0.1157,5.3077,1.2211,0.3009,0.9522,0.0127,0.0351,56095200.0
477,0.36,0.4438,-0.0089,4.7374,583.37,1975.99,0.7111,4.5367,19.3152,0.2272,8.2802,-2.3803,-0.0024,-0.4532,-0.1843,-0.5794,-0.1709,-0.2876,-0.0153,-0.1185,5.3073,1.1691,0.3059,0.9517,0.0127,0.0356,56212800.0
478,0.36,0.3971,-0.0094,4.7245,572.01,1977.02,0.707,4.625,19.5082,0.2252,8.5,-2.4641,-0.0023,-0.4532,-0.1858,-0.6247,-0.2081,-0.2961,-0.0161,-0.124,5.3049,1.2036,0.3149,0.951,0.0127,0.0363,56330400.0
479,0.36,0.4445,-0.0094,4.7221,571.63,1983.52,0.7272,4.5049,18.9224,0.2155,8.1767,-2.3745,-0.0026,-0.4821,-0.1971,-0.6047,-0.2197,-0.2967,-0.0161,-0.1223,5.308,1.2217,0.3324,0.9509,0.0127,0.0364,56448000.0
480,0.36,0.4092,-0.0108,4.7168,583.28,1982.8,0.7418,4.6002,19.7272,0.2306,8.3293,-2.4005,-0.0026,-0.48,-0.1901,-0.5994,-0.1881,-0.2989,-0.0158,-0.1213,5.3066,1.1745,0.3306,0.9507,0.0127,0.0366,56565600.0
481,0.36,0.4603,-0.0107,4.697,592.57,1990.62,0.7494,4.5855,18.9587,0.2276,8.3219,-2.3947,-0.0026,-0.4867,-0.186,-0.5913,-0.1603,-0.2947,-0.0152,-0.1206,5.307,1.2614,0.3326,0.9509,0.0124,0.0367,56683200.0
482,0.36,0.4075,-0.011,4.6769,580.11,1991.37,0.7399,4.6001,19.1846,0.2253,8.3645,-2.4124,-0.0026,-0.4836,-0.1952,-0.628,-0.1948,-0.2986,-0.0157,-0.1225,5.3104,1.2218,0.331,0.9513,0.0124,0.0363,56800800.0
483,0.36,0.4034,-0.0104,4.6697,579.18,1994.44,0.7281,4.6208,19.7419,0.2238,8.4246,-2.4456,-0.0025,-0.475,-0.1987,-0.6481,-0.235,-0.2998,-0.0164,-0.1244,5.3148,1.2283,0.325,0.9518,0.0122,0.036,56918400.0
484,0.36,0.4034,-0.0112,4.6572,582.42,1996.04,0.7329,4.6132,19.3275,0.2261,8.374,-2.3984,-0.0025,-0.4717,-0.1936,-0.5977,-0.1561,-0.2953,-0.0153,-0.1199,5.3188,1.2241,0.319,0.9523,0.0117,0.036,57036000.0
485,0.36,0.4046,-0.0102,4.6456,575.52,1991.6,0.725,4.6138,19.2661,0.2327,8.4118,-2.4124,-0.0025,-0.4619,-0.1835,-0.5913,-0.1729,-0.2949,-0.0155,-0.12,5.3212,1.2643,0.3161,0.9529,0.0112,0.0359,57153600.0
486,0.36,0.4051,-0.011,4.6341,578.29,1992.63,0.7226,4.5982,18.9707,0.2239,8.3973,-2.4217,-0.0024,-0.4639,-0.1926,-0.6054,-0.2007,-0.2983,-0.016,-0.122,5.3223,1.2215,0.3257,0.9528,0.011,0.0362,57271200.0
487,0.36,0.4062,-0.0119,4.6209,565.42,1982.7,0.7098,4.5929,17.6937,0.2318,8.3733,-2.4081,-0.0024,-0.4491,-0.1796,-0.5946,-0.1832,-0.2945,-0.0156,-0.1191,5.3222,1.3416,0.309,0.9522,0.0108,0.0369,57388800.0
488,0.36,0.444,-0.0119,4.6038,570.03,1974.9,0.6906,4.4999,19.1948,0.2207,8.2422,-2.3777,-0.0023,-0.4452,-0.1897,-0.5894,-0.2418,-0.2894,-0.0162,-0.1209,5.3268,1.1523,0.3053,0.9515,0.0106,0.0379,57506400.0
489,0.36,0.4726,-0.0121,4.5891,573.24,1972.46,0.708,4.5692,18.5896,0.2315,8.3461,-2.3901,-0.0024,-0.4437,-0.1805,-0.5638,-0.1622,-0.2905,-0.0152,-0.1182,5.3265,1.2383,0.3065,0.951,0.0107,0.0384,57624000.0
490,0.36,0.4257,-0.0102,4.5769,564.26,1987.25,0.7431,4.6052,17.9761,0.2287,8.3263,-2.3878,-0.0026,-0.4744,-0.194,-0.604,-0.1873,-0.2969,-0.0157,-0.1211,5.3278,1.3525,0.3182,0.9506,0.0108,0.0386,57741600.0
